(.../EAGLE-7.6.0/ulp/pcb-gcode/pcb-gcode.ulp)
(Copyright 2005 - 2012 by John Johnson)
(See readme.txt for licensing terms.)
(This file generated from the board:)
(.../SLMS_Projects/MQ-4-IOT/eagle/mq-4-v0.2.brd)
(Current profile is .../pcb-gcode/profiles/generic.pp  )
(This file generated 25/10/2016 15:16)
(Settings from pcb-machine.h)
(spindle on time = 3.0000)
(  Tool Size)
(0.3000 )
(spindle speed = 30000.0000)
(tool change at 0.0000 0.0000 25.4000 )
(feed rate xy = F508.00 )
(feed rate z  = F254.00 )
(Z Axis Settings)
(  High     Up        Down     Drill)
(12.7000 	2.5400 	-0.1778 	-0.8128 )
(Settings from pcb-defaults.h)
(isolate min = 0.0254)
(isolate max = 1.7080)
(isolate step = 0.2270)
(Generated bottom outlines, bottom drill, )
(Unit of measure: mm)
(Metric Mode)
G21
(Absolute Coordinates)
G90
S30000
G00 Z12.7000 
G00 X0.0000 Y0.0000 
M03
G04 P3.000000
G00 Z2.5400 
G00 X0.9162 Y0.9867 
G01 Z-0.1778 F254.00 
G01 X0.9867 Y0.9162 F508.00 
G01 X1.0731 Y0.8664 
G01 X1.1693 Y0.8406 
G01 X1.9521 Y0.8406 
G01 X1.9989 Y0.7488 
G01 X2.0979 Y0.6125 
G01 X2.2171 Y0.4933 
G01 X2.3535 Y0.3942 
G01 X2.5036 Y0.3177 
G01 X2.6639 Y0.2656 
G01 X2.8304 Y0.2392 
G01 X4.7896 Y0.2392 
G01 X4.9561 Y0.2656 
G01 X5.1164 Y0.3177 
G01 X5.2665 Y0.3942 
G01 X5.4029 Y0.4933 
G01 X5.5221 Y0.6125 
G01 X5.6211 Y0.7488 
G01 X5.6679 Y0.8406 
G01 X21.3606 Y0.8406 
G01 X21.4569 Y0.8664 
G01 X21.5433 Y0.9162 
G01 X21.6138 Y0.9867 
G01 X21.6636 Y1.0731 
G01 X21.6894 Y1.1693 
G01 X21.6894 Y3.2701 
G01 X21.6636 Y3.3664 
G01 X21.6138 Y3.4527 
G01 X21.5444 Y3.5221 
G01 X21.4569 Y3.5731 
G01 X21.3606 Y3.5989 
G01 X21.2610 Y3.5989 
G01 X21.1647 Y3.5731 
G01 X21.1558 Y3.5680 
G01 X21.1558 Y4.0520 
G01 X21.1647 Y4.0469 
G01 X21.2610 Y4.0211 
G01 X21.3606 Y4.0211 
G01 X21.4569 Y4.0469 
G01 X21.5414 Y4.0957 
G01 X21.6138 Y4.1672 
G01 X21.6636 Y4.2536 
G01 X21.6894 Y4.3499 
G01 X21.6894 Y24.4032 
G01 X21.6636 Y24.4995 
G01 X21.6138 Y24.5858 
G01 X21.5444 Y24.6552 
G01 X21.4569 Y24.7061 
G01 X21.3606 Y24.7319 
G01 X21.2610 Y24.7319 
G01 X21.1647 Y24.7061 
G01 X20.6270 Y24.3957 
G01 X20.0063 Y24.2294 
G01 X19.3637 Y24.2294 
G01 X18.7430 Y24.3957 
G01 X18.1864 Y24.7170 
G01 X17.7320 Y25.1714 
G01 X17.4107 Y25.7280 
G01 X17.2444 Y26.3487 
G01 X17.2444 Y26.9913 
G01 X17.4107 Y27.6120 
G01 X17.7320 Y28.1686 
G01 X18.1864 Y28.6230 
G01 X18.6628 Y28.8980 
G01 X18.7479 Y28.9471 
G01 X18.8196 Y29.0183 
G01 X18.8695 Y29.1047 
G01 X18.8896 Y29.1797 
G01 X18.8953 Y29.2009 
G01 X18.8953 Y29.3006 
G01 X18.8695 Y29.3969 
G01 X18.8207 Y29.4814 
G01 X18.7492 Y29.5538 
G01 X18.6628 Y29.6036 
G01 X18.5877 Y29.6237 
G01 X18.5665 Y29.6294 
G01 X4.2935 Y29.6294 
G01 X4.2740 Y29.6242 
G01 X4.1972 Y29.6036 
G01 X4.1108 Y29.5538 
G01 X4.0404 Y29.4833 
G01 X3.9905 Y29.3969 
G01 X3.9647 Y29.3006 
G01 X3.9647 Y29.2009 
G01 X3.9699 Y29.1815 
G01 X3.9905 Y29.1047 
G01 X4.0404 Y29.0183 
G01 X4.1108 Y28.9478 
G01 X4.1972 Y28.8980 
G01 X4.6736 Y28.6230 
G01 X5.1280 Y28.1686 
G01 X5.4493 Y27.6120 
G01 X5.6156 Y26.9913 
G01 X5.6156 Y26.3487 
G01 X5.4493 Y25.7280 
G01 X5.1280 Y25.1714 
G01 X4.6736 Y24.7170 
G01 X4.1170 Y24.3957 
G01 X3.4963 Y24.2294 
G01 X2.8537 Y24.2294 
G01 X2.2330 Y24.3957 
G01 X1.6764 Y24.7170 
G01 X1.5221 Y24.8713 
G01 X1.4563 Y24.9372 
G01 X1.4517 Y24.9418 
G01 X1.3653 Y24.9916 
G01 X1.2903 Y25.0118 
G01 X1.2690 Y25.0175 
G01 X1.1693 Y25.0175 
G01 X1.0731 Y24.9916 
G01 X0.9886 Y24.9429 
G01 X0.9162 Y24.8713 
G01 X0.8664 Y24.7850 
G01 X0.8463 Y24.7099 
G01 X0.8406 Y24.6887 
G01 X0.8406 Y1.1693 
G01 X0.8664 Y1.0731 
G01 X0.9162 Y0.9867 
G00 Z2.5400 
G00 X1.8736 Y5.6144 
G01 Z-0.1778 F254.00 
G01 X1.6867 Y6.0657 F508.00 
G01 X1.6867 Y6.5543 
G01 X1.8736 Y7.0056 
G01 X2.2191 Y7.3510 
G01 X2.6704 Y7.5379 
G01 X3.5626 Y7.5379 
G01 X3.6589 Y7.5637 
G01 X3.7452 Y7.6136 
G01 X3.8157 Y7.6841 
G01 X6.9868 Y10.8551 
G01 X7.0366 Y10.9415 
G01 X7.0624 Y11.0378 
G01 X7.0624 Y13.8722 
G01 X7.0366 Y13.9685 
G01 X6.9868 Y14.0548 
G01 X6.9163 Y14.1253 
G01 X5.8597 Y15.1819 
G01 X5.7124 Y15.5375 
G01 X5.7124 Y17.4378 
G01 X5.7157 Y17.4626 
G01 X5.7124 Y17.4874 
G01 X5.7124 Y17.5124 
G01 X5.7059 Y17.5366 
G01 X5.7027 Y17.5614 
G01 X5.6934 Y17.5837 
G01 X5.6934 Y17.9762 
G01 X5.8436 Y18.3389 
G01 X6.1211 Y18.6164 
G01 X6.4837 Y18.7666 
G01 X6.8762 Y18.7666 
G01 X7.2389 Y18.6164 
G01 X7.5164 Y18.3389 
G01 X7.6666 Y17.9762 
G01 X7.6666 Y17.5837 
G01 X7.6573 Y17.5614 
G01 X7.6541 Y17.5366 
G01 X7.6476 Y17.5124 
G01 X7.6476 Y17.4874 
G01 X7.6443 Y17.4626 
G01 X7.6476 Y17.4378 
G01 X7.6476 Y16.2378 
G01 X7.6734 Y16.1415 
G01 X7.7232 Y16.0551 
G01 X7.7937 Y15.9847 
G01 X8.4722 Y15.3062 
G01 X8.4874 Y15.2863 
G01 X8.5073 Y15.2711 
G01 X8.5250 Y15.2534 
G01 X8.5467 Y15.2409 
G01 X8.5665 Y15.2256 
G01 X8.5889 Y15.2164 
G01 X8.8664 Y14.9389 
G01 X9.0166 Y14.5762 
G01 X9.0166 Y14.1837 
G01 X9.0073 Y14.1614 
G01 X9.0041 Y14.1366 
G01 X8.9976 Y14.1124 
G01 X8.9976 Y14.0874 
G01 X8.9943 Y14.0626 
G01 X8.9976 Y14.0378 
G01 X8.9976 Y10.3375 
G01 X8.8503 Y9.9819 
G01 X5.9802 Y7.1118 
G01 X5.9603 Y7.0965 
G01 X5.9451 Y7.0767 
G01 X5.9274 Y7.0590 
G01 X5.9149 Y7.0373 
G01 X5.8996 Y7.0174 
G01 X5.8900 Y6.9943 
G01 X5.8775 Y6.9726 
G01 X5.8710 Y6.9485 
G01 X5.8615 Y6.9253 
G01 X5.8582 Y6.9005 
G01 X5.8517 Y6.8764 
G01 X5.8517 Y6.8513 
G01 X5.8485 Y6.8265 
G01 X5.8517 Y6.8017 
G01 X5.8517 Y6.7767 
G01 X5.8582 Y6.7525 
G01 X5.8615 Y6.7277 
G01 X5.8710 Y6.7046 
G01 X5.8775 Y6.6804 
G01 X5.8900 Y6.6587 
G01 X5.9333 Y6.5543 
G01 X5.9333 Y6.0657 
G01 X5.7464 Y5.6144 
G01 X5.4009 Y5.2690 
G01 X4.9496 Y5.0820 
G01 X2.6704 Y5.0820 
G01 X2.2191 Y5.2690 
G01 X1.8736 Y5.6144 
G00 Z2.5400 
G00 X2.0979 Y5.6125 
G01 Z-0.1778 F254.00 
G01 X2.2171 Y5.4933 F508.00 
G01 X2.3535 Y5.3942 
G01 X2.5036 Y5.3177 
G01 X2.6639 Y5.2656 
G01 X2.8304 Y5.2393 
G01 X4.7896 Y5.2393 
G01 X4.9561 Y5.2656 
G01 X5.1164 Y5.3177 
G01 X5.2665 Y5.3942 
G01 X5.4029 Y5.4933 
G01 X5.5221 Y5.6125 
G01 X5.6211 Y5.7488 
G01 X5.6977 Y5.8990 
G01 X5.7497 Y6.0593 
G01 X5.7761 Y6.2257 
G01 X5.7761 Y6.3943 
G01 X5.7497 Y6.5607 
G01 X5.6977 Y6.7210 
G01 X5.6211 Y6.8712 
G01 X5.5774 Y6.9314 
G01 X8.6595 Y10.0134 
G01 X8.7482 Y10.1461 
G01 X8.8093 Y10.2936 
G01 X8.8404 Y10.4502 
G01 X8.8404 Y14.2028 
G01 X8.8594 Y14.2983 
G01 X8.8594 Y14.4617 
G01 X8.8275 Y14.6219 
G01 X8.7650 Y14.7729 
G01 X8.6742 Y14.9087 
G01 X8.5587 Y15.0242 
G01 X8.4777 Y15.0783 
G01 X7.4904 Y16.0657 
G01 X7.4904 Y17.6028 
G01 X7.5094 Y17.6983 
G01 X7.5094 Y17.8617 
G01 X7.4775 Y18.0219 
G01 X7.4150 Y18.1729 
G01 X7.3242 Y18.3087 
G01 X7.2087 Y18.4242 
G01 X7.0729 Y18.5150 
G01 X6.9219 Y18.5775 
G01 X6.7617 Y18.6094 
G01 X6.5983 Y18.6094 
G01 X6.4381 Y18.5775 
G01 X6.2871 Y18.5150 
G01 X6.1513 Y18.4242 
G01 X6.0358 Y18.3087 
G01 X5.9450 Y18.1729 
G01 X5.8825 Y18.0219 
G01 X5.8506 Y17.8617 
G01 X5.8506 Y17.6983 
G01 X5.8696 Y17.6028 
G01 X5.8696 Y15.6502 
G01 X5.9007 Y15.4936 
G01 X5.9618 Y15.3461 
G01 X6.0505 Y15.2134 
G01 X7.2196 Y14.0443 
G01 X7.2196 Y10.8657 
G01 X3.7347 Y7.3807 
G01 X2.8304 Y7.3807 
G01 X2.6639 Y7.3544 
G01 X2.5036 Y7.3023 
G01 X2.3535 Y7.2258 
G01 X2.2171 Y7.1267 
G01 X2.0979 Y7.0075 
G01 X1.9989 Y6.8712 
G01 X1.9223 Y6.7210 
G01 X1.8703 Y6.5607 
G01 X1.8439 Y6.3943 
G01 X1.8439 Y6.2257 
G01 X1.8703 Y6.0593 
G01 X1.9223 Y5.8990 
G01 X1.9989 Y5.7488 
G01 X2.0979 Y5.6125 
G00 Z2.5400 
G00 X9.1670 Y4.2213 
G01 Z-0.1778 F254.00 
G01 X9.7487 Y4.8030 F508.00 
G01 X10.6089 Y4.8030 
G01 X10.7037 Y4.7776 
G01 X12.1922 Y4.7776 
G01 X12.2885 Y4.8034 
G01 X12.3748 Y4.8532 
G01 X12.4453 Y4.9237 
G01 X14.8386 Y7.3170 
G01 X14.9080 Y7.3864 
G01 X14.9590 Y7.4739 
G01 X14.9848 Y7.5702 
G01 X14.9848 Y7.6698 
G01 X14.9590 Y7.7661 
G01 X14.9091 Y7.8525 
G01 X14.0097 Y8.7519 
G01 X13.8624 Y9.1075 
G01 X13.8624 Y14.0378 
G01 X13.8657 Y14.0626 
G01 X13.8624 Y14.0874 
G01 X13.8624 Y14.1124 
G01 X13.8559 Y14.1366 
G01 X13.8527 Y14.1614 
G01 X13.8434 Y14.1837 
G01 X13.8434 Y14.5762 
G01 X13.9936 Y14.9389 
G01 X14.2711 Y15.2164 
G01 X14.6337 Y15.3666 
G01 X15.0262 Y15.3666 
G01 X15.3889 Y15.2164 
G01 X15.6664 Y14.9389 
G01 X15.8166 Y14.5762 
G01 X15.8166 Y14.1837 
G01 X15.8073 Y14.1614 
G01 X15.8041 Y14.1366 
G01 X15.7976 Y14.1124 
G01 X15.7976 Y14.0874 
G01 X15.7943 Y14.0626 
G01 X15.7976 Y14.0378 
G01 X15.7976 Y9.8078 
G01 X15.8234 Y9.7115 
G01 X15.8732 Y9.6251 
G01 X15.9437 Y9.5547 
G01 X16.0477 Y9.4506 
G01 X16.1341 Y9.4008 
G01 X16.2304 Y9.3750 
G01 X16.7176 Y9.3750 
G01 X17.1013 Y9.2161 
G01 X17.3949 Y8.9225 
G01 X17.5538 Y8.5388 
G01 X17.5538 Y6.7012 
G01 X17.3949 Y6.3175 
G01 X17.1013 Y6.0239 
G01 X16.7176 Y5.8650 
G01 X16.2304 Y5.8650 
G01 X16.1341 Y5.8392 
G01 X16.0477 Y5.7894 
G01 X15.9773 Y5.7189 
G01 X13.2481 Y2.9897 
G01 X12.8925 Y2.8424 
G01 X10.7037 Y2.8424 
G01 X10.6089 Y2.8170 
G01 X9.7487 Y2.8170 
G01 X9.1670 Y3.3987 
G01 X9.1670 Y4.2213 
G00 Z2.5400 
G00 X9.3242 Y4.1562 
G01 Z-0.1778 F254.00 
G01 X9.3242 Y3.4638 F508.00 
G01 X9.8138 Y2.9742 
G01 X10.5062 Y2.9742 
G01 X10.5316 Y2.9996 
G01 X12.7798 Y2.9996 
G01 X12.9364 Y3.0307 
G01 X13.0839 Y3.0918 
G01 X13.2166 Y3.1805 
G01 X16.1389 Y6.1029 
G01 X16.2514 Y6.0563 
G01 X16.4227 Y6.0222 
G01 X16.5973 Y6.0222 
G01 X16.7686 Y6.0563 
G01 X16.9300 Y6.1231 
G01 X17.0752 Y6.2201 
G01 X17.1987 Y6.3436 
G01 X17.2957 Y6.4888 
G01 X17.3625 Y6.6502 
G01 X17.3966 Y6.8215 
G01 X17.3966 Y8.4185 
G01 X17.3625 Y8.5898 
G01 X17.2957 Y8.7512 
G01 X17.1987 Y8.8964 
G01 X17.0752 Y9.0199 
G01 X16.9300 Y9.1169 
G01 X16.7686 Y9.1837 
G01 X16.5973 Y9.2178 
G01 X16.4227 Y9.2178 
G01 X16.2514 Y9.1837 
G01 X16.1389 Y9.1371 
G01 X15.6404 Y9.6357 
G01 X15.6404 Y14.2028 
G01 X15.6594 Y14.2983 
G01 X15.6594 Y14.4617 
G01 X15.6275 Y14.6219 
G01 X15.5650 Y14.7729 
G01 X15.4742 Y14.9087 
G01 X15.3587 Y15.0242 
G01 X15.2229 Y15.1150 
G01 X15.0719 Y15.1775 
G01 X14.9117 Y15.2094 
G01 X14.7483 Y15.2094 
G01 X14.5881 Y15.1775 
G01 X14.4371 Y15.1150 
G01 X14.3013 Y15.0242 
G01 X14.1858 Y14.9087 
G01 X14.0950 Y14.7729 
G01 X14.0325 Y14.6219 
G01 X14.0006 Y14.4617 
G01 X14.0006 Y14.2983 
G01 X14.0196 Y14.2028 
G01 X14.0196 Y9.2202 
G01 X14.0507 Y9.0636 
G01 X14.1118 Y8.9161 
G01 X14.2005 Y8.7834 
G01 X15.3639 Y7.6200 
G01 X12.3643 Y4.6204 
G01 X10.5316 Y4.6204 
G01 X10.5062 Y4.6458 
G01 X9.8138 Y4.6458 
G01 X9.3242 Y4.1562 
G00 Z2.5400 
G00 X8.5889 Y20.3436 
G01 Z-0.1778 F254.00 
G01 X8.2262 Y20.1934 F508.00 
G01 X7.8337 Y20.1934 
G01 X7.4711 Y20.3436 
G01 X7.1936 Y20.6211 
G01 X7.0434 Y20.9837 
G01 X7.0434 Y21.3762 
G01 X7.1936 Y21.7389 
G01 X7.4711 Y22.0164 
G01 X7.8337 Y22.1666 
G01 X8.2262 Y22.1666 
G01 X8.5889 Y22.0164 
G01 X8.8664 Y21.7389 
G01 X9.0166 Y21.3762 
G01 X9.0166 Y20.9838 
G01 X8.8664 Y20.6211 
G01 X8.5889 Y20.3436 
G00 Z2.5400 
G00 X8.5587 Y20.5358 
G01 Z-0.1778 F254.00 
G01 X8.6742 Y20.6513 F508.00 
G01 X8.7650 Y20.7871 
G01 X8.8275 Y20.9381 
G01 X8.8594 Y21.0983 
G01 X8.8594 Y21.2617 
G01 X8.8275 Y21.4219 
G01 X8.7650 Y21.5729 
G01 X8.6742 Y21.7087 
G01 X8.5587 Y21.8242 
G01 X8.4229 Y21.9150 
G01 X8.2719 Y21.9775 
G01 X8.1117 Y22.0094 
G01 X7.9483 Y22.0094 
G01 X7.7881 Y21.9775 
G01 X7.6371 Y21.9150 
G01 X7.5013 Y21.8242 
G01 X7.3858 Y21.7087 
G01 X7.2950 Y21.5729 
G01 X7.2325 Y21.4219 
G01 X7.2006 Y21.2617 
G01 X7.2006 Y21.0983 
G01 X7.2325 Y20.9381 
G01 X7.2950 Y20.7871 
G01 X7.3858 Y20.6513 
G01 X7.5013 Y20.5358 
G01 X7.6371 Y20.4450 
G01 X7.7881 Y20.3825 
G01 X7.9483 Y20.3506 
G01 X8.1117 Y20.3506 
G01 X8.2719 Y20.3825 
G01 X8.4229 Y20.4450 
G01 X8.5587 Y20.5358 
G00 Z2.5400 
G00 X13.9936 Y20.6211 
G01 Z-0.1778 F254.00 
G01 X13.8434 Y20.9837 F508.00 
G01 X13.8434 Y21.3762 
G01 X13.9936 Y21.7389 
G01 X14.2711 Y22.0164 
G01 X14.6337 Y22.1666 
G01 X15.0262 Y22.1666 
G01 X15.3889 Y22.0164 
G01 X15.6664 Y21.7389 
G01 X15.8166 Y21.3762 
G01 X15.8166 Y20.9837 
G01 X15.6664 Y20.6211 
G01 X15.3889 Y20.3436 
G01 X15.0262 Y20.1934 
G01 X14.6337 Y20.1934 
G01 X14.2711 Y20.3436 
G01 X13.9936 Y20.6211 
G00 Z2.5400 
G00 X14.1858 Y20.6513 
G01 Z-0.1778 F254.00 
G01 X14.3013 Y20.5358 F508.00 
G01 X14.4371 Y20.4450 
G01 X14.5881 Y20.3825 
G01 X14.7483 Y20.3506 
G01 X14.9117 Y20.3506 
G01 X15.0719 Y20.3825 
G01 X15.2229 Y20.4450 
G01 X15.3587 Y20.5358 
G01 X15.4742 Y20.6513 
G01 X15.5650 Y20.7871 
G01 X15.6275 Y20.9381 
G01 X15.6594 Y21.0983 
G01 X15.6594 Y21.2617 
G01 X15.6275 Y21.4219 
G01 X15.5650 Y21.5729 
G01 X15.4742 Y21.7087 
G01 X15.3587 Y21.8242 
G01 X15.2229 Y21.9150 
G01 X15.0719 Y21.9775 
G01 X14.9117 Y22.0094 
G01 X14.7483 Y22.0094 
G01 X14.5881 Y21.9775 
G01 X14.4371 Y21.9150 
G01 X14.3013 Y21.8242 
G01 X14.1858 Y21.7087 
G01 X14.0950 Y21.5729 
G01 X14.0325 Y21.4219 
G01 X14.0006 Y21.2617 
G01 X14.0006 Y21.0983 
G01 X14.0325 Y20.9381 
G01 X14.0950 Y20.7871 
G01 X14.1858 Y20.6513 
G00 Z2.5400 
G00 Z2.540000
G00 X3.1750 Y26.6700 
G01 Z-0.2000 F508.00 
G01 Z2.540000
(R2.5400  P1.000000)
G00 X19.6850 Y26.6700 
G01 Z-0.812800
G01 Z2.540000
G00 X20.3200 Y3.8100 
G01 Z-0.812800
G01 Z2.540000
G00 X10.1600 Y3.8100 
G01 Z-0.812800
G01 Z2.540000
G00 X16.5100 Y7.6200 
G01 Z-0.812800
G01 Z2.540000
G00 X8.0300 Y21.1800 
G01 Z-0.812800
G01 Z2.540000
G00 X8.0300 Y14.3800 
G01 Z-0.812800
G01 Z2.540000
G00 X14.8300 Y21.1800 
G01 Z-0.812800
G01 Z2.540000
G00 X14.8300 Y14.3800 
G01 Z-0.812800
G01 Z2.540000
G00 X6.6800 Y17.7800 
G01 Z-0.812800
G01 Z2.540000
G00 X16.1800 Y17.7800 
G01 Z-0.812800
G01 Z2.540000
G00 X3.8100 Y6.3100 
G01 Z-0.812800
G01 Z2.540000
G00 X3.8100 Y1.3100 
G01 Z-0.812800
G01 Z2.540000
G00 Z12.7000 
M05
M02
