(.../EAGLE-7.6.0/ulp/pcb-gcode/pcb-gcode.ulp)
(Copyright 2005 - 2012 by John Johnson)
(See readme.txt for licensing terms.)
(This file generated from the board:)
(.../MQ-4-IOT/eagle/mq-4-outline.brd)
(Current profile is .../pcb-gcode/profiles/generic.pp  )
(This file generated 19/10/2016 16:21)
(Settings from pcb-machine.h)
(spindle on time = 3.0000)
(  Tool Size)
(0.1778 )
(spindle speed = 30000.0000)
(tool change at 0.0000 0.0000 25.4000 )
(feed rate xy = F508.00 )
(feed rate z  = F254.00 )
(Z Axis Settings)
(  High     Up        Down     Drill)
(12.7000 	2.5400 	-0.1778 	-0.8128 )
(Settings from pcb-defaults.h)
(isolate min = 0.0254)
(isolate max = 1.7080)
(isolate step = 0.2270)
(Generated bottom outlines, )
(Unit of measure: mm)
(Metric Mode)
G21
(Absolute Coordinates)
G90
S30000
G00 Z12.7000 
G00 X0.0000 Y0.0000 
M03
G04 P3.000000
G00 Z2.5400 
G00 X-0.9651 Y1.0242 
G01 Z-0.1778 F254.00 
G01 X-1.0242 Y0.9651 F508.00 
G01 X-1.0966 Y0.9233 
G01 X-1.1774 Y0.9017 
G01 X-25.1626 Y0.9017 
G01 X-25.2433 Y0.9233 
G01 X-25.3157 Y0.9651 
G01 X-25.3749 Y1.0242 
G01 X-25.4167 Y1.0966 
G01 X-25.4383 Y1.1774 
G01 X-25.4383 Y33.1026 
G01 X-25.4167 Y33.1833 
G01 X-25.3749 Y33.2557 
G01 X-25.3157 Y33.3149 
G01 X-25.2433 Y33.3567 
G01 X-25.1626 Y33.3783 
G01 X-25.0790 Y33.3783 
G01 X-1.1774 Y33.3783 
G01 X-1.0966 Y33.3567 
G01 X-1.0242 Y33.3149 
G01 X-0.9651 Y33.2557 
G01 X-0.9233 Y33.1833 
G01 X-0.9017 Y33.1026 
G01 X-0.9017 Y1.1774 
G01 X-0.9233 Y1.0966 
G01 X-0.9651 Y1.0242 
G00 Z2.5400 
G00 X-0.7835 Y0.8849 
G01 Z-0.1778 F254.00 
G01 X-0.8849 Y0.7835 F508.00 
G01 X-1.0090 Y0.7118 
G01 X-1.1475 Y0.6747 
G01 X-25.1925 Y0.6747 
G01 X-25.3310 Y0.7118 
G01 X-25.4551 Y0.7835 
G01 X-25.5565 Y0.8849 
G01 X-25.6282 Y1.0090 
G01 X-25.6653 Y1.1475 
G01 X-25.6653 Y33.1325 
G01 X-25.6282 Y33.2710 
G01 X-25.5565 Y33.3951 
G01 X-25.4551 Y33.4965 
G01 X-25.3310 Y33.5682 
G01 X-25.1925 Y33.6053 
G01 X-25.0491 Y33.6053 
G01 X-1.1475 Y33.6053 
G01 X-1.0090 Y33.5682 
G01 X-0.8849 Y33.4965 
G01 X-0.7835 Y33.3951 
G01 X-0.7118 Y33.2710 
G01 X-0.6747 Y33.1325 
G01 X-0.6747 Y1.1475 
G01 X-0.7118 Y1.0090 
G01 X-0.7835 Y0.8849 
G00 Z2.5400 
G00 X-0.6199 Y0.7274 
G01 Z-0.1778 F254.00 
G01 X-0.7274 Y0.6199 F508.00 
G01 X-0.8538 Y0.5355 
G01 X-0.9942 Y0.4773 
G01 X-1.1432 Y0.4477 
G01 X-25.1968 Y0.4477 
G01 X-25.3458 Y0.4773 
G01 X-25.4862 Y0.5355 
G01 X-25.6126 Y0.6199 
G01 X-25.7201 Y0.7274 
G01 X-25.8045 Y0.8538 
G01 X-25.8626 Y0.9942 
G01 X-25.8923 Y1.1432 
G01 X-25.8923 Y33.1368 
G01 X-25.8626 Y33.2858 
G01 X-25.8045 Y33.4262 
G01 X-25.7201 Y33.5526 
G01 X-25.6126 Y33.6601 
G01 X-25.4862 Y33.7445 
G01 X-25.3458 Y33.8026 
G01 X-25.1968 Y33.8323 
G01 X-25.0448 Y33.8323 
G01 X-1.1432 Y33.8323 
G01 X-0.9942 Y33.8026 
G01 X-0.8538 Y33.7445 
G01 X-0.7274 Y33.6601 
G01 X-0.6199 Y33.5526 
G01 X-0.5355 Y33.4262 
G01 X-0.4773 Y33.2858 
G01 X-0.4477 Y33.1368 
G01 X-0.4477 Y1.1432 
G01 X-0.4773 Y0.9942 
G01 X-0.5355 Y0.8538 
G01 X-0.6199 Y0.7274 
G00 Z2.5400 
G00 X-0.4436 Y0.5827 
G01 Z-0.1778 F254.00 
G01 X-0.5827 Y0.4436 F508.00 
G01 X-0.7462 Y0.3343 
G01 X-0.9279 Y0.2591 
G01 X-1.1208 Y0.2207 
G01 X-25.2191 Y0.2207 
G01 X-25.4121 Y0.2591 
G01 X-25.5938 Y0.3343 
G01 X-25.7573 Y0.4436 
G01 X-25.8964 Y0.5827 
G01 X-26.0057 Y0.7462 
G01 X-26.0809 Y0.9279 
G01 X-26.1193 Y1.1208 
G01 X-26.1193 Y33.1591 
G01 X-26.0809 Y33.3520 
G01 X-26.0057 Y33.5338 
G01 X-25.8964 Y33.6973 
G01 X-25.7573 Y33.8364 
G01 X-25.5938 Y33.9457 
G01 X-25.4121 Y34.0209 
G01 X-25.2191 Y34.0593 
G01 X-25.0225 Y34.0593 
G01 X-1.1208 Y34.0593 
G01 X-0.9279 Y34.0209 
G01 X-0.7462 Y33.9457 
G01 X-0.5827 Y33.8364 
G01 X-0.4436 Y33.6973 
G01 X-0.3343 Y33.5338 
G01 X-0.2591 Y33.3520 
G01 X-0.2207 Y33.1591 
G01 X-0.2207 Y1.1208 
G01 X-0.2591 Y0.9279 
G01 X-0.3343 Y0.7462 
G01 X-0.4436 Y0.5827 
