(.../EAGLE-7.6.0/ulp/pcb-gcode/pcb-gcode.ulp)
(Copyright 2005 - 2012 by John Johnson)
(See readme.txt for licensing terms.)
(This file generated from the board:)
(.../SLMS_Projects/MQ-4-IOT/eagle/mq-4.brd)
(Current profile is .../pcb-gcode/profiles/generic.pp  )
(This file generated 19/10/2016 13:27)
(Settings from pcb-machine.h)
(spindle on time = 3.0000)
(  Tool Size)
(0.1778 )
(spindle speed = 30000.0000)
(tool change at 0.0000 0.0000 25.4000 )
(feed rate xy = F508.00 )
(feed rate z  = F254.00 )
(Z Axis Settings)
(  High     Up        Down     Drill)
(12.7000 	2.5400 	-0.1778 	-0.8128 )
(Settings from pcb-defaults.h)
(isolate min = 0.0254)
(isolate max = 1.5080)
(isolate step = 0.1270)
(Generated bottom outlines, )
(Unit of measure: mm)
(Metric Mode)
G21
(Absolute Coordinates)
G90
S30000
G00 Z12.7000 
G00 X0.0000 Y0.0000 
M03
G04 P3.000000
G00 Z2.5400 
G00 X-0.9651 Y1.0242 
G01 Z-0.1778 F254.00 
G01 X-1.0242 Y0.9651 F508.00 
G01 X-1.0966 Y0.9233 
G01 X-1.1774 Y0.9017 
G01 X-1.2610 Y0.9017 
G01 X-21.3526 Y0.9017 
G01 X-21.4334 Y0.9233 
G01 X-21.5057 Y0.9651 
G01 X-21.5649 Y1.0242 
G01 X-21.6067 Y1.0966 
G01 X-21.6283 Y1.1774 
G01 X-21.6283 Y24.3951 
G01 X-21.6067 Y24.4759 
G01 X-21.5649 Y24.5483 
G01 X-21.5057 Y24.6074 
G01 X-21.4343 Y24.6487 
G01 X-21.3526 Y24.6708 
G01 X-21.2690 Y24.6708 
G01 X-21.1882 Y24.6492 
G01 X-20.6506 Y24.3388 
G01 X-20.0144 Y24.1683 
G01 X-19.3556 Y24.1683 
G01 X-18.7194 Y24.3388 
G01 X-18.1489 Y24.6681 
G01 X-17.6831 Y25.1339 
G01 X-17.3538 Y25.7044 
G01 X-17.1833 Y26.3406 
G01 X-17.1833 Y26.9994 
G01 X-17.3538 Y27.6356 
G01 X-17.6831 Y28.2061 
G01 X-18.1489 Y28.6719 
G01 X-18.7116 Y28.9967 
G01 X-18.7707 Y29.0558 
G01 X-18.8125 Y29.1282 
G01 X-18.8342 Y29.2090 
G01 X-18.8342 Y29.2926 
G01 X-18.8125 Y29.3733 
G01 X-18.7976 Y29.3993 
G01 X-18.7707 Y29.4457 
G01 X-18.7116 Y29.5049 
G01 X-18.6392 Y29.5467 
G01 X-18.5585 Y29.5683 
G01 X-4.3015 Y29.5683 
G01 X-4.2208 Y29.5467 
G01 X-4.1484 Y29.5049 
G01 X-4.0892 Y29.4457 
G01 X-4.0631 Y29.4004 
G01 X-4.0474 Y29.3733 
G01 X-4.0258 Y29.2926 
G01 X-4.0258 Y29.2090 
G01 X-4.0474 Y29.1282 
G01 X-4.0892 Y29.0558 
G01 X-4.1484 Y28.9967 
G01 X-4.7111 Y28.6719 
G01 X-5.1769 Y28.2061 
G01 X-5.5062 Y27.6356 
G01 X-5.6767 Y26.9994 
G01 X-5.6767 Y26.3406 
G01 X-5.5062 Y25.7044 
G01 X-5.1769 Y25.1339 
G01 X-4.7111 Y24.6681 
G01 X-4.1406 Y24.3388 
G01 X-3.5044 Y24.1683 
G01 X-2.8456 Y24.1683 
G01 X-2.2094 Y24.3388 
G01 X-1.6389 Y24.6681 
G01 X-1.4141 Y24.8929 
G01 X-1.3417 Y24.9347 
G01 X-1.2610 Y24.9564 
G01 X-1.1774 Y24.9564 
G01 X-1.0966 Y24.9347 
G01 X-1.0707 Y24.9198 
G01 X-1.0242 Y24.8929 
G01 X-0.9651 Y24.8338 
G01 X-0.9233 Y24.7614 
G01 X-0.9017 Y24.6807 
G01 X-0.9017 Y1.1774 
G01 X-0.9233 Y1.0966 
G01 X-0.9651 Y1.0242 
G00 Z2.5400 
G00 X-3.8907 Y3.7198 
G01 Z-0.1778 F254.00 
G01 X-3.7960 Y3.8145 F508.00 
G01 X-3.7172 Y3.9228 
G01 X-3.6564 Y4.0422 
G01 X-3.6151 Y4.1695 
G01 X-3.5941 Y4.3018 
G01 X-3.5941 Y4.7371 
G01 X-3.6195 Y4.7371 
G01 X-3.6195 Y4.2875 
G01 X-3.6512 Y4.1280 
G01 X-3.7134 Y3.9778 
G01 X-3.8038 Y3.8426 
G01 X-3.9188 Y3.7276 
G01 X-4.0540 Y3.6372 
G01 X-4.1021 Y3.6173 
G01 X-4.1021 Y3.5885 
G01 X-3.9990 Y3.6410 
G01 X-3.8907 Y3.7198 
G00 Z2.5400 
G00 X-4.7879 Y3.6173 
G01 Z-0.1778 F254.00 
G01 X-4.8360 Y3.6372 F508.00 
G01 X-4.9712 Y3.7276 
G01 X-5.0862 Y3.8426 
G01 X-5.1765 Y3.9778 
G01 X-5.2388 Y4.1280 
G01 X-5.2705 Y4.2875 
G01 X-5.2705 Y5.8725 
G01 X-5.2388 Y6.0320 
G01 X-5.1765 Y6.1822 
G01 X-5.0862 Y6.3174 
G01 X-4.9712 Y6.4324 
G01 X-4.8360 Y6.5227 
G01 X-4.7879 Y6.5427 
G01 X-4.7879 Y6.5715 
G01 X-4.8910 Y6.5189 
G01 X-4.9993 Y6.4402 
G01 X-5.0940 Y6.3455 
G01 X-5.1727 Y6.2372 
G01 X-5.2336 Y6.1178 
G01 X-5.2623 Y6.0295 
G01 X-5.2639 Y6.0169 
G01 X-5.2751 Y5.9899 
G01 X-5.2842 Y5.9620 
G01 X-5.2911 Y5.9514 
G01 X-5.2959 Y5.9397 
G01 X-5.3138 Y5.9165 
G01 X-5.3297 Y5.8918 
G01 X-5.3391 Y5.8834 
G01 X-5.3468 Y5.8734 
G01 X-5.3701 Y5.8555 
G01 X-5.3919 Y5.8359 
G01 X-5.4031 Y5.8302 
G01 X-5.4131 Y5.8225 
G01 X-5.4402 Y5.8113 
G01 X-5.4663 Y5.7980 
G01 X-5.4787 Y5.7953 
G01 X-5.4904 Y5.7905 
G01 X-5.5194 Y5.7867 
G01 X-5.5481 Y5.7806 
G01 X-5.5607 Y5.7812 
G01 X-5.5732 Y5.7796 
G01 X-5.6023 Y5.7834 
G01 X-5.6316 Y5.7850 
G01 X-5.6436 Y5.7889 
G01 X-5.6561 Y5.7905 
G01 X-5.6832 Y5.8017 
G01 X-5.7111 Y5.8108 
G01 X-5.7217 Y5.8177 
G01 X-5.7334 Y5.8225 
G01 X-5.7566 Y5.8403 
G01 X-5.7812 Y5.8563 
G01 X-5.7897 Y5.8657 
G01 X-5.7997 Y5.8734 
G01 X-5.8175 Y5.8967 
G01 X-5.8372 Y5.9184 
G01 X-5.8429 Y5.9297 
G01 X-5.8506 Y5.9397 
G01 X-5.8618 Y5.9668 
G01 X-5.8751 Y5.9929 
G01 X-5.8777 Y6.0053 
G01 X-6.0483 Y6.4171 
G01 X-6.1215 Y6.4902 
G01 X-6.1633 Y6.5626 
G01 X-6.1849 Y6.6434 
G01 X-6.1849 Y8.4141 
G01 X-6.3067 Y8.7082 
G01 X-6.5469 Y8.9484 
G01 X-6.6060 Y9.0075 
G01 X-7.1665 Y9.5680 
G01 X-7.2083 Y9.6404 
G01 X-7.2299 Y9.7211 
G01 X-7.2299 Y13.5251 
G01 X-7.2299 Y13.5665 
G01 X-7.2299 Y13.6087 
G01 X-7.2250 Y13.6269 
G01 X-7.2083 Y13.6895 
G01 X-7.1782 Y13.7416 
G01 X-7.1665 Y13.7619 
G01 X-7.1418 Y13.7865 
G01 X-6.9823 Y14.1716 
G01 X-6.9823 Y14.2065 
G01 X-6.9607 Y14.2872 
G01 X-6.9189 Y14.3596 
G01 X-6.8597 Y14.4187 
G01 X-6.0017 Y15.2768 
G01 X-5.8799 Y15.5709 
G01 X-5.8799 Y16.9251 
G01 X-5.8799 Y16.9665 
G01 X-5.8799 Y17.0087 
G01 X-5.8750 Y17.0269 
G01 X-5.8583 Y17.0895 
G01 X-5.8282 Y17.1416 
G01 X-5.8165 Y17.1619 
G01 X-5.7918 Y17.1865 
G01 X-5.6323 Y17.5716 
G01 X-5.6323 Y17.9884 
G01 X-5.7918 Y18.3735 
G01 X-6.0865 Y18.6682 
G01 X-6.4716 Y18.8277 
G01 X-6.8884 Y18.8277 
G01 X-7.2735 Y18.6682 
G01 X-7.5682 Y18.3735 
G01 X-7.7277 Y17.9884 
G01 X-7.7277 Y17.5716 
G01 X-7.5682 Y17.1865 
G01 X-7.5435 Y17.1619 
G01 X-7.5329 Y17.1434 
G01 X-7.5017 Y17.0895 
G01 X-7.4868 Y17.0338 
G01 X-7.4801 Y17.0087 
G01 X-7.4801 Y16.9674 
G01 X-7.4801 Y16.9251 
G01 X-7.4801 Y16.1511 
G01 X-7.5017 Y16.0704 
G01 X-7.5435 Y15.9980 
G01 X-7.6026 Y15.9389 
G01 X-7.9913 Y15.5503 
G01 X-8.0504 Y15.4911 
G01 X-8.1228 Y15.4493 
G01 X-8.2035 Y15.4277 
G01 X-8.2384 Y15.4277 
G01 X-8.6235 Y15.2682 
G01 X-8.9182 Y14.9735 
G01 X-9.0777 Y14.5884 
G01 X-9.0777 Y14.1716 
G01 X-8.9182 Y13.7865 
G01 X-8.8935 Y13.7619 
G01 X-8.8829 Y13.7434 
G01 X-8.8517 Y13.6895 
G01 X-8.8368 Y13.6338 
G01 X-8.8301 Y13.6087 
G01 X-8.8301 Y13.5674 
G01 X-8.8301 Y13.5251 
G01 X-8.8301 Y9.1409 
G01 X-8.7083 Y8.8468 
G01 X-8.4681 Y8.6066 
G01 X-8.4090 Y8.5475 
G01 X-7.8485 Y7.9870 
G01 X-7.8067 Y7.9146 
G01 X-7.7851 Y7.8339 
G01 X-7.7851 Y6.6434 
G01 X-7.8067 Y6.5626 
G01 X-7.8485 Y6.4902 
G01 X-7.9076 Y6.4311 
G01 X-7.9217 Y6.4171 
G01 X-7.9777 Y6.2819 
G01 X-7.9940 Y6.2606 
G01 X-8.0286 Y6.2156 
G01 X-8.0578 Y6.1932 
G01 X-8.0949 Y6.1647 
G01 X-8.1721 Y6.1327 
G01 X-8.2550 Y6.1218 
G01 X-8.2735 Y6.1242 
G01 X-8.3379 Y6.1327 
G01 X-8.4151 Y6.1647 
G01 X-8.4364 Y6.1811 
G01 X-8.4814 Y6.2156 
G01 X-8.5039 Y6.2448 
G01 X-8.5323 Y6.2819 
G01 X-8.5643 Y6.3592 
G01 X-8.5883 Y6.4171 
G01 X-8.8991 Y6.7279 
G01 X-9.3052 Y6.8961 
G01 X-9.7448 Y6.8961 
G01 X-10.1509 Y6.7279 
G01 X-10.4617 Y6.4171 
G01 X-10.5950 Y6.0953 
G01 X-10.6004 Y6.0750 
G01 X-10.6109 Y6.0569 
G01 X-10.6189 Y6.0375 
G01 X-10.6317 Y6.0208 
G01 X-10.6422 Y6.0026 
G01 X-10.6570 Y5.9878 
G01 X-10.6698 Y5.9712 
G01 X-10.6865 Y5.9584 
G01 X-10.7013 Y5.9435 
G01 X-10.7195 Y5.9330 
G01 X-10.7361 Y5.9203 
G01 X-10.7555 Y5.9122 
G01 X-10.7737 Y5.9017 
G01 X-10.7940 Y5.8963 
G01 X-10.8134 Y5.8883 
G01 X-10.8342 Y5.8855 
G01 X-10.8545 Y5.8801 
G01 X-10.8754 Y5.8801 
G01 X-10.8963 Y5.8774 
G01 X-10.9171 Y5.8801 
G01 X-12.6540 Y5.8801 
G01 X-12.6748 Y5.8774 
G01 X-12.6956 Y5.8801 
G01 X-12.7166 Y5.8801 
G01 X-12.7368 Y5.8855 
G01 X-12.7577 Y5.8883 
G01 X-12.7770 Y5.8963 
G01 X-12.7973 Y5.9017 
G01 X-12.8155 Y5.9122 
G01 X-12.8349 Y5.9203 
G01 X-12.8515 Y5.9330 
G01 X-12.8697 Y5.9435 
G01 X-12.8846 Y5.9584 
G01 X-12.9012 Y5.9712 
G01 X-12.9140 Y5.9878 
G01 X-12.9288 Y6.0026 
G01 X-12.9393 Y6.0208 
G01 X-12.9521 Y6.0375 
G01 X-12.9601 Y6.0569 
G01 X-12.9706 Y6.0750 
G01 X-12.9761 Y6.0953 
G01 X-13.0764 Y6.3375 
G01 X-13.1065 Y6.3676 
G01 X-13.1483 Y6.4400 
G01 X-13.1699 Y6.5207 
G01 X-13.1699 Y8.4141 
G01 X-13.2917 Y8.7082 
G01 X-13.5910 Y9.0075 
G01 X-13.9665 Y9.3830 
G01 X-14.0083 Y9.4554 
G01 X-14.0299 Y9.5361 
G01 X-14.0299 Y13.6087 
G01 X-14.0083 Y13.6895 
G01 X-13.9665 Y13.7619 
G01 X-13.9418 Y13.7865 
G01 X-13.7823 Y14.1716 
G01 X-13.7823 Y14.5884 
G01 X-13.9418 Y14.9735 
G01 X-14.2365 Y15.2682 
G01 X-14.6216 Y15.4277 
G01 X-15.0384 Y15.4277 
G01 X-15.4235 Y15.2682 
G01 X-15.7182 Y14.9735 
G01 X-15.8777 Y14.5884 
G01 X-15.8777 Y14.1716 
G01 X-15.7182 Y13.7865 
G01 X-15.6935 Y13.7619 
G01 X-15.6517 Y13.6895 
G01 X-15.6301 Y13.6087 
G01 X-15.6301 Y8.9558 
G01 X-15.5083 Y8.6618 
G01 X-14.8335 Y7.9870 
G01 X-14.7917 Y7.9146 
G01 X-14.7701 Y7.8339 
G01 X-14.7701 Y6.5207 
G01 X-14.7917 Y6.4400 
G01 X-14.8335 Y6.3676 
G01 X-14.8636 Y6.3375 
G01 X-15.0241 Y5.9501 
G01 X-15.0241 Y4.2099 
G01 X-14.8636 Y3.8225 
G01 X-14.5671 Y3.5260 
G01 X-14.1797 Y3.3655 
G01 X-13.7603 Y3.3655 
G01 X-13.3729 Y3.5260 
G01 X-13.0764 Y3.8225 
G01 X-12.9761 Y4.0647 
G01 X-12.9706 Y4.0850 
G01 X-12.9601 Y4.1031 
G01 X-12.9521 Y4.1225 
G01 X-12.9393 Y4.1392 
G01 X-12.9288 Y4.1573 
G01 X-12.9140 Y4.1722 
G01 X-12.9012 Y4.1888 
G01 X-12.8846 Y4.2016 
G01 X-12.8697 Y4.2165 
G01 X-12.8515 Y4.2270 
G01 X-12.8349 Y4.2397 
G01 X-12.8155 Y4.2478 
G01 X-12.7973 Y4.2583 
G01 X-12.7770 Y4.2637 
G01 X-12.7577 Y4.2717 
G01 X-12.7368 Y4.2745 
G01 X-12.7166 Y4.2799 
G01 X-12.6956 Y4.2799 
G01 X-12.6748 Y4.2826 
G01 X-12.6540 Y4.2799 
G01 X-10.9171 Y4.2799 
G01 X-10.8963 Y4.2826 
G01 X-10.8754 Y4.2799 
G01 X-10.8545 Y4.2799 
G01 X-10.8342 Y4.2745 
G01 X-10.8134 Y4.2717 
G01 X-10.7940 Y4.2637 
G01 X-10.7737 Y4.2583 
G01 X-10.7555 Y4.2478 
G01 X-10.7361 Y4.2397 
G01 X-10.7195 Y4.2269 
G01 X-10.7013 Y4.2165 
G01 X-10.6865 Y4.2016 
G01 X-10.6698 Y4.1888 
G01 X-10.6570 Y4.1722 
G01 X-10.6422 Y4.1573 
G01 X-10.6317 Y4.1392 
G01 X-10.6189 Y4.1225 
G01 X-10.6109 Y4.1031 
G01 X-10.6004 Y4.0850 
G01 X-10.5950 Y4.0647 
G01 X-10.4617 Y3.7429 
G01 X-10.1509 Y3.4321 
G01 X-9.7448 Y3.2639 
G01 X-9.3052 Y3.2639 
G01 X-8.8991 Y3.4321 
G01 X-8.5883 Y3.7429 
G01 X-8.5643 Y3.8008 
G01 X-8.5323 Y3.8781 
G01 X-8.5044 Y3.9145 
G01 X-8.4814 Y3.9444 
G01 X-8.4340 Y3.9808 
G01 X-8.4151 Y3.9953 
G01 X-8.3379 Y4.0273 
G01 X-8.2751 Y4.0355 
G01 X-8.2550 Y4.0382 
G01 X-8.1721 Y4.0273 
G01 X-8.0949 Y3.9953 
G01 X-8.0584 Y3.9673 
G01 X-8.0286 Y3.9444 
G01 X-7.9922 Y3.8970 
G01 X-7.9777 Y3.8781 
G01 X-7.9217 Y3.7429 
G01 X-7.6109 Y3.4321 
G01 X-7.2048 Y3.2639 
G01 X-6.7652 Y3.2639 
G01 X-6.3591 Y3.4321 
G01 X-6.0483 Y3.7429 
G01 X-5.8777 Y4.1547 
G01 X-5.8751 Y4.1671 
G01 X-5.8618 Y4.1932 
G01 X-5.8506 Y4.2203 
G01 X-5.8429 Y4.2303 
G01 X-5.8372 Y4.2416 
G01 X-5.8175 Y4.2633 
G01 X-5.7997 Y4.2866 
G01 X-5.7897 Y4.2943 
G01 X-5.7812 Y4.3037 
G01 X-5.7566 Y4.3197 
G01 X-5.7334 Y4.3375 
G01 X-5.7217 Y4.3423 
G01 X-5.7111 Y4.3492 
G01 X-5.6832 Y4.3583 
G01 X-5.6561 Y4.3695 
G01 X-5.6436 Y4.3711 
G01 X-5.6316 Y4.3750 
G01 X-5.6023 Y4.3766 
G01 X-5.5732 Y4.3804 
G01 X-5.5607 Y4.3788 
G01 X-5.5481 Y4.3794 
G01 X-5.5194 Y4.3733 
G01 X-5.4904 Y4.3695 
G01 X-5.4787 Y4.3647 
G01 X-5.4663 Y4.3620 
G01 X-5.4402 Y4.3487 
G01 X-5.4131 Y4.3375 
G01 X-5.4031 Y4.3298 
G01 X-5.3919 Y4.3241 
G01 X-5.3701 Y4.3045 
G01 X-5.3468 Y4.2866 
G01 X-5.3391 Y4.2766 
G01 X-5.3297 Y4.2681 
G01 X-5.3138 Y4.2435 
G01 X-5.2959 Y4.2203 
G01 X-5.2911 Y4.2086 
G01 X-5.2842 Y4.1980 
G01 X-5.2751 Y4.1701 
G01 X-5.2639 Y4.1431 
G01 X-5.2623 Y4.1305 
G01 X-5.2336 Y4.0422 
G01 X-5.1727 Y3.9228 
G01 X-5.0940 Y3.8145 
G01 X-4.9993 Y3.7198 
G01 X-4.8910 Y3.6410 
G01 X-4.7879 Y3.5885 
G01 X-4.7879 Y3.6173 
G00 Z2.5400 
G00 X-6.3438 Y3.8426 
G01 Z-0.1778 F254.00 
G01 X-6.4588 Y3.7276 F508.00 
G01 X-6.5940 Y3.6372 
G01 X-6.7442 Y3.5750 
G01 X-6.9037 Y3.5433 
G01 X-7.0663 Y3.5433 
G01 X-7.2258 Y3.5750 
G01 X-7.3760 Y3.6372 
G01 X-7.5112 Y3.7276 
G01 X-7.6262 Y3.8426 
G01 X-7.7165 Y3.9778 
G01 X-7.7788 Y4.1280 
G01 X-7.8105 Y4.2875 
G01 X-7.8105 Y5.8725 
G01 X-7.7788 Y6.0320 
G01 X-7.7165 Y6.1822 
G01 X-7.6262 Y6.3174 
G01 X-7.5112 Y6.4324 
G01 X-7.5057 Y6.4361 
G01 X-7.5057 Y8.0393 
G01 X-8.4467 Y8.9803 
G01 X-8.5152 Y9.0990 
G01 X-8.5507 Y9.2314 
G01 X-8.5507 Y13.8142 
G01 X-8.6268 Y13.8902 
G01 X-8.7109 Y14.0161 
G01 X-8.7688 Y14.1559 
G01 X-8.7983 Y14.3043 
G01 X-8.7983 Y14.4557 
G01 X-8.7688 Y14.6041 
G01 X-8.7109 Y14.7439 
G01 X-8.6268 Y14.8698 
G01 X-8.5198 Y14.9768 
G01 X-8.3939 Y15.0609 
G01 X-8.2541 Y15.1188 
G01 X-8.1057 Y15.1483 
G01 X-7.9981 Y15.1483 
G01 X-7.2007 Y15.9457 
G01 X-7.2007 Y17.2142 
G01 X-7.2768 Y17.2902 
G01 X-7.3609 Y17.4161 
G01 X-7.4188 Y17.5559 
G01 X-7.4483 Y17.7043 
G01 X-7.4483 Y17.8557 
G01 X-7.4188 Y18.0041 
G01 X-7.3609 Y18.1439 
G01 X-7.2768 Y18.2698 
G01 X-7.1698 Y18.3768 
G01 X-7.0439 Y18.4609 
G01 X-6.9041 Y18.5188 
G01 X-6.7557 Y18.5483 
G01 X-6.6043 Y18.5483 
G01 X-6.4559 Y18.5188 
G01 X-6.3161 Y18.4609 
G01 X-6.1902 Y18.3768 
G01 X-6.0832 Y18.2698 
G01 X-5.9991 Y18.1439 
G01 X-5.9412 Y18.0041 
G01 X-5.9117 Y17.8557 
G01 X-5.9117 Y17.7043 
G01 X-5.9412 Y17.5559 
G01 X-5.9991 Y17.4161 
G01 X-6.0832 Y17.2902 
G01 X-6.1593 Y17.2142 
G01 X-6.1593 Y15.6614 
G01 X-6.1948 Y15.5290 
G01 X-6.2633 Y15.4103 
G01 X-7.2617 Y14.4119 
G01 X-7.2617 Y14.3043 
G01 X-7.2912 Y14.1559 
G01 X-7.3491 Y14.0161 
G01 X-7.4332 Y13.8902 
G01 X-7.5093 Y13.8142 
G01 X-7.5093 Y9.5157 
G01 X-6.6653 Y8.6717 
G01 X-6.5683 Y8.5747 
G01 X-6.4998 Y8.4560 
G01 X-6.4643 Y8.3235 
G01 X-6.4643 Y6.4361 
G01 X-6.4588 Y6.4324 
G01 X-6.3438 Y6.3174 
G01 X-6.2534 Y6.1822 
G01 X-6.1912 Y6.0320 
G01 X-6.1595 Y5.8725 
G01 X-6.1595 Y4.2875 
G01 X-6.1912 Y4.1280 
G01 X-6.2534 Y3.9778 
G01 X-6.3438 Y3.8426 
G00 Z2.5400 
G00 X-8.8838 Y3.8426 
G01 Z-0.1778 F254.00 
G01 X-8.9988 Y3.7276 F508.00 
G01 X-9.1340 Y3.6372 
G01 X-9.2842 Y3.5750 
G01 X-9.4437 Y3.5433 
G01 X-9.6063 Y3.5433 
G01 X-9.7658 Y3.5750 
G01 X-9.9160 Y3.6372 
G01 X-10.0512 Y3.7276 
G01 X-10.1662 Y3.8426 
G01 X-10.2565 Y3.9778 
G01 X-10.3188 Y4.1280 
G01 X-10.3505 Y4.2875 
G01 X-10.3505 Y4.5593 
G01 X-13.1953 Y4.5593 
G01 X-13.1953 Y4.3433 
G01 X-13.2251 Y4.1936 
G01 X-13.2835 Y4.0526 
G01 X-13.3682 Y3.9258 
G01 X-13.4762 Y3.8178 
G01 X-13.6030 Y3.7331 
G01 X-13.7440 Y3.6747 
G01 X-13.8937 Y3.6449 
G01 X-14.0463 Y3.6449 
G01 X-14.1960 Y3.6747 
G01 X-14.3370 Y3.7331 
G01 X-14.4638 Y3.8178 
G01 X-14.5717 Y3.9258 
G01 X-14.6565 Y4.0526 
G01 X-14.7149 Y4.1936 
G01 X-14.7447 Y4.3433 
G01 X-14.7447 Y5.8167 
G01 X-14.7149 Y5.9664 
G01 X-14.6565 Y6.1074 
G01 X-14.5717 Y6.2342 
G01 X-14.4907 Y6.3153 
G01 X-14.4907 Y8.0393 
G01 X-15.2467 Y8.7953 
G01 X-15.3152 Y8.9140 
G01 X-15.3507 Y9.0464 
G01 X-15.3507 Y13.8142 
G01 X-15.4268 Y13.8902 
G01 X-15.5109 Y14.0161 
G01 X-15.5688 Y14.1559 
G01 X-15.5983 Y14.3043 
G01 X-15.5983 Y14.4557 
G01 X-15.5688 Y14.6041 
G01 X-15.5109 Y14.7439 
G01 X-15.4268 Y14.8698 
G01 X-15.3198 Y14.9768 
G01 X-15.1939 Y15.0609 
G01 X-15.0541 Y15.1188 
G01 X-14.9057 Y15.1483 
G01 X-14.7543 Y15.1483 
G01 X-14.6059 Y15.1188 
G01 X-14.4661 Y15.0609 
G01 X-14.3402 Y14.9768 
G01 X-14.2332 Y14.8698 
G01 X-14.1491 Y14.7439 
G01 X-14.0912 Y14.6041 
G01 X-14.0617 Y14.4557 
G01 X-14.0617 Y14.3043 
G01 X-14.0912 Y14.1559 
G01 X-14.1491 Y14.0161 
G01 X-14.2332 Y13.8902 
G01 X-14.3093 Y13.8142 
G01 X-14.3093 Y9.3307 
G01 X-13.6503 Y8.6717 
G01 X-13.5533 Y8.5747 
G01 X-13.4848 Y8.4560 
G01 X-13.4493 Y8.3235 
G01 X-13.4493 Y6.3153 
G01 X-13.3682 Y6.2342 
G01 X-13.2835 Y6.1074 
G01 X-13.2251 Y5.9664 
G01 X-13.1953 Y5.8167 
G01 X-13.1953 Y5.6007 
G01 X-10.3505 Y5.6007 
G01 X-10.3505 Y5.8725 
G01 X-10.3188 Y6.0320 
G01 X-10.2565 Y6.1822 
G01 X-10.1662 Y6.3174 
G01 X-10.0512 Y6.4324 
G01 X-9.9160 Y6.5227 
G01 X-9.7658 Y6.5850 
G01 X-9.6063 Y6.6167 
G01 X-9.4437 Y6.6167 
G01 X-9.2842 Y6.5850 
G01 X-9.1340 Y6.5227 
G01 X-8.9988 Y6.4324 
G01 X-8.8838 Y6.3174 
G01 X-8.7934 Y6.1822 
G01 X-8.7312 Y6.0320 
G01 X-8.6995 Y5.8725 
G01 X-8.6995 Y4.2875 
G01 X-8.7312 Y4.1280 
G01 X-8.7934 Y3.9778 
G01 X-8.8838 Y3.8426 
G00 Z2.5400 
G00 X-3.6195 Y5.4229 
G01 Z-0.1778 F254.00 
G01 X-3.5941 Y5.4229 F508.00 
G01 X-3.5941 Y5.8582 
G01 X-3.6151 Y5.9905 
G01 X-3.6564 Y6.1178 
G01 X-3.7172 Y6.2372 
G01 X-3.7960 Y6.3455 
G01 X-3.8907 Y6.4402 
G01 X-3.9990 Y6.5189 
G01 X-4.1021 Y6.5715 
G01 X-4.1021 Y6.5427 
G01 X-4.0540 Y6.5227 
G01 X-3.9188 Y6.4324 
G01 X-3.8038 Y6.3174 
G01 X-3.7134 Y6.1822 
G01 X-3.6512 Y6.0320 
G01 X-3.6195 Y5.8725 
G01 X-3.6195 Y5.4229 
G00 Z2.5400 
G00 X-15.7099 Y5.3975 
G01 Z-0.1778 F254.00 
G01 X-15.7099 Y5.8034 F508.00 
G01 X-15.7296 Y5.9278 
G01 X-15.7685 Y6.0475 
G01 X-15.8257 Y6.1597 
G01 X-15.8997 Y6.2616 
G01 X-15.9888 Y6.3507 
G01 X-16.0906 Y6.4247 
G01 X-16.1925 Y6.4766 
G01 X-16.1925 Y6.4474 
G01 X-16.1430 Y6.4269 
G01 X-16.0162 Y6.3421 
G01 X-15.9083 Y6.2342 
G01 X-15.8235 Y6.1074 
G01 X-15.7651 Y5.9664 
G01 X-15.7353 Y5.8167 
G01 X-15.7353 Y5.3975 
G01 X-15.7099 Y5.3975 
G00 Z2.5400 
G00 X-15.7099 Y4.7625 
G01 Z-0.1778 F254.00 
G01 X-15.7353 Y4.7625 F508.00 
G01 X-15.7353 Y4.3433 
G01 X-15.7651 Y4.1936 
G01 X-15.8235 Y4.0526 
G01 X-15.9083 Y3.9258 
G01 X-16.0162 Y3.8178 
G01 X-16.1430 Y3.7331 
G01 X-16.1925 Y3.7126 
G01 X-16.1925 Y3.6834 
G01 X-16.0906 Y3.7353 
G01 X-15.9888 Y3.8093 
G01 X-15.8997 Y3.8984 
G01 X-15.8257 Y4.0002 
G01 X-15.7685 Y4.1125 
G01 X-15.7296 Y4.2322 
G01 X-15.7099 Y4.3566 
G01 X-15.7099 Y4.7625 
G00 Z2.5400 
G00 X-17.2847 Y4.7625 
G01 Z-0.1778 F254.00 
G01 X-17.3101 Y4.7625 F508.00 
G01 X-17.3101 Y4.3566 
G01 X-17.2904 Y4.2322 
G01 X-17.2515 Y4.1125 
G01 X-17.1943 Y4.0002 
G01 X-17.1203 Y3.8984 
G01 X-17.0312 Y3.8093 
G01 X-16.9293 Y3.7353 
G01 X-16.8275 Y3.6834 
G01 X-16.8275 Y3.7126 
G01 X-16.8770 Y3.7331 
G01 X-17.0038 Y3.8178 
G01 X-17.1117 Y3.9258 
G01 X-17.1965 Y4.0526 
G01 X-17.2549 Y4.1936 
G01 X-17.2847 Y4.3433 
G01 X-17.2847 Y4.7625 
G00 Z2.5400 
G00 X-17.2847 Y5.3975 
G01 Z-0.1778 F254.00 
G01 X-17.2847 Y5.8167 F508.00 
G01 X-17.2549 Y5.9664 
G01 X-17.1965 Y6.1074 
G01 X-17.1117 Y6.2342 
G01 X-17.0038 Y6.3421 
G01 X-16.8770 Y6.4269 
G01 X-16.8275 Y6.4474 
G01 X-16.8275 Y6.4766 
G01 X-16.9293 Y6.4247 
G01 X-17.0312 Y6.3507 
G01 X-17.1203 Y6.2616 
G01 X-17.1943 Y6.1597 
G01 X-17.2515 Y6.0475 
G01 X-17.2904 Y5.9278 
G01 X-17.3101 Y5.8034 
G01 X-17.3101 Y5.3975 
G01 X-17.2847 Y5.3975 
G00 Z2.5400 
G00 X-18.2499 Y5.3975 
G01 Z-0.1778 F254.00 
G01 X-18.2499 Y5.8034 F508.00 
G01 X-18.2696 Y5.9278 
G01 X-18.3085 Y6.0475 
G01 X-18.3657 Y6.1597 
G01 X-18.4397 Y6.2616 
G01 X-18.5288 Y6.3507 
G01 X-18.6306 Y6.4247 
G01 X-18.7325 Y6.4766 
G01 X-18.7325 Y6.4474 
G01 X-18.6830 Y6.4269 
G01 X-18.5562 Y6.3421 
G01 X-18.4483 Y6.2342 
G01 X-18.3635 Y6.1074 
G01 X-18.3051 Y5.9664 
G01 X-18.2753 Y5.8167 
G01 X-18.2753 Y5.3975 
G01 X-18.2499 Y5.3975 
G00 Z2.5400 
G00 X-18.2499 Y4.7625 
G01 Z-0.1778 F254.00 
G01 X-18.2753 Y4.7625 F508.00 
G01 X-18.2753 Y4.3433 
G01 X-18.3051 Y4.1936 
G01 X-18.3635 Y4.0526 
G01 X-18.4483 Y3.9258 
G01 X-18.5562 Y3.8178 
G01 X-18.6830 Y3.7331 
G01 X-18.7325 Y3.7126 
G01 X-18.7325 Y3.6834 
G01 X-18.6306 Y3.7353 
G01 X-18.5288 Y3.8093 
G01 X-18.4397 Y3.8984 
G01 X-18.3657 Y4.0002 
G01 X-18.3085 Y4.1125 
G01 X-18.2696 Y4.2322 
G01 X-18.2499 Y4.3566 
G01 X-18.2499 Y4.7625 
G00 Z2.5400 
G00 X-19.8247 Y4.7625 
G01 Z-0.1778 F254.00 
G01 X-19.8501 Y4.7625 F508.00 
G01 X-19.8501 Y4.3566 
G01 X-19.8304 Y4.2322 
G01 X-19.7915 Y4.1125 
G01 X-19.7343 Y4.0002 
G01 X-19.6603 Y3.8984 
G01 X-19.5712 Y3.8093 
G01 X-19.4693 Y3.7353 
G01 X-19.3675 Y3.6834 
G01 X-19.3675 Y3.7126 
G01 X-19.4170 Y3.7331 
G01 X-19.5438 Y3.8178 
G01 X-19.6517 Y3.9258 
G01 X-19.7365 Y4.0526 
G01 X-19.7949 Y4.1936 
G01 X-19.8247 Y4.3433 
G01 X-19.8247 Y4.7625 
G00 Z2.5400 
G00 X-19.8247 Y5.3975 
G01 Z-0.1778 F254.00 
G01 X-19.8247 Y5.8167 F508.00 
G01 X-19.7949 Y5.9664 
G01 X-19.7365 Y6.1074 
G01 X-19.6517 Y6.2342 
G01 X-19.5438 Y6.3421 
G01 X-19.4170 Y6.4269 
G01 X-19.3675 Y6.4474 
G01 X-19.3675 Y6.4766 
G01 X-19.4693 Y6.4247 
G01 X-19.5712 Y6.3507 
G01 X-19.6603 Y6.2616 
G01 X-19.7343 Y6.1597 
G01 X-19.7915 Y6.0475 
G01 X-19.8304 Y5.9278 
G01 X-19.8501 Y5.8034 
G01 X-19.8501 Y5.3975 
G01 X-19.8247 Y5.3975 
G00 Z2.5400 
G00 X-16.7854 Y17.2629 
G01 Z-0.1778 F254.00 
G01 X-16.6971 Y17.1746 F508.00 
G01 X-16.5960 Y17.1012 
G01 X-16.4975 Y17.0510 
G01 X-16.4975 Y17.0799 
G01 X-16.5439 Y17.0991 
G01 X-16.6698 Y17.1832 
G01 X-16.7768 Y17.2902 
G01 X-16.8609 Y17.4161 
G01 X-16.8801 Y17.4625 
G01 X-16.9090 Y17.4625 
G01 X-16.8588 Y17.3640 
G01 X-16.7854 Y17.2629 
G00 Z2.5400 
G00 X-16.8801 Y18.0975 
G01 Z-0.1778 F254.00 
G01 X-16.8609 Y18.1439 F508.00 
G01 X-16.7768 Y18.2698 
G01 X-16.6698 Y18.3768 
G01 X-16.5439 Y18.4609 
G01 X-16.4975 Y18.4801 
G01 X-16.4975 Y18.5090 
G01 X-16.5960 Y18.4588 
G01 X-16.6971 Y18.3854 
G01 X-16.7854 Y18.2971 
G01 X-16.8588 Y18.1960 
G01 X-16.9090 Y18.0975 
G01 X-16.8801 Y18.0975 
G00 Z2.5400 
G00 X-15.4799 Y18.0975 
G01 Z-0.1778 F254.00 
G01 X-15.4510 Y18.0975 F508.00 
G01 X-15.5012 Y18.1960 
G01 X-15.5746 Y18.2971 
G01 X-15.6629 Y18.3854 
G01 X-15.7640 Y18.4588 
G01 X-15.8625 Y18.5090 
G01 X-15.8625 Y18.4801 
G01 X-15.8161 Y18.4609 
G01 X-15.6902 Y18.3768 
G01 X-15.5832 Y18.2698 
G01 X-15.4991 Y18.1439 
G01 X-15.4799 Y18.0975 
G00 Z2.5400 
G00 X-15.4799 Y17.4625 
G01 Z-0.1778 F254.00 
G01 X-15.4991 Y17.4161 F508.00 
G01 X-15.5832 Y17.2902 
G01 X-15.6902 Y17.1832 
G01 X-15.8161 Y17.0991 
G01 X-15.8625 Y17.0799 
G01 X-15.8625 Y17.0510 
G01 X-15.7640 Y17.1012 
G01 X-15.6629 Y17.1746 
G01 X-15.5746 Y17.2629 
G01 X-15.5012 Y17.3640 
G01 X-15.4510 Y17.4625 
G01 X-15.4799 Y17.4625 
G00 Z2.5400 
G00 X-15.4235 Y20.2918 
G01 Z-0.1778 F254.00 
G01 X-15.0384 Y20.1323 F508.00 
G01 X-14.6216 Y20.1323 
G01 X-14.2365 Y20.2918 
G01 X-13.9418 Y20.5865 
G01 X-13.7823 Y20.9716 
G01 X-13.7823 Y21.3884 
G01 X-13.9418 Y21.7735 
G01 X-14.2365 Y22.0682 
G01 X-14.6216 Y22.2277 
G01 X-15.0384 Y22.2277 
G01 X-15.4235 Y22.0682 
G01 X-15.7182 Y21.7735 
G01 X-15.8777 Y21.3884 
G01 X-15.8777 Y20.9716 
G01 X-15.7182 Y20.5865 
G01 X-15.4235 Y20.2918 
G00 Z2.5400 
G00 X-15.3198 Y20.5832 
G01 Z-0.1778 F254.00 
G01 X-15.4268 Y20.6902 F508.00 
G01 X-15.5109 Y20.8161 
G01 X-15.5688 Y20.9559 
G01 X-15.5983 Y21.1043 
G01 X-15.5983 Y21.2557 
G01 X-15.5688 Y21.4041 
G01 X-15.5109 Y21.5439 
G01 X-15.4268 Y21.6698 
G01 X-15.3198 Y21.7768 
G01 X-15.1939 Y21.8609 
G01 X-15.0541 Y21.9188 
G01 X-14.9057 Y21.9483 
G01 X-14.7543 Y21.9483 
G01 X-14.6059 Y21.9188 
G01 X-14.4661 Y21.8609 
G01 X-14.3402 Y21.7768 
G01 X-14.2332 Y21.6698 
G01 X-14.1491 Y21.5439 
G01 X-14.0912 Y21.4041 
G01 X-14.0617 Y21.2557 
G01 X-14.0617 Y21.1043 
G01 X-14.0912 Y20.9559 
G01 X-14.1491 Y20.8161 
G01 X-14.2332 Y20.6902 
G01 X-14.3402 Y20.5832 
G01 X-14.4661 Y20.4991 
G01 X-14.6059 Y20.4412 
G01 X-14.7543 Y20.4117 
G01 X-14.9057 Y20.4117 
G01 X-15.0541 Y20.4412 
G01 X-15.1939 Y20.4991 
G01 X-15.3198 Y20.5832 
G00 Z2.5400 
G00 X-8.9182 Y20.5865 
G01 Z-0.1778 F254.00 
G01 X-8.6235 Y20.2918 F508.00 
G01 X-8.2384 Y20.1323 
G01 X-7.8216 Y20.1323 
G01 X-7.4365 Y20.2918 
G01 X-7.1418 Y20.5865 
G01 X-6.9823 Y20.9716 
G01 X-6.9823 Y21.3884 
G01 X-7.1418 Y21.7735 
G01 X-7.4365 Y22.0682 
G01 X-7.8216 Y22.2277 
G01 X-8.2384 Y22.2277 
G01 X-8.6235 Y22.0682 
G01 X-8.9182 Y21.7735 
G01 X-9.0777 Y21.3884 
G01 X-9.0777 Y20.9716 
G01 X-8.9182 Y20.5865 
G00 Z2.5400 
G00 X-8.6268 Y20.6902 
G01 Z-0.1778 F254.00 
G01 X-8.7109 Y20.8161 F508.00 
G01 X-8.7688 Y20.9559 
G01 X-8.7983 Y21.1043 
G01 X-8.7983 Y21.2557 
G01 X-8.7688 Y21.4041 
G01 X-8.7109 Y21.5439 
G01 X-8.6268 Y21.6698 
G01 X-8.5198 Y21.7768 
G01 X-8.3939 Y21.8609 
G01 X-8.2541 Y21.9188 
G01 X-8.1057 Y21.9483 
G01 X-7.9543 Y21.9483 
G01 X-7.8059 Y21.9188 
G01 X-7.6661 Y21.8609 
G01 X-7.5402 Y21.7768 
G01 X-7.4332 Y21.6698 
G01 X-7.3491 Y21.5439 
G01 X-7.2912 Y21.4041 
G01 X-7.2617 Y21.2557 
G01 X-7.2617 Y21.1043 
G01 X-7.2912 Y20.9559 
G01 X-7.3491 Y20.8161 
G01 X-7.4332 Y20.6902 
G01 X-7.5402 Y20.5832 
G01 X-7.6661 Y20.4991 
G01 X-7.8059 Y20.4412 
G01 X-7.9543 Y20.4117 
G01 X-8.1057 Y20.4117 
G01 X-8.2541 Y20.4412 
G01 X-8.3939 Y20.4991 
G01 X-8.5198 Y20.5832 
G01 X-8.6268 Y20.6902 
G00 Z2.5400 
G00 Z12.7000 
M05
M02
