(.../EAGLE-7.6.0/ulp/pcb-gcode/pcb-gcode.ulp)
(Copyright 2005 - 2012 by John Johnson)
(See readme.txt for licensing terms.)
(This file generated from the board:)
(.../SLMS_Projects/MQ-4-IOT/eagle/mq-4-v0.2.brd)
(Current profile is .../pcb-gcode/profiles/generic.pp  )
(This file generated 25/10/2016 15:16)
(Settings from pcb-machine.h)
(spindle on time = 3.0000)
(spindle speed = 20000.0000)
(tool change at 0.0000 0.0000 25.4000 )
(feed rate xy = F0.00  )
(feed rate z  = F508.00 )
(Z Axis Settings)
(  High     Up        Down     Drill)
(12.7000 	2.5400 	-0.1778 	-0.8128 )
(Settings from pcb-defaults.h)
(isolate min = 0.0254)
(isolate max = 1.7080)
(isolate step = 0.2270)
(Generated bottom outlines, bottom drill, )
(Unit of measure: mm)
( Tool|       Size       |  Min Sub |  Max Sub |   Count )
( T01  0.800mm 0.0315in 0.0000in 0.0000in )
( T02  0.813mm 0.0320in 0.0000in 0.0000in )
( T03  0.914mm 0.0360in 0.0000in 0.0000in )
( T04  1.194mm 0.0470in 0.0000in 0.0000in )
( T05  3.200mm 0.1260in 0.0000in 0.0000in )
(Metric Mode)
G21
(Absolute Coordinates)
G90
S20000
G00 Z12.7000 
G00 X0.0000 Y0.0000 
M03
G04 P3.000000
M05
G00 Z25.4000 
M06 T01  ; 0.8000 
G01 Z0.0000 F508.00 
M06 
G00 Z2.5400 
M03
G04 P3.000000
G00 Z2.540000
G00 X6.6800 Y17.7800 
G01 Z-0.8128 F508.00 
G01 Z2.540000
(R2.5400  P1.000000)
G00 X8.0300 Y21.1800 
G01 Z-0.812800
G01 Z2.540000
G00 X8.0300 Y14.3800 
G01 Z-0.812800
G01 Z2.540000
G00 X14.8300 Y14.3800 
G01 Z-0.812800
G01 Z2.540000
G00 X16.1800 Y17.7800 
G01 Z-0.812800
G01 Z2.540000
G00 X14.8300 Y21.1800 
G01 Z-0.812800
G01 Z2.540000
M05
G00 Z25.4000 
G00 X0.0000 Y0.0000 
M06 T02  ; 0.8128 
G01 Z0.0000 F508.00 
M06 
G00 Z2.5400 
M03
G04 P3.000000
G00 Z2.540000
G00 X10.1600 Y3.8100 
G01 Z-0.8128 F508.00 
G01 Z2.540000
(R2.5400  P1.000000)
G00 X20.3200 Y3.8100 
G01 Z-0.812800
G01 Z2.540000
M05
G00 Z25.4000 
G00 X0.0000 Y0.0000 
M06 T03  ; 0.9144 
G01 Z0.0000 F508.00 
M06 
G00 Z2.5400 
M03
G04 P3.000000
G00 Z2.540000
G00 X16.5100 Y7.6200 
G01 Z-0.8128 F508.00 
G01 Z2.540000
(R2.5400  P1.000000)
M05
G00 Z25.4000 
G00 X0.0000 Y0.0000 
M06 T04  ; 1.1938 
G01 Z0.0000 F508.00 
M06 
G00 Z2.5400 
M03
G04 P3.000000
G00 Z2.540000
G00 X3.8100 Y1.3100 
G01 Z-0.8128 F508.00 
G01 Z2.540000
(R2.5400  P1.000000)
G00 X3.8100 Y6.3100 
G01 Z-0.812800
G01 Z2.540000
M05
G00 Z25.4000 
G00 X0.0000 Y0.0000 
M06 T05  ; 3.2000 
G01 Z0.0000 F508.00 
M06 
G00 Z2.5400 
M03
G04 P3.000000
G00 Z2.540000
G00 X3.1750 Y26.6700 
G01 Z-0.8128 F508.00 
G01 Z2.540000
(R2.5400  P1.000000)
G00 X19.6850 Y26.6700 
G01 Z-0.812800
G01 Z2.540000
T01 
G00 Z12.7000 
M05
M02
