(.../EAGLE-7.6.0/ulp/pcb-gcode/pcb-gcode.ulp)
(Copyright 2005 - 2012 by John Johnson)
(See readme.txt for licensing terms.)
(This file generated from the board:)
(.../MQ-4-IOT/eagle/mq-4-outline.brd)
(Current profile is .../pcb-gcode/profiles/generic.pp  )
(This file generated 19/10/2016 13:44)
(Settings from pcb-machine.h)
(spindle on time = 3.0000)
(  Tool Size)
(0.1778 )
(spindle speed = 30000.0000)
(tool change at 0.0000 0.0000 25.4000 )
(feed rate xy = F508.00 )
(feed rate z  = F254.00 )
(Z Axis Settings)
(  High     Up        Down     Drill)
(12.7000 	2.5400 	-0.1778 	-0.8128 )
(Settings from pcb-defaults.h)
(isolate min = 0.0254)
(isolate max = 1.7080)
(isolate step = 0.2270)
(Generated bottom outlines, )
(Unit of measure: mm)
(Metric Mode)
G21
(Absolute Coordinates)
G90
S30000
G00 Z12.7000 
G00 X0.0000 Y0.0000 
M03
G04 P3.000000
G00 Z2.5400 
G00 X-0.9651 Y1.0242 
G01 Z-0.1778 F254.00 
G01 X-1.0242 Y0.9651 F508.00 
G01 X-1.0966 Y0.9233 
G01 X-1.1774 Y0.9017 
G01 X-21.3526 Y0.9017 
G01 X-21.4334 Y0.9233 
G01 X-21.5057 Y0.9651 
G01 X-21.5649 Y1.0242 
G01 X-21.6067 Y1.0966 
G01 X-21.6283 Y1.1774 
G01 X-21.6283 Y29.2926 
G01 X-21.6067 Y29.3733 
G01 X-21.5649 Y29.4457 
G01 X-21.5057 Y29.5049 
G01 X-21.4334 Y29.5467 
G01 X-21.3526 Y29.5683 
G01 X-21.2690 Y29.5683 
G01 X-1.1774 Y29.5683 
G01 X-1.0966 Y29.5467 
G01 X-1.0242 Y29.5049 
G01 X-0.9651 Y29.4457 
G01 X-0.9233 Y29.3733 
G01 X-0.9017 Y29.2926 
G01 X-0.9017 Y1.1774 
G01 X-0.9233 Y1.0966 
G01 X-0.9651 Y1.0242 
G00 Z2.5400 
G00 X-0.7835 Y0.8849 
G01 Z-0.1778 F254.00 
G01 X-0.8849 Y0.7835 F508.00 
G01 X-1.0090 Y0.7118 
G01 X-1.1475 Y0.6747 
G01 X-21.3825 Y0.6747 
G01 X-21.5210 Y0.7118 
G01 X-21.6451 Y0.7835 
G01 X-21.7465 Y0.8849 
G01 X-21.8182 Y1.0090 
G01 X-21.8553 Y1.1475 
G01 X-21.8553 Y29.3225 
G01 X-21.8182 Y29.4610 
G01 X-21.7465 Y29.5851 
G01 X-21.6451 Y29.6865 
G01 X-21.5210 Y29.7582 
G01 X-21.3825 Y29.7953 
G01 X-21.2391 Y29.7953 
G01 X-1.1475 Y29.7953 
G01 X-1.0090 Y29.7582 
G01 X-0.8849 Y29.6865 
G01 X-0.7835 Y29.5851 
G01 X-0.7118 Y29.4610 
G01 X-0.6747 Y29.3225 
G01 X-0.6747 Y1.1475 
G01 X-0.7118 Y1.0090 
G01 X-0.7835 Y0.8849 
G00 Z2.5400 
G00 X-0.6199 Y0.7274 
G01 Z-0.1778 F254.00 
G01 X-0.7274 Y0.6199 F508.00 
G01 X-0.8538 Y0.5355 
G01 X-0.9942 Y0.4773 
G01 X-1.1432 Y0.4477 
G01 X-21.3868 Y0.4477 
G01 X-21.5358 Y0.4773 
G01 X-21.6762 Y0.5355 
G01 X-21.8026 Y0.6199 
G01 X-21.9101 Y0.7274 
G01 X-21.9945 Y0.8538 
G01 X-22.0526 Y0.9942 
G01 X-22.0823 Y1.1432 
G01 X-22.0823 Y29.3268 
G01 X-22.0526 Y29.4758 
G01 X-21.9945 Y29.6162 
G01 X-21.9101 Y29.7426 
G01 X-21.8026 Y29.8501 
G01 X-21.6762 Y29.9345 
G01 X-21.5358 Y29.9927 
G01 X-21.3868 Y30.0223 
G01 X-21.2348 Y30.0223 
G01 X-1.1432 Y30.0223 
G01 X-0.9942 Y29.9927 
G01 X-0.8538 Y29.9345 
G01 X-0.7274 Y29.8501 
G01 X-0.6199 Y29.7426 
G01 X-0.5355 Y29.6162 
G01 X-0.4773 Y29.4758 
G01 X-0.4477 Y29.3268 
G01 X-0.4477 Y1.1432 
G01 X-0.4773 Y0.9942 
G01 X-0.5355 Y0.8538 
G01 X-0.6199 Y0.7274 
G00 Z2.5400 
G00 X-0.4436 Y0.5827 
G01 Z-0.1778 F254.00 
G01 X-0.5827 Y0.4436 F508.00 
G01 X-0.7462 Y0.3343 
G01 X-0.9279 Y0.2591 
G01 X-1.1208 Y0.2207 
G01 X-21.4091 Y0.2207 
G01 X-21.6020 Y0.2591 
G01 X-21.7838 Y0.3343 
G01 X-21.9473 Y0.4436 
G01 X-22.0864 Y0.5827 
G01 X-22.1957 Y0.7462 
G01 X-22.2709 Y0.9279 
G01 X-22.3093 Y1.1208 
G01 X-22.3093 Y29.3491 
G01 X-22.2709 Y29.5420 
G01 X-22.1957 Y29.7238 
G01 X-22.0864 Y29.8873 
G01 X-21.9473 Y30.0264 
G01 X-21.7838 Y30.1357 
G01 X-21.6020 Y30.2109 
G01 X-21.4091 Y30.2493 
G01 X-21.2125 Y30.2493 
G01 X-1.1208 Y30.2493 
G01 X-0.9279 Y30.2109 
G01 X-0.7462 Y30.1357 
G01 X-0.5827 Y30.0264 
G01 X-0.4436 Y29.8873 
G01 X-0.3343 Y29.7238 
G01 X-0.2591 Y29.5420 
G01 X-0.2207 Y29.3491 
G01 X-0.2207 Y1.1208 
G01 X-0.2591 Y0.9279 
G01 X-0.3343 Y0.7462 
G01 X-0.4436 Y0.5827 
G00 Z2.5400 
G00 X-0.2844 Y0.4208 
G01 Z-0.1778 F254.00 
G01 X-0.4208 Y0.2844 F508.00 
G01 X-0.5769 Y0.1711 
G01 X-0.7488 Y0.0835 
G01 X-0.9322 Y0.0239 
G01 X-1.1227 Y-0.0063 
G01 X-21.4073 Y-0.0063 
G01 X-21.5978 Y0.0239 
G01 X-21.7812 Y0.0835 
G01 X-21.9531 Y0.1711 
G01 X-22.1092 Y0.2844 
G01 X-22.2456 Y0.4208 
G01 X-22.3589 Y0.5769 
G01 X-22.4465 Y0.7488 
G01 X-22.5061 Y0.9322 
G01 X-22.5363 Y1.1227 
G01 X-22.5363 Y29.3472 
G01 X-22.5061 Y29.5378 
G01 X-22.4465 Y29.7212 
G01 X-22.3589 Y29.8931 
G01 X-22.2456 Y30.0492 
G01 X-22.1092 Y30.1856 
G01 X-21.9531 Y30.2989 
G01 X-21.7812 Y30.3865 
G01 X-21.5978 Y30.4461 
G01 X-21.4073 Y30.4763 
G01 X-21.2143 Y30.4763 
G01 X-1.1227 Y30.4763 
G01 X-0.9322 Y30.4461 
G01 X-0.7488 Y30.3865 
G01 X-0.5769 Y30.2989 
G01 X-0.4208 Y30.1856 
G01 X-0.2844 Y30.0492 
G01 X-0.1711 Y29.8931 
G01 X-0.0835 Y29.7212 
G01 X-0.0239 Y29.5378 
G01 X0.0063 Y29.3472 
G01 X0.0063 Y1.1227 
G01 X-0.0239 Y0.9322 
G01 X-0.0835 Y0.7488 
G01 X-0.1711 Y0.5769 
G01 X-0.2844 Y0.4208 
G00 Z2.5400 
G00 X-21.6088 Y-0.2042 
G01 Z-0.1778 F254.00 
G01 X-21.6509 Y-0.1975 F508.00 
G01 X-21.8684 Y-0.1269 
G01 X-22.0721 Y-0.0231 
G01 X-22.2570 Y0.1113 
G01 X-22.4187 Y0.2730 
G01 X-22.5531 Y0.4579 
G01 X-22.6569 Y0.6616 
G01 X-22.7275 Y0.8791 
G01 X-22.7633 Y1.1049 
G01 X-22.7633 Y29.3651 
G01 X-22.7275 Y29.5909 
G01 X-22.6569 Y29.8084 
G01 X-22.5531 Y30.0121 
G01 X-22.4187 Y30.1970 
G01 X-22.2570 Y30.3587 
G01 X-22.0721 Y30.4931 
G01 X-21.8684 Y30.5969 
G01 X-21.6509 Y30.6675 
G01 X-21.5457 Y30.6842 
G01 X-23.0642 Y30.6842 
G01 X-23.0642 Y-0.2042 
G01 X-21.6088 Y-0.2042 
G00 Z2.5400 
G00 X-0.9843 Y30.6842 
G01 Z-0.1778 F254.00 
G01 X-0.8791 Y30.6675 F508.00 
G01 X-0.6616 Y30.5969 
G01 X-0.4579 Y30.4931 
G01 X-0.2730 Y30.3587 
G01 X-0.1113 Y30.1970 
G01 X0.0231 Y30.0121 
G01 X0.1269 Y29.8084 
G01 X0.1975 Y29.5909 
G01 X0.2042 Y29.5488 
G01 X0.2042 Y30.6842 
G01 X-0.9843 Y30.6842 
G00 Z2.5400 
G00 X-22.2044 Y-0.2042 
G01 Z-0.1778 F254.00 
G01 X-22.2459 Y-0.1802 F508.00 
G01 X-22.4205 Y-0.0462 
G01 X-22.5762 Y0.1095 
G01 X-22.7102 Y0.2841 
G01 X-22.8203 Y0.4748 
G01 X-22.9046 Y0.6782 
G01 X-22.9616 Y0.8908 
G01 X-22.9903 Y1.1091 
G01 X-22.9903 Y29.3609 
G01 X-22.9616 Y29.5792 
G01 X-22.9046 Y29.7918 
G01 X-22.8203 Y29.9952 
G01 X-22.7102 Y30.1859 
G01 X-22.5762 Y30.3605 
G01 X-22.4205 Y30.5162 
G01 X-22.2459 Y30.6502 
G01 X-22.1871 Y30.6842 
G01 X-23.0642 Y30.6842 
G01 X-23.0642 Y-0.2042 
G01 X-22.2044 Y-0.2042 
G00 Z2.5400 
G00 X-0.3429 Y30.6842 
G01 Z-0.1778 F254.00 
G01 X-0.2841 Y30.6502 F508.00 
G01 X-0.1095 Y30.5162 
G01 X0.0462 Y30.3605 
G01 X0.1802 Y30.1859 
G01 X0.2042 Y30.1444 
G01 X0.2042 Y30.6842 
G01 X-0.3429 Y30.6842 
G00 Z2.5400 
G00 X0.2042 Y-0.0536 
G01 Z-0.1778 F254.00 
G01 X0.0536 Y-0.2042 F508.00 
G01 X0.2042 Y-0.2042 
G01 X0.2042 Y-0.0536 
G00 Z2.5400 
G00 X-22.5836 Y-0.2042 
G01 Z-0.1778 F254.00 
G01 X-22.7473 Y-0.0405 F508.00 
G01 X-22.8994 Y0.1577 
G01 X-23.0244 Y0.3742 
G01 X-23.0642 Y0.4704 
G01 X-23.0642 Y-0.2042 
G01 X-22.5836 Y-0.2042 
G00 Z2.5400 
G00 X-23.0642 Y29.9996 
G01 Z-0.1778 F254.00 
G01 X-23.0244 Y30.0958 F508.00 
G01 X-22.8994 Y30.3123 
G01 X-22.7473 Y30.5105 
G01 X-22.5736 Y30.6842 
G01 X-23.0642 Y30.6842 
G01 X-23.0642 Y29.9996 
G00 Z2.5400 
G00 X-23.0642 Y-0.0004 
G01 Z-0.1778 F254.00 
G01 X-23.0642 Y-0.2042 F508.00 
G01 X-22.9046 Y-0.2042 
G01 X-22.9183 Y-0.1905 
G01 X-23.0642 Y-0.0004 
G00 Z2.5400 
G00 Z12.7000 
M05
M02
