;FLAVOR:UltiGCode
;TIME:934
;MATERIAL:1292
;MATERIAL2:0
;NOZZLE_DIAMETER:0.400000
;NOZZLE_DIAMETER2:0.400000

;Layer count: 28
;LAYER:0
M107
G0 F9000 X84.956 Y101.620 Z0.300
;TYPE:SKIRT
G1 F1200 X85.937 Y100.867 E0.14840
G1 X86.982 Y100.200 E0.29717
G1 X88.083 Y99.628 E0.44605
G1 X89.226 Y99.154 E0.59454
G1 X90.408 Y98.781 E0.74328
G1 X91.618 Y98.514 E0.89197
G1 X92.845 Y98.351 E1.04050
G1 X94.014 Y98.300 E1.18092
G1 X135.985 Y98.300 E6.21744
G1 X137.154 Y98.351 E6.35785
G1 X138.382 Y98.514 E6.50650
G1 X139.591 Y98.781 E6.65508
G1 X140.774 Y99.154 E6.80393
G1 X141.918 Y99.628 E6.95252
G1 X143.016 Y100.200 E7.10109
G1 X144.062 Y100.866 E7.24989
G1 X145.044 Y101.620 E7.39846
G1 X145.959 Y102.457 E7.54727
G1 X146.796 Y103.372 E7.69608
G1 X147.549 Y104.353 E7.84448
G1 X148.216 Y105.398 E7.99325
G1 X148.788 Y106.499 E8.14214
G1 X149.262 Y107.642 E8.29062
G1 X149.635 Y108.824 E8.43936
G1 X149.902 Y110.034 E8.58805
G1 X150.065 Y111.263 E8.73682
G1 X150.118 Y112.500 E8.88540
G1 X150.065 Y113.737 E9.03397
G1 X149.902 Y114.966 E9.18275
G1 X149.635 Y116.176 E9.33144
G1 X149.262 Y117.358 E9.48017
G1 X148.788 Y118.501 E9.62866
G1 X148.216 Y119.602 E9.77755
G1 X147.549 Y120.647 E9.92631
G1 X146.796 Y121.628 E10.07471
G1 X145.959 Y122.543 E10.22352
G1 X145.044 Y123.380 E10.37233
G1 X144.062 Y124.134 E10.52090
G1 X143.016 Y124.800 E10.66971
G1 X141.918 Y125.372 E10.81827
G1 X140.774 Y125.846 E10.96687
G1 X139.591 Y126.219 E11.11572
G1 X138.382 Y126.486 E11.26430
G1 X137.154 Y126.649 E11.41295
G1 X135.985 Y126.700 E11.55336
G1 X94.014 Y126.700 E16.58988
G1 X92.845 Y126.649 E16.73030
G1 X91.618 Y126.486 E16.87883
G1 X90.408 Y126.219 E17.02752
G1 X89.226 Y125.846 E17.17626
G1 X88.083 Y125.372 E17.32474
G1 X86.982 Y124.800 E17.47363
G1 X85.937 Y124.133 E17.62240
G1 X84.956 Y123.380 E17.77080
G1 X84.041 Y122.543 E17.91961
G1 X83.204 Y121.628 E18.06842
G1 X82.451 Y120.647 E18.21682
G1 X81.784 Y119.602 E18.36558
G1 X81.212 Y118.501 E18.51447
G1 X80.738 Y117.358 E18.66296
G1 X80.365 Y116.176 E18.81169
G1 X80.098 Y114.966 E18.96038
G1 X79.935 Y113.739 E19.10892
G1 X79.881 Y112.500 E19.25774
G1 X79.935 Y111.261 E19.40656
G1 X80.098 Y110.034 E19.55509
G1 X80.365 Y108.824 E19.70379
G1 X80.738 Y107.642 E19.85252
G1 X81.212 Y106.499 E20.00101
G1 X81.784 Y105.398 E20.14989
G1 X82.451 Y104.353 E20.29866
G1 X83.204 Y103.372 E20.44706
G1 X84.041 Y102.457 E20.59587
G1 X84.956 Y101.620 E20.74468
G10
G0 F9000 X87.403 Y104.531
;TYPE:WALL-INNER
G11
G1 F1200 X88.115 Y103.985 E20.85235
G1 X88.889 Y103.491 E20.96254
G1 X89.689 Y103.075 E21.07074
G1 X90.526 Y102.729 E21.17942
G1 X91.392 Y102.455 E21.28842
G1 X92.276 Y102.260 E21.39705
G1 X93.186 Y102.140 E21.50720
G1 X94.087 Y102.100 E21.61542
G1 X135.912 Y102.100 E26.63442
G1 X136.814 Y102.140 E26.74277
G1 X137.721 Y102.260 E26.85256
G1 X138.610 Y102.456 E26.96180
G1 X139.474 Y102.729 E27.07053
G1 X140.311 Y103.075 E27.17922
G1 X141.115 Y103.494 E27.28801
G1 X141.880 Y103.981 E27.39683
G1 X142.597 Y104.531 E27.50527
G1 X143.269 Y105.147 E27.61467
G1 X143.885 Y105.819 E27.72406
G1 X144.431 Y106.531 E27.83173
G1 X144.925 Y107.305 E27.94192
G1 X145.341 Y108.105 E28.05012
G1 X145.687 Y108.942 E28.15880
G1 X145.961 Y109.808 E28.26780
G1 X146.156 Y110.692 E28.37643
G1 X146.276 Y111.602 E28.48658
G1 X146.315 Y112.500 E28.59444
G1 X146.276 Y113.398 E28.70230
G1 X146.157 Y114.303 E28.81183
G1 X145.961 Y115.192 E28.92108
G1 X145.687 Y116.058 E29.03007
G1 X145.341 Y116.895 E29.13876
G1 X144.925 Y117.695 E29.24696
G1 X144.431 Y118.469 E29.35715
G1 X143.885 Y119.181 E29.46482
G1 X143.269 Y119.853 E29.57421
G1 X142.597 Y120.469 E29.68360
G1 X141.880 Y121.019 E29.79204
G1 X141.115 Y121.506 E29.90087
G1 X140.311 Y121.925 E30.00966
G1 X139.474 Y122.271 E30.11834
G1 X138.610 Y122.544 E30.22708
G1 X137.721 Y122.740 E30.33632
G1 X136.814 Y122.860 E30.44611
G1 X135.912 Y122.900 E30.55445
G1 X94.087 Y122.900 E35.57345
G1 X93.186 Y122.860 E35.68168
G1 X92.276 Y122.740 E35.79183
G1 X91.392 Y122.545 E35.90046
G1 X90.526 Y122.271 E36.00945
G1 X89.689 Y121.925 E36.11814
G1 X88.889 Y121.509 E36.22634
G1 X88.115 Y121.015 E36.33653
G1 X87.403 Y120.469 E36.44420
G1 X86.731 Y119.853 E36.55359
G1 X86.115 Y119.181 E36.66298
G1 X85.569 Y118.469 E36.77065
G1 X85.075 Y117.695 E36.88084
G1 X84.659 Y116.895 E36.98904
G1 X84.313 Y116.058 E37.09773
G1 X84.039 Y115.192 E37.20672
G1 X83.843 Y114.303 E37.31597
G1 X83.724 Y113.398 E37.42550
G1 X83.684 Y112.500 E37.53337
G1 X83.724 Y111.602 E37.64123
G1 X83.844 Y110.692 E37.75138
G1 X84.039 Y109.808 E37.86001
G1 X84.313 Y108.942 E37.96901
G1 X84.659 Y108.105 E38.07769
G1 X85.075 Y107.305 E38.18589
G1 X85.569 Y106.531 E38.29608
G1 X86.115 Y105.819 E38.40375
G1 X86.731 Y105.147 E38.51314
G1 X87.403 Y104.531 E38.62254
G0 F9000 X88.062 Y105.677
G1 F1200 X87.414 Y106.310 E38.73124
G1 X86.830 Y107.005 E38.84018
G1 X86.320 Y107.755 E38.94901
G1 X85.885 Y108.551 E39.05786
G1 X85.532 Y109.388 E39.16687
G1 X85.265 Y110.255 E39.27573
G1 X85.085 Y111.145 E39.38470
G1 X84.995 Y112.047 E39.49347
G1 X84.995 Y112.953 E39.60219
G1 X85.085 Y113.855 E39.71097
G1 X85.265 Y114.745 E39.81993
G1 X85.532 Y115.612 E39.92880
G1 X85.885 Y116.449 E40.03780
G1 X86.320 Y117.245 E40.14666
G1 X86.830 Y117.995 E40.25549
G1 X87.414 Y118.690 E40.36443
G1 X88.062 Y119.323 E40.47313
G1 X88.772 Y119.889 E40.58209
G1 X89.534 Y120.381 E40.69093
G1 X90.342 Y120.795 E40.79988
G1 X91.186 Y121.126 E40.90867
G1 X92.059 Y121.372 E41.01751
G1 X92.953 Y121.530 E41.12645
G1 X93.858 Y121.598 E41.23536
G1 X94.765 Y121.575 E41.34423
G1 X95.665 Y121.462 E41.45308
G1 X96.550 Y121.260 E41.56201
G1 X97.410 Y120.971 E41.67088
G1 X98.236 Y120.598 E41.77964
G1 X99.022 Y120.145 E41.88851
G1 X99.759 Y119.615 E41.99744
G1 X100.439 Y119.014 E42.10634
G1 X101.056 Y118.349 E42.21520
G1 X101.604 Y117.626 E42.32407
G1 X102.077 Y116.852 E42.43292
G1 X102.471 Y116.034 E42.54187
G1 X102.781 Y115.182 E42.65067
G1 X103.005 Y114.303 E42.75952
G1 X103.140 Y113.406 E42.86837
G1 X103.185 Y112.500 E42.97722
G1 X103.140 Y111.594 E43.08608
G1 X103.005 Y110.697 E43.19493
G1 X102.781 Y109.818 E43.30378
G1 X102.471 Y108.966 E43.41258
G1 X102.077 Y108.148 E43.52153
G1 X101.604 Y107.374 E43.63038
G1 X101.056 Y106.651 E43.73925
G1 X100.439 Y105.986 E43.84810
G1 X99.759 Y105.385 E43.95701
G1 X99.022 Y104.855 E44.06594
G1 X98.236 Y104.402 E44.17481
G1 X97.410 Y104.029 E44.28356
G1 X96.550 Y103.740 E44.39243
G1 X95.665 Y103.538 E44.50137
G1 X94.765 Y103.425 E44.61021
G1 X93.858 Y103.402 E44.71909
G1 X92.953 Y103.470 E44.82799
G1 X92.059 Y103.628 E44.93694
G1 X91.186 Y103.874 E45.04578
G1 X90.342 Y104.205 E45.15457
G1 X89.534 Y104.619 E45.26351
G1 X88.772 Y105.111 E45.37236
G1 X88.062 Y105.677 E45.48132
G0 F9000 X91.186 Y103.874
G0 X94.764 Y103.426
G0 X98.236 Y104.404
G0 X101.056 Y106.651
G0 X105.763 Y110.203
G1 F1200 X105.585 Y111.113 E45.59259
G1 X105.495 Y112.037 E45.70399
G1 X105.495 Y112.963 E45.81511
G1 X105.585 Y113.887 E45.92652
G1 X105.763 Y114.797 E46.03778
G1 X106.028 Y115.686 E46.14910
G1 X106.378 Y116.545 E46.26041
G1 X106.809 Y117.366 E46.37168
G1 X107.317 Y118.143 E46.48308
G1 X107.898 Y118.866 E46.59438
G1 X108.546 Y119.530 E46.70572
G1 X109.255 Y120.128 E46.81702
G1 X110.019 Y120.655 E46.92840
G1 X110.830 Y121.105 E47.03969
G1 X111.680 Y121.477 E47.15103
G1 X112.562 Y121.763 E47.26230
G1 X113.468 Y121.963 E47.37364
G1 X114.389 Y122.075 E47.48497
G1 X115.316 Y122.098 E47.59625
G1 X116.241 Y122.030 E47.70755
G1 X117.156 Y121.874 E47.81893
G1 X118.050 Y121.630 E47.93013
G1 X118.918 Y121.302 E48.04148
G1 X119.749 Y120.890 E48.15279
G1 X120.537 Y120.400 E48.26414
G1 X121.274 Y119.837 E48.37543
G1 X121.954 Y119.206 E48.48675
G1 X122.569 Y118.511 E48.59811
G1 X123.114 Y117.761 E48.70937
G1 X123.585 Y116.961 E48.82077
G1 X123.975 Y116.119 E48.93212
G1 X124.284 Y115.245 E49.04336
G1 X124.506 Y114.344 E49.15472
G1 X124.639 Y113.426 E49.26603
G1 X124.685 Y112.500 E49.37728
G1 X124.639 Y111.574 E49.48854
G1 X124.506 Y110.656 E49.59985
G1 X124.284 Y109.755 E49.71120
G1 X123.975 Y108.881 E49.82245
G1 X123.585 Y108.039 E49.93380
G1 X123.114 Y107.239 E50.04520
G1 X122.569 Y106.489 E50.15645
G1 X121.954 Y105.794 E50.26782
G1 X121.274 Y105.163 E50.37914
G1 X120.537 Y104.600 E50.49043
G1 X119.749 Y104.110 E50.60178
G1 X118.918 Y103.698 E50.71308
G1 X118.050 Y103.370 E50.82443
G1 X117.156 Y103.126 E50.93564
G1 X116.241 Y102.970 E51.04702
G1 X115.316 Y102.902 E51.15832
G1 X114.389 Y102.925 E51.26959
G1 X113.468 Y103.037 E51.38093
G1 X112.562 Y103.237 E51.49227
G1 X111.680 Y103.523 E51.60353
G1 X110.830 Y103.895 E51.71487
G1 X110.019 Y104.345 E51.82617
G1 X109.255 Y104.872 E51.93755
G1 X108.546 Y105.470 E52.04885
G1 X107.898 Y106.134 E52.16018
G1 X107.317 Y106.857 E52.27148
G1 X106.809 Y107.634 E52.38288
G1 X106.378 Y108.455 E52.49415
G1 X106.028 Y109.314 E52.60546
G1 X105.763 Y110.203 E52.71678
G0 F9000 X107.318 Y106.858
G0 X110.020 Y104.346
G0 X113.468 Y103.037
G0 X117.155 Y103.127
G0 X120.536 Y104.600
G0 X123.114 Y107.240
G0 X124.505 Y110.656
G0 X125.826 Y112.027
G1 F1200 X125.826 Y112.973 E52.83030
G1 X125.914 Y113.915 E52.94383
G1 X126.091 Y114.846 E53.05755
G1 X126.354 Y115.756 E53.17122
G1 X126.701 Y116.637 E53.28485
G1 X127.128 Y117.481 E53.39835
G1 X127.634 Y118.282 E53.51204
G1 X128.212 Y119.033 E53.62577
G1 X128.857 Y119.725 E53.73928
G1 X129.565 Y120.354 E53.85293
G1 X130.329 Y120.914 E53.96660
G1 X131.141 Y121.400 E54.08016
G1 X131.996 Y121.809 E54.19390
G1 X132.885 Y122.135 E54.30752
G1 X133.800 Y122.376 E54.42107
G1 X134.734 Y122.531 E54.53468
G1 X135.679 Y122.598 E54.64836
G1 X136.625 Y122.575 E54.76192
G1 X137.565 Y122.465 E54.87549
G1 X138.491 Y122.266 E54.98914
G1 X139.395 Y121.982 E55.10285
G1 X140.268 Y121.614 E55.21654
G1 X141.101 Y121.166 E55.33004
G1 X141.890 Y120.643 E55.44363
G1 X142.627 Y120.048 E55.55729
G1 X143.304 Y119.386 E55.67092
G1 X143.917 Y118.664 E55.78458
G1 X144.459 Y117.888 E55.89816
G1 X144.926 Y117.064 E56.01182
G1 X145.314 Y116.200 E56.12547
G1 X145.619 Y115.304 E56.23905
G1 X145.839 Y114.383 E56.35268
G1 X145.972 Y113.445 E56.46636
G1 X146.016 Y112.500 E56.57989
G1 X145.972 Y111.555 E56.69341
G1 X145.839 Y110.617 E56.80710
G1 X145.619 Y109.696 E56.92073
G1 X145.314 Y108.800 E57.03430
G1 X144.926 Y107.936 E57.14796
G1 X144.459 Y107.112 E57.26162
G1 X143.917 Y106.336 E57.37520
G1 X143.304 Y105.614 E57.48886
G1 X142.627 Y104.952 E57.60248
G1 X141.890 Y104.357 E57.71615
G1 X141.101 Y103.834 E57.82974
G1 X140.268 Y103.386 E57.94324
G1 X139.395 Y103.018 E58.05692
G1 X138.491 Y102.734 E58.17063
G1 X137.565 Y102.535 E58.28429
G1 X136.625 Y102.425 E58.39786
G1 X135.679 Y102.402 E58.51141
G1 X134.734 Y102.469 E58.62510
G1 X133.800 Y102.624 E58.73871
G1 X132.885 Y102.865 E58.85225
G1 X131.996 Y103.191 E58.96588
G1 X131.141 Y103.600 E59.07961
G1 X130.329 Y104.086 E59.19317
G1 X129.565 Y104.646 E59.30685
G1 X128.857 Y105.275 E59.42049
G1 X128.212 Y105.967 E59.53401
G1 X127.634 Y106.718 E59.64773
G1 X127.128 Y107.519 E59.76142
G1 X126.701 Y108.363 E59.87493
G1 X126.354 Y109.244 E59.98855
G1 X126.091 Y110.154 E60.10222
G1 X125.914 Y111.085 E60.21594
G1 X125.826 Y112.027 E60.32947
G0 F9000 X126.226 Y112.046
;TYPE:WALL-OUTER
G1 F1200 X126.226 Y112.954 E60.43843
G1 X126.311 Y113.859 E60.54751
G1 X126.480 Y114.753 E60.65669
G1 X126.733 Y115.627 E60.76588
G1 X127.066 Y116.473 E60.87498
G1 X127.477 Y117.284 E60.98408
G1 X127.962 Y118.053 E61.09318
G1 X128.517 Y118.774 E61.20237
G1 X129.137 Y119.438 E61.31138
G1 X129.817 Y120.043 E61.42060
G1 X130.550 Y120.581 E61.52971
G1 X131.330 Y121.047 E61.63875
G1 X132.151 Y121.440 E61.74797
G1 X133.005 Y121.753 E61.85712
G1 X133.884 Y121.985 E61.96621
G1 X134.781 Y122.133 E62.07531
G1 X135.688 Y122.197 E62.18442
G1 X136.597 Y122.176 E62.29353
G1 X137.500 Y122.070 E62.40263
G1 X138.389 Y121.879 E62.51174
G1 X139.257 Y121.606 E62.62093
G1 X140.095 Y121.253 E62.73005
G1 X140.896 Y120.823 E62.83915
G1 X141.653 Y120.320 E62.94821
G1 X142.361 Y119.749 E63.05736
G1 X143.011 Y119.113 E63.16649
G1 X143.600 Y118.419 E63.27572
G1 X144.120 Y117.674 E63.38474
G1 X144.569 Y116.883 E63.49389
G1 X144.941 Y116.053 E63.60303
G1 X145.234 Y115.193 E63.71206
G1 X145.446 Y114.308 E63.82126
G1 X145.573 Y113.408 E63.93033
G1 X145.615 Y112.500 E64.03941
G1 X145.573 Y111.592 E64.14848
G1 X145.446 Y110.692 E64.25755
G1 X145.234 Y109.807 E64.36676
G1 X144.941 Y108.947 E64.47578
G1 X144.569 Y108.117 E64.58493
G1 X144.120 Y107.326 E64.69408
G1 X143.600 Y106.581 E64.80310
G1 X143.011 Y105.887 E64.91233
G1 X142.361 Y105.251 E65.02146
G1 X141.653 Y104.680 E65.13061
G1 X140.896 Y104.177 E65.23967
G1 X140.095 Y103.747 E65.34876
G1 X139.257 Y103.394 E65.45788
G1 X138.389 Y103.121 E65.56707
G1 X137.500 Y102.930 E65.67619
G1 X136.597 Y102.824 E65.78529
G1 X135.688 Y102.803 E65.89440
G1 X134.781 Y102.867 E66.00351
G1 X133.884 Y103.015 E66.11261
G1 X133.005 Y103.247 E66.22170
G1 X132.151 Y103.560 E66.33084
G1 X131.330 Y103.953 E66.44007
G1 X130.550 Y104.419 E66.54910
G1 X129.817 Y104.957 E66.65821
G1 X129.137 Y105.562 E66.76743
G1 X128.517 Y106.226 E66.87645
G1 X127.962 Y106.947 E66.98563
G1 X127.477 Y107.716 E67.09473
G1 X127.066 Y108.527 E67.20384
G1 X126.733 Y109.373 E67.31294
G1 X126.480 Y110.247 E67.42212
G1 X126.311 Y111.141 E67.53130
G1 X126.226 Y112.046 E67.64038
G0 F9000 X125.926 Y112.046
G0 X124.582 Y112.514
G0 X124.284 Y112.500
G1 F1200 X124.240 Y111.613 E67.74695
G1 X124.113 Y110.733 E67.85365
G1 X123.900 Y109.870 E67.96032
G1 X123.604 Y109.032 E68.06696
G1 X123.230 Y108.225 E68.17370
G1 X122.779 Y107.458 E68.28047
G1 X122.257 Y106.740 E68.38699
G1 X121.667 Y106.074 E68.49376
G1 X121.016 Y105.469 E68.60041
G1 X120.310 Y104.929 E68.70707
G1 X119.554 Y104.460 E68.81383
G1 X118.758 Y104.065 E68.92047
G1 X117.927 Y103.751 E69.02707
G1 X117.069 Y103.517 E69.13379
G1 X116.192 Y103.367 E69.24056
G1 X115.306 Y103.303 E69.34715
G1 X114.418 Y103.324 E69.45374
G1 X113.535 Y103.432 E69.56049
G1 X112.667 Y103.624 E69.66717
G1 X111.822 Y103.898 E69.77377
G1 X111.007 Y104.254 E69.88049
G1 X110.230 Y104.685 E69.98711
G1 X109.498 Y105.190 E70.09383
G1 X108.819 Y105.763 E70.20045
G1 X108.198 Y106.399 E70.30711
G1 X107.641 Y107.092 E70.41381
G1 X107.154 Y107.837 E70.52061
G1 X106.741 Y108.624 E70.62727
G1 X106.406 Y109.447 E70.73389
G1 X106.152 Y110.299 E70.84058
G1 X105.981 Y111.171 E70.94721
G1 X105.895 Y112.056 E71.05391
G1 X105.895 Y112.944 E71.16047
G1 X105.981 Y113.829 E71.26717
G1 X106.152 Y114.701 E71.37381
G1 X106.406 Y115.553 E71.48049
G1 X106.741 Y116.376 E71.58712
G1 X107.154 Y117.163 E71.69378
G1 X107.641 Y117.908 E71.80058
G1 X108.198 Y118.601 E71.90727
G1 X108.819 Y119.237 E72.01394
G1 X109.498 Y119.810 E72.12056
G1 X110.230 Y120.315 E72.22727
G1 X111.007 Y120.746 E72.33390
G1 X111.822 Y121.102 E72.44062
G1 X112.667 Y121.376 E72.54722
G1 X113.535 Y121.568 E72.65390
G1 X114.418 Y121.676 E72.76065
G1 X115.306 Y121.697 E72.86724
G1 X116.192 Y121.633 E72.97383
G1 X117.069 Y121.483 E73.08060
G1 X117.927 Y121.249 E73.18732
G1 X118.758 Y120.935 E73.29392
G1 X119.554 Y120.540 E73.40056
G1 X120.310 Y120.071 E73.50732
G1 X121.016 Y119.531 E73.61398
G1 X121.667 Y118.926 E73.72062
G1 X122.257 Y118.260 E73.82739
G1 X122.779 Y117.542 E73.93392
G1 X123.230 Y116.775 E74.04069
G1 X123.604 Y115.968 E74.14742
G1 X123.900 Y115.130 E74.25407
G1 X124.113 Y114.267 E74.36074
G1 X124.240 Y113.387 E74.46743
G1 X124.284 Y112.500 E74.57401
G0 F9000 X124.582 Y112.514
G0 X128.213 Y119.032
G0 X131.142 Y121.400
G0 X134.734 Y122.530
G0 X135.887 Y123.000
G0 X135.906 Y123.300
G1 F1200 X94.093 Y123.300 E79.59157
G1 X93.138 Y123.258 E79.70628
G1 X92.209 Y123.135 E79.81873
G1 X91.294 Y122.933 E79.93117
G1 X90.393 Y122.648 E80.04457
G1 X89.513 Y122.284 E80.15885
G1 X88.692 Y121.857 E80.26990
G1 X87.889 Y121.345 E80.38418
G1 X87.142 Y120.772 E80.49715
G1 X86.448 Y120.136 E80.61012
G1 X85.809 Y119.438 E80.72367
G1 X85.239 Y118.695 E80.83605
G1 X84.727 Y117.892 E80.95033
G1 X84.300 Y117.071 E81.06138
G1 X83.936 Y116.191 E81.17566
G1 X83.650 Y115.287 E81.28943
G1 X83.449 Y114.375 E81.40150
G1 X83.326 Y113.446 E81.51395
G1 X83.284 Y112.500 E81.62759
G1 X83.326 Y111.551 E81.74158
