;FLAVOR:UltiGCode
;TIME:2469
;MATERIAL:3780
;MATERIAL2:0
;NOZZLE_DIAMETER:0.400000
;NOZZLE_DIAMETER2:0.400000

;Layer count: 88
;LAYER:0
M107
G0 F9000 X103.721 Y91.280 Z0.300
;TYPE:SKIRT
G1 F1200 X104.971 Y90.387 E0.18435
G1 X106.359 Y90.090 E0.35468
G1 X107.879 Y90.085 E0.53708
G1 X113.435 Y90.101 E1.20380
G1 X117.163 Y90.100 E1.65116
G1 X120.152 Y90.101 E2.00984
G1 X123.887 Y90.100 E2.45804
G1 X126.868 Y90.101 E2.81576
G1 X132.420 Y90.086 E3.48200
G1 X133.950 Y90.089 E3.66560
G1 X135.332 Y90.391 E3.83536
G1 X136.573 Y91.271 E4.01792
G1 X137.466 Y92.521 E4.20226
G1 X137.763 Y93.909 E4.37259
G1 X137.768 Y95.460 E4.55871
G1 X137.752 Y101.160 E5.24272
G1 X137.753 Y104.984 E5.70160
G1 X137.752 Y108.052 E6.06976
G1 X137.753 Y111.884 E6.52960
G1 X137.752 Y114.952 E6.89776
G1 X137.753 Y118.784 E7.35760
G1 X137.752 Y121.853 E7.72588
G1 X137.767 Y127.540 E8.40832
G1 X137.764 Y129.102 E8.59576
G1 X137.461 Y130.482 E8.76530
G1 X136.582 Y131.723 E8.94780
G1 X135.336 Y132.614 E9.13161
G1 X133.950 Y132.913 E9.30176
G1 X132.775 Y132.919 E9.44276
G1 X128.876 Y132.902 E9.91064
G1 X127.352 Y132.908 E10.09353
G1 X127.352 Y136.894 E10.57185
G1 X127.284 Y137.657 E10.66377
G1 X127.050 Y138.531 E10.77234
G1 X126.666 Y139.357 E10.88165
G1 X126.144 Y140.102 E10.99081
G1 X125.503 Y140.743 E11.09959
G1 X124.758 Y141.265 E11.20875
G1 X123.932 Y141.649 E11.31806
G1 X123.058 Y141.883 E11.42663
G1 X122.295 Y141.951 E11.51856
G1 X118.008 Y141.951 E12.03300
G1 X117.245 Y141.883 E12.12492
G1 X116.371 Y141.649 E12.23349
G1 X115.545 Y141.265 E12.34280
G1 X114.800 Y140.743 E12.45196
G1 X114.159 Y140.102 E12.56074
G1 X113.637 Y139.357 E12.66990
G1 X113.253 Y138.531 E12.77921
G1 X113.019 Y137.657 E12.88779
G1 X112.951 Y136.894 E12.97971
G1 X112.951 Y132.904 E13.45851
G1 X107.941 Y132.918 E14.05971
G1 X106.412 Y132.916 E14.24319
G1 X105.556 Y132.760 E14.34760
G1 X104.699 Y132.422 E14.45815
G1 X103.365 Y131.407 E14.65930
G1 X102.675 Y129.924 E14.85558
G1 X102.539 Y128.989 E14.96896
G1 X102.535 Y127.542 E15.14260
G1 X102.551 Y121.843 E15.82649
G1 X102.550 Y118.019 E16.28537
G1 X102.551 Y114.950 E16.65365
G1 X102.550 Y111.118 E17.11349
G1 X102.551 Y108.050 E17.48165
G1 X102.550 Y104.218 E17.94149
G1 X102.551 Y101.150 E18.30965
G1 X102.536 Y95.464 E18.99197
G1 X102.539 Y93.903 E19.17929
G1 X102.841 Y92.521 E19.34904
G1 X103.721 Y91.280 E19.53160
G10
G0 F9000 X106.452 Y93.998
;TYPE:WALL-INNER
G11
G1 F1200 X106.537 Y93.938 E19.54409
G1 X106.767 Y93.889 E19.57231
G1 X107.880 Y93.885 E19.70587
G1 X113.426 Y93.901 E20.37139
G1 X126.877 Y93.901 E21.98551
G1 X132.423 Y93.886 E22.65103
G1 X133.536 Y93.888 E22.78459
G1 X133.763 Y93.938 E22.81249
G1 X133.855 Y94.002 E22.82594
G1 X133.915 Y94.087 E22.83842
G1 X133.964 Y94.317 E22.86664
G1 X133.968 Y95.459 E23.00368
G1 X133.952 Y101.150 E23.68660
G1 X133.952 Y121.853 E26.17096
G1 X133.967 Y127.541 E26.85353
G1 X133.965 Y128.686 E26.99093
G1 X133.915 Y128.913 E27.01882
G1 X133.851 Y129.005 E27.03227
G1 X133.764 Y129.066 E27.04502
G1 X133.537 Y129.115 E27.07289
G1 X132.774 Y129.119 E27.16445
G1 X128.877 Y129.102 E27.63209
G1 X124.980 Y129.118 E28.09973
G1 X123.552 Y129.115 E28.27110
G1 X123.552 Y136.720 E29.18370
G1 X123.528 Y136.993 E29.21658
G1 X123.464 Y137.232 E29.24627
G1 X123.363 Y137.449 E29.27499
G1 X123.221 Y137.651 E29.30462
G1 X123.052 Y137.820 E29.33330
G1 X122.850 Y137.962 E29.36293
G1 X122.633 Y138.063 E29.39166
G1 X122.394 Y138.127 E29.42135
G1 X122.121 Y138.151 E29.45423
G1 X118.182 Y138.151 E29.92691
G1 X117.909 Y138.127 E29.95980
G1 X117.670 Y138.063 E29.98949
G1 X117.453 Y137.962 E30.01821
G1 X117.251 Y137.820 E30.04784
G1 X117.082 Y137.651 E30.07652
G1 X116.940 Y137.449 E30.10615
G1 X116.839 Y137.232 E30.13488
G1 X116.775 Y136.993 E30.16457
G1 X116.751 Y136.720 E30.19745
G1 X116.751 Y129.112 E31.11041
G1 X115.733 Y129.119 E31.23258
G1 X113.762 Y129.102 E31.46910
G1 X107.938 Y129.118 E32.16799
G1 X106.754 Y129.116 E32.31007
G1 X106.581 Y129.080 E32.33127
G1 X106.415 Y128.954 E32.35628
G1 X106.356 Y128.826 E32.37319
G1 X106.338 Y128.705 E32.38787
G1 X106.335 Y127.545 E32.52707
G1 X106.351 Y121.853 E33.21012
G1 X106.351 Y101.150 E35.69448
G1 X106.336 Y95.463 E36.37692
G1 X106.338 Y94.317 E36.51444
G1 X106.388 Y94.090 E36.54233
G1 X106.452 Y93.998 E36.55578
G0 F9000 X111.541 Y120.880
G1 F1200 X111.122 Y120.998 E36.60802
G1 X110.721 Y121.211 E36.66250
G1 X110.375 Y121.505 E36.71699
G1 X110.099 Y121.867 E36.77161
G1 X109.908 Y122.280 E36.82622
G1 X109.809 Y122.726 E36.88104
G1 X109.814 Y123.203 E36.93828
G1 X109.917 Y123.643 E36.99251
G1 X110.099 Y124.037 E37.04459
G1 X110.375 Y124.398 E37.09912
G1 X110.721 Y124.692 E37.15361
G1 X111.122 Y124.906 E37.20815
G1 X111.562 Y125.028 E37.26294
G1 X112.016 Y125.052 E37.31750
G1 X112.464 Y124.979 E37.37197
G1 X112.890 Y124.809 E37.42701
G1 X113.281 Y124.537 E37.48416
G1 X113.590 Y124.203 E37.53877
G1 X113.817 Y123.813 E37.59292
G1 X113.955 Y123.404 E37.64471
G1 X114.005 Y122.948 E37.69976
G1 X113.949 Y122.476 E37.75680
G1 X113.799 Y122.047 E37.81134
G1 X113.562 Y121.664 E37.86538
G1 X113.264 Y121.348 E37.91751
G1 X112.886 Y121.093 E37.97222
G1 X112.464 Y120.924 E38.02677
G1 X112.013 Y120.851 E38.08160
G1 X111.541 Y120.880 E38.13834
G0 F9000 X113.262 Y121.349
G0 X114.004 Y122.948
G0 X118.947 Y132.448
G1 F1200 X118.583 Y132.673 E38.18969
G1 X118.227 Y132.997 E38.24746
G1 X117.938 Y133.381 E38.30513
G1 X117.725 Y133.811 E38.36271
G1 X117.594 Y134.272 E38.42022
G1 X117.548 Y134.757 E38.47868
G1 X117.608 Y135.279 E38.54174
G1 X117.725 Y135.691 E38.59313
G1 X117.938 Y136.120 E38.65061
G1 X118.231 Y136.509 E38.70905
G1 X118.633 Y136.860 E38.77309
G1 X119.041 Y137.099 E38.82983
G1 X119.439 Y137.253 E38.88104
G1 X119.917 Y137.343 E38.93941
G1 X120.449 Y137.333 E39.00326
G1 X120.920 Y137.234 E39.06102
G1 X121.356 Y137.053 E39.11766
G1 X121.720 Y136.828 E39.16902
G1 X122.076 Y136.504 E39.22678
G1 X122.365 Y136.120 E39.28445
G1 X122.578 Y135.690 E39.34204
G1 X122.709 Y135.229 E39.39955
G1 X122.755 Y134.745 E39.45789
G1 X122.696 Y134.222 E39.52105
G1 X122.578 Y133.810 E39.57247
G1 X122.365 Y133.381 E39.62995
G1 X122.072 Y132.992 E39.68839
G1 X121.670 Y132.641 E39.75243
G1 X121.262 Y132.402 E39.80917
G1 X120.864 Y132.248 E39.86038
G1 X120.386 Y132.158 E39.91875
G1 X119.854 Y132.168 E39.98260
G1 X119.383 Y132.267 E40.04036
G1 X118.947 Y132.448 E40.09701
G0 F9000 X126.875 Y124.398
G1 F1200 X127.221 Y124.692 E40.15149
G1 X127.622 Y124.906 E40.20603
G1 X128.062 Y125.028 E40.26083
G1 X128.516 Y125.052 E40.31538
G1 X128.964 Y124.979 E40.36985
G1 X129.390 Y124.809 E40.42489
G1 X129.781 Y124.537 E40.48205
G1 X130.090 Y124.203 E40.53665
G1 X130.317 Y123.813 E40.59080
G1 X130.455 Y123.405 E40.64248
G1 X130.506 Y122.948 E40.69766
G1 X130.449 Y122.475 E40.75484
G1 X130.299 Y122.047 E40.80926
G1 X130.062 Y121.664 E40.86331
G1 X129.764 Y121.348 E40.91543
G1 X129.386 Y121.093 E40.97014
G1 X128.964 Y120.924 E41.02469
G1 X128.513 Y120.851 E41.07952
G1 X128.041 Y120.880 E41.13627
G1 X127.622 Y120.998 E41.18850
G1 X127.221 Y121.211 E41.24299
G1 X126.875 Y121.505 E41.29747
G1 X126.599 Y121.867 E41.35210
G1 X126.408 Y122.280 E41.40670
G1 X126.309 Y122.726 E41.46152
G1 X126.314 Y123.203 E41.51877
G1 X126.417 Y123.643 E41.57300
G1 X126.599 Y124.037 E41.62508
G1 X126.875 Y124.398 E41.67961
G0 F9000 X127.167 Y124.121
;TYPE:WALL-OUTER
G1 F1200 X127.447 Y124.359 E41.72370
G1 X127.771 Y124.532 E41.76778
G1 X128.127 Y124.631 E41.81212
G1 X128.494 Y124.650 E41.85622
G1 X128.857 Y124.591 E41.90035
G1 X129.199 Y124.454 E41.94456
G1 X129.517 Y124.234 E41.99096
G1 X129.767 Y123.964 E42.03512
G1 X129.951 Y123.647 E42.07910
G1 X130.062 Y123.318 E42.12077
G1 X130.103 Y122.950 E42.16520
G1 X130.057 Y122.566 E42.21161
G1 X129.936 Y122.220 E42.25560
G1 X129.743 Y121.909 E42.29952
G1 X129.503 Y121.655 E42.34145
G1 X129.198 Y121.448 E42.38569
G1 X128.857 Y121.312 E42.42974
G1 X128.493 Y121.253 E42.47399
G1 X128.108 Y121.277 E42.52028
G1 X127.771 Y121.371 E42.56227
G1 X127.447 Y121.544 E42.60634
G1 X127.167 Y121.782 E42.65044
G1 X126.944 Y122.074 E42.69453
G1 X126.789 Y122.409 E42.73882
G1 X126.710 Y122.768 E42.78293
G1 X126.713 Y123.155 E42.82938
G1 X126.797 Y123.512 E42.87339
G1 X126.944 Y123.829 E42.91532
G1 X127.167 Y124.121 E42.95941
G0 F9000 X126.973 Y124.349
G0 X128.887 Y129.203
G0 X128.877 Y129.502
G1 F1200 X124.980 Y129.518 E43.42705
G1 X123.952 Y129.516 E43.55041
G1 X123.952 Y136.744 E44.41777
G1 X123.924 Y137.063 E44.45620
G1 X123.842 Y137.368 E44.49410
G1 X123.712 Y137.647 E44.53103
G1 X123.527 Y137.911 E44.56972
G1 X123.312 Y138.126 E44.60620
G1 X123.048 Y138.311 E44.64489
G1 X122.769 Y138.441 E44.68182
G1 X122.464 Y138.523 E44.71972
G1 X122.145 Y138.551 E44.75815
G1 X118.158 Y138.551 E45.23659
G1 X117.839 Y138.523 E45.27502
G1 X117.534 Y138.441 E45.31292
G1 X117.255 Y138.311 E45.34985
G1 X116.991 Y138.126 E45.38854
G1 X116.776 Y137.911 E45.42502
G1 X116.591 Y137.647 E45.46371
G1 X116.461 Y137.368 E45.50064
G1 X116.379 Y137.063 E45.53854
G1 X116.351 Y136.744 E45.57697
G1 X116.351 Y129.515 E46.44445
G1 X115.733 Y129.519 E46.51861
G1 X113.761 Y129.502 E46.75526
G1 X106.721 Y129.516 E47.60006
G1 X106.490 Y129.474 E47.62824
G1 X106.384 Y129.432 E47.64192
G1 X106.093 Y129.211 E47.68577
G1 X105.968 Y128.942 E47.72136
G1 X105.938 Y128.736 E47.74634
G1 X105.935 Y127.544 E47.88939
G1 X105.951 Y101.151 E51.05655
G1 X105.938 Y94.272 E51.88203
G1 X106.014 Y93.924 E51.92477
G1 X106.164 Y93.713 E51.95584
G1 X106.372 Y93.565 E51.98647
G1 X106.726 Y93.489 E52.02992
G1 X107.881 Y93.485 E52.16852
G1 X126.876 Y93.501 E54.44792
G1 X133.581 Y93.488 E55.25252
G1 X133.929 Y93.564 E55.29527
G1 X134.140 Y93.714 E55.32633
G1 X134.288 Y93.922 E55.35697
G1 X134.364 Y94.276 E55.40041
G1 X134.368 Y95.460 E55.54250
G1 X134.352 Y121.852 E58.70954
G1 X134.365 Y128.732 E59.53514
G1 X134.289 Y129.079 E59.57776
G1 X134.139 Y129.290 E59.60883
G1 X133.929 Y129.440 E59.63980
G1 X133.582 Y129.515 E59.68240
G1 X132.774 Y129.519 E59.77936
G1 X128.877 Y129.502 E60.24701
G0 F9000 X128.887 Y129.203
G0 X123.611 Y129.174
G0 X122.291 Y133.459
G0 X122.023 Y133.592
G1 F1200 X121.777 Y133.266 E60.29601
G1 X121.435 Y132.967 E60.35053
G1 X121.087 Y132.763 E60.39893
G1 X120.754 Y132.634 E60.44179
G1 X120.353 Y132.559 E60.49074
G1 X119.899 Y132.567 E60.54523
G1 X119.502 Y132.651 E60.59392
G1 X119.130 Y132.805 E60.64224
G1 X118.825 Y132.994 E60.68530
G1 X118.524 Y133.268 E60.73414
G1 X118.280 Y133.592 E60.78281
G1 X118.100 Y133.956 E60.83154
G1 X117.989 Y134.346 E60.88020
G1 X117.950 Y134.753 E60.92926
G1 X118.001 Y135.201 E60.98337
G1 X118.100 Y135.546 E61.02644
G1 X118.280 Y135.909 E61.07506
G1 X118.526 Y136.235 E61.12407
G1 X118.868 Y136.534 E61.17858
G1 X119.216 Y136.738 E61.22699
G1 X119.549 Y136.867 E61.26984
G1 X119.950 Y136.942 E61.31880
G1 X120.404 Y136.934 E61.37329
G1 X120.801 Y136.850 E61.42198
G1 X121.173 Y136.696 E61.47030
G1 X121.478 Y136.507 E61.51335
G1 X121.779 Y136.233 E61.56220
G1 X122.023 Y135.909 E61.61087
G1 X122.203 Y135.545 E61.65960
G1 X122.314 Y135.155 E61.70826
G1 X122.353 Y134.749 E61.75720
G1 X122.302 Y134.300 E61.81143
G1 X122.203 Y133.955 E61.85450
G1 X122.023 Y133.592 E61.90312
G0 F9000 X122.291 Y133.459
G0 X113.236 Y124.437
G0 X113.017 Y124.234
G1 F1200 X113.267 Y123.964 E61.94728
G1 X113.451 Y123.647 E61.99126
G1 X113.562 Y123.317 E62.03304
G1 X113.602 Y122.950 E62.07734
G1 X113.557 Y122.567 E62.12362
G1 X113.436 Y122.220 E62.16772
G1 X113.243 Y121.909 E62.21164
G1 X113.003 Y121.655 E62.25357
G1 X112.698 Y121.448 E62.29780
G1 X112.357 Y121.312 E62.34186
G1 X111.993 Y121.253 E62.38611
G1 X111.608 Y121.277 E62.43240
G1 X111.271 Y121.371 E62.47438
G1 X110.947 Y121.544 E62.51846
G1 X110.667 Y121.782 E62.56256
G1 X110.444 Y122.074 E62.60665
G1 X110.289 Y122.409 E62.65094
G1 X110.210 Y122.768 E62.69505
G1 X110.213 Y123.155 E62.74149
G1 X110.297 Y123.512 E62.78550
G1 X110.444 Y123.829 E62.82743
G1 X110.667 Y124.121 E62.87152
G1 X110.947 Y124.359 E62.91562
G1 X111.271 Y124.532 E62.95970
G1 X111.627 Y124.631 E63.00404
G1 X111.994 Y124.650 E63.04814
G1 X112.357 Y124.591 E63.09227
G1 X112.699 Y124.454 E63.13648
G1 X113.017 Y124.234 E63.18288
G0 F9000 X113.487 Y124.518
;TYPE:SKIN
G1 F1200 X121.194 Y132.225 E64.49080
G0 F9000 X120.425 Y132.022
G1 F1200 X113.180 Y124.777 E65.72032
G0 F9000 X112.823 Y124.985
G1 F1200 X116.807 Y128.969 E66.39643
G0 F9000 X116.891 Y129.053
G1 F1200 X119.863 Y132.026 E66.90088
G0 F9000 X119.392 Y132.120
G1 F1200 X116.891 Y129.619 E67.32531
G0 F9000 X116.891 Y130.184
G1 F1200 X118.984 Y132.278 E67.68059
G0 F9000 X118.622 Y132.482
G1 F1200 X116.891 Y130.750 E67.97443
G0 F9000 X116.891 Y131.316
G1 F1200 X118.306 Y132.731 E68.21457
G0 F9000 X118.031 Y133.022
G1 F1200 X116.891 Y131.881 E68.40812
G0 F9000 X116.891 Y132.447
G1 F1200 X117.796 Y133.352 E68.56170
G0 F9000 X117.609 Y133.731
G1 F1200 X116.891 Y133.013 E68.68355
G0 F9000 X116.891 Y133.578
G1 F1200 X117.479 Y134.167 E68.78342
G0 F9000 X117.416 Y134.669
G1 F1200 X116.891 Y134.144 E68.87252
G0 F9000 X116.891 Y134.710
G1 F1200 X117.468 Y135.287 E68.97044
G0 F9000 X116.891 Y135.275
G1 F1200 X117.845 Y136.230 E69.13242
G0 F9000 X116.891 Y136.407
G1 F1200 X118.494 Y138.010 E69.40446
G0 F9000 X119.059 Y138.010
G1 F1200 X116.891 Y135.841 E69.77246
G0 F9000 X116.921 Y137.003
G1 F1200 X117.896 Y137.978 E69.93793
G0 F9000 X118.641 Y137.026
G1 F1200 X119.625 Y138.010 E70.10492
G0 F9000 X120.191 Y138.010
G1 F1200 X119.607 Y137.426 E70.20403
G0 F9000 X121.719 Y136.827
G0 X122.708 Y135.228
G0 X123.412 Y133.877
G1 F1200 X113.746 Y124.211 E71.84440
G0 F9000 X113.951 Y123.851
G1 F1200 X123.412 Y133.311 E73.44990
G0 F9000 X123.412 Y132.745
G1 F1200 X114.092 Y123.426 E75.03147
G0 F9000 X114.140 Y122.908
G1 F1200 X123.412 Y132.180 E76.60498
G0 F9000 X123.412 Y131.614
G1 F1200 X114.002 Y122.205 E78.20183
G0 F9000 X112.641 Y120.843
G1 F1200 X106.477 Y114.679 E79.24789
G0 F9000 X106.477 Y114.114
G1 F1200 X123.412 Y131.048 E82.12177
G0 F9000 X123.412 Y130.483
G1 F1200 X106.477 Y113.548 E84.99574
G0 F9000 X106.477 Y112.982
G1 F1200 X123.412 Y129.917 E87.86970
G0 F9000 X123.412 Y129.351
G1 F1200 X106.477 Y112.417 E90.74358
G0 F9000 X106.477 Y111.851
G1 F1200 X123.600 Y128.974 E93.64945
G0 F9000 X124.165 Y128.974
G1 F1200 X106.477 Y111.285 E96.65129
G0 F9000 X106.477 Y110.720
G1 F1200 X124.731 Y128.974 E99.74910
G0 F9000 X125.297 Y128.974
G1 F1200 X106.477 Y110.154 E102.94296
G0 F9000 X106.477 Y109.588
G1 F1200 X125.862 Y128.974 E106.23279
G0 F9000 X126.428 Y128.974
G1 F1200 X106.477 Y109.023 E109.61858
G0 F9000 X106.477 Y108.457
G1 F1200 X126.994 Y128.974 E113.10043
G0 F9000 X127.559 Y128.974
G1 F1200 X106.477 Y107.891 E116.67825
G0 F9000 X106.477 Y107.326
G1 F1200 X128.125 Y128.974 E120.35204
G0 F9000 X128.691 Y128.974
G1 F1200 X106.477 Y106.760 E124.12188
G0 F9000 X106.477 Y106.194
G1 F1200 X129.256 Y128.974 E127.98769
G0 F9000 X129.822 Y128.974
G1 F1200 X106.477 Y105.629 E131.94947
G0 F9000 X106.477 Y105.063
G1 F1200 X130.388 Y128.974 E136.00730
G0 F9000 X130.954 Y128.974
G1 F1200 X106.477 Y104.497 E140.16118
G0 F9000 X106.477 Y103.931
G1 F1200 X126.324 Y123.779 E143.52942
G0 F9000 X126.171 Y123.060
G1 F1200 X106.477 Y103.366 E146.87160
G0 F9000 X106.477 Y102.800
G1 F1200 X126.208 Y122.531 E150.22006
G0 F9000 X126.338 Y122.095
G1 F1200 X106.477 Y102.234 E153.59058
G0 F9000 X106.477 Y101.669
G1 F1200 X126.531 Y121.723 E156.99386
G0 F9000 X126.777 Y121.403
G1 F1200 X106.477 Y101.103 E160.43888
G0 F9000 X106.477 Y100.537
G1 F1200 X127.083 Y121.143 E163.93584
G0 F9000 X127.439 Y120.934
G1 F1200 X106.477 Y99.972 E167.49321
G0 F9000 X106.477 Y99.406
G1 F1200 X127.856 Y120.785 E171.12134
G0 F9000 X128.356 Y120.719
G1 F1200 X106.477 Y98.840 E174.83433
G0 F9000 X106.477 Y98.275
G1 F1200 X128.988 Y120.785 E178.65449
G0 F9000 X130.551 Y122.349
G1 F1200 X133.824 Y125.621 E179.20985
G0 F9000 X133.824 Y125.056
G1 F1200 X106.477 Y97.709 E183.85079
G0 F9000 X106.477 Y97.143
G1 F1200 X133.824 Y124.490 E188.49173
G0 F9000 X133.824 Y123.924
G1 F1200 X106.477 Y96.578 E193.13259
G0 F9000 X106.477 Y96.012
G1 F1200 X133.824 Y123.359 E197.77353
G0 F9000 X133.824 Y122.793
