;FLAVOR:UltiGCode
;TIME:7563
;MATERIAL:11082
;MATERIAL2:0
;NOZZLE_DIAMETER:0.400000
;NOZZLE_DIAMETER2:0.400000

;Layer count: 108
;LAYER:0
M107
G0 F9000 X93.970 Y55.139 Z0.300
;TYPE:SKIRT
G1 F1200 X94.803 Y54.053 E0.16424
G1 X95.889 Y53.220 E0.32848
G1 X97.149 Y52.700 E0.49205
G1 X98.291 Y52.550 E0.63027
G1 X131.710 Y52.550 E4.64055
G1 X132.849 Y52.700 E4.77841
G1 X134.112 Y53.220 E4.94231
G1 X135.198 Y54.054 E5.10663
G1 X136.029 Y55.139 E5.27063
G1 X136.548 Y56.396 E5.43382
G1 X136.700 Y57.538 E5.57207
G1 X136.700 Y159.463 E17.80307
G1 X136.548 Y160.602 E17.94096
G1 X136.029 Y161.862 E18.10448
G1 X135.196 Y162.946 E18.26854
G1 X134.112 Y163.779 E18.43259
G1 X132.852 Y164.298 E18.59611
G1 X131.713 Y164.450 E18.73400
G1 X126.204 Y164.450 E19.39508
G1 X126.200 Y166.435 E19.63328
G1 X126.108 Y167.245 E19.73111
G1 X126.060 Y167.644 E19.77933
G1 X125.604 Y168.947 E19.94499
G1 X125.072 Y169.795 E20.06512
G1 X124.854 Y170.136 E20.11369
G1 X123.876 Y171.114 E20.27966
G1 X123.036 Y171.641 E20.39866
G1 X122.710 Y171.849 E20.44506
G1 X121.385 Y172.313 E20.61353
G1 X120.235 Y172.444 E20.75242
G1 X119.387 Y172.450 E20.85418
G1 X109.819 Y172.450 E22.00234
G1 X109.005 Y172.358 E22.10064
G1 X108.605 Y172.310 E22.14899
G1 X107.302 Y171.854 E22.31465
G1 X106.454 Y171.322 E22.43477
G1 X106.113 Y171.104 E22.48334
G1 X105.135 Y170.126 E22.64931
G1 X104.608 Y169.286 E22.76831
G1 X104.400 Y168.960 E22.81471
G1 X103.935 Y167.633 E22.98345
G1 X103.805 Y166.475 E23.12328
G1 X103.800 Y164.455 E23.36568
G1 X98.838 Y164.450 E23.96112
G1 X98.271 Y164.448 E24.02916
G1 X97.145 Y164.297 E24.16549
G1 X95.889 Y163.779 E24.32853
G1 X94.804 Y162.948 E24.49253
G1 X93.970 Y161.862 E24.65684
G1 X93.450 Y160.599 E24.82074
G1 X93.300 Y159.460 E24.95860
G1 X93.300 Y57.541 E37.18888
G1 X93.450 Y56.399 E37.32710
G1 X93.970 Y55.139 E37.49067
G10
G0 F9000 X97.293 Y57.050
;TYPE:WALL-INNER
G11
G1 F1200 X97.513 Y56.763 E37.53407
G1 X97.800 Y56.543 E37.57746
G1 X98.139 Y56.403 E37.62147
G1 X98.540 Y56.350 E37.67001
G1 X131.460 Y56.350 E41.62041
G1 X131.860 Y56.403 E41.66883
G1 X132.199 Y56.543 E41.71284
G1 X132.486 Y56.763 E41.75624
G1 X132.706 Y57.050 E41.79963
G1 X132.846 Y57.389 E41.84365
G1 X132.900 Y57.791 E41.89232
G1 X132.900 Y159.208 E54.06236
G1 X132.846 Y159.610 E54.11103
G1 X132.706 Y159.949 E54.15504
G1 X132.486 Y160.236 E54.19844
G1 X132.199 Y160.456 E54.24183
G1 X131.860 Y160.596 E54.28585
G1 X131.458 Y160.650 E54.33452
G1 X125.967 Y160.650 E54.99344
G1 X125.305 Y160.724 E55.07337
G1 X125.196 Y160.737 E55.08655
G1 X124.436 Y161.003 E55.18317
G1 X123.844 Y161.374 E55.26701
G1 X123.751 Y161.434 E55.28029
G1 X123.182 Y162.003 E55.37685
G1 X122.814 Y162.589 E55.45989
G1 X122.754 Y162.684 E55.47337
G1 X122.486 Y163.448 E55.57053
G1 X122.405 Y164.174 E55.65819
G1 X122.400 Y166.217 E55.90335
G1 X122.336 Y166.782 E55.97158
G1 X122.159 Y167.289 E56.03602
G1 X121.873 Y167.744 E56.10051
G1 X121.495 Y168.122 E56.16466
G1 X121.036 Y168.409 E56.22962
G1 X120.533 Y168.585 E56.29357
G1 X120.007 Y168.645 E56.35710
G1 X119.371 Y168.650 E56.43342
G1 X110.033 Y168.650 E57.55398
G1 X109.467 Y168.586 E57.62234
G1 X108.960 Y168.409 E57.68678
G1 X108.505 Y168.123 E57.75127
G1 X108.127 Y167.745 E57.81542
G1 X107.840 Y167.286 E57.88038
G1 X107.664 Y166.783 E57.94433
G1 X107.605 Y166.260 E58.00748
G1 X107.600 Y164.215 E58.25289
G1 X107.525 Y163.555 E58.33260
G1 X107.512 Y163.446 E58.34577
G1 X107.246 Y162.686 E58.44239
G1 X106.875 Y162.094 E58.52623
G1 X106.815 Y162.001 E58.53951
G1 X106.246 Y161.432 E58.63607
G1 X105.660 Y161.064 E58.71911
G1 X105.565 Y161.004 E58.73259
G1 X104.801 Y160.736 E58.82975
G1 X104.076 Y160.655 E58.91729
G1 X98.846 Y160.650 E59.54489
G1 X98.533 Y160.649 E59.58245
G1 X98.139 Y160.596 E59.63016
G1 X97.800 Y160.456 E59.67417
G1 X97.513 Y160.236 E59.71756
G1 X97.293 Y159.949 E59.76096
G1 X97.153 Y159.610 E59.80497
G1 X97.100 Y159.210 E59.85339
G1 X97.100 Y57.790 E72.02379
G1 X97.153 Y57.389 E72.07233
G1 X97.293 Y57.050 E72.11634
G0 F9000 X99.704 Y59.313
G1 F1200 X99.233 Y59.978 E72.21413
G1 X98.964 Y60.602 E72.29567
G1 X98.921 Y60.703 E72.30884
G1 X98.782 Y61.381 E72.39190
G1 X98.764 Y61.491 E72.40527
G1 X98.765 Y62.219 E72.49263
G1 X98.921 Y62.993 E72.58738
G1 X99.233 Y63.722 E72.68254
G1 X99.625 Y64.285 E72.76486
G1 X99.690 Y64.374 E72.77808
G1 X100.197 Y64.854 E72.86186
G1 X100.282 Y64.923 E72.87500
G1 X100.891 Y65.302 E72.96108
G1 X101.632 Y65.579 E73.05601
G1 X102.307 Y65.683 E73.13796
G1 X102.417 Y65.698 E73.15129
G1 X103.113 Y65.662 E73.23492
G1 X103.224 Y65.649 E73.24833
G1 X103.891 Y65.475 E73.33105
G1 X104.633 Y65.122 E73.42965
G1 X105.258 Y64.638 E73.52451
G1 X105.705 Y64.116 E73.60698
G1 X105.775 Y64.031 E73.62019
G1 X106.129 Y63.390 E73.70806
G1 X106.370 Y62.638 E73.80282
G1 X106.452 Y61.849 E73.89801
G1 X106.372 Y61.062 E73.99294
G1 X106.161 Y60.393 E74.07712
G1 X106.121 Y60.290 E74.09038
G1 X105.770 Y59.663 E74.17660
G1 X105.259 Y59.062 E74.27127
G1 X104.720 Y58.644 E74.35312
G1 X104.639 Y58.578 E74.36566
G1 X103.967 Y58.250 E74.45539
G1 X103.207 Y58.046 E74.54982
G1 X102.417 Y58.001 E74.64477
G1 X101.633 Y58.120 E74.73993
G1 X100.992 Y58.357 E74.82194
G1 X100.887 Y58.398 E74.83547
G1 X100.263 Y58.789 E74.92383
G1 X99.704 Y59.313 E75.01578
G0 F9000 X101.635 Y58.122
G0 X103.967 Y58.252
G0 X105.769 Y59.664
G0 X123.582 Y61.381
G1 F1200 X123.564 Y61.491 E75.02915
G1 X123.565 Y62.219 E75.11651
G1 X123.721 Y62.993 E75.21126
G1 X124.033 Y63.722 E75.30641
G1 X124.425 Y64.285 E75.38874
G1 X124.490 Y64.374 E75.40196
G1 X124.997 Y64.854 E75.48574
G1 X125.082 Y64.923 E75.49888
G1 X125.691 Y65.302 E75.58496
G1 X126.432 Y65.579 E75.67989
G1 X127.107 Y65.683 E75.76184
G1 X127.217 Y65.698 E75.77517
G1 X127.913 Y65.662 E75.85880
G1 X128.024 Y65.649 E75.87221
G1 X128.691 Y65.475 E75.95493
G1 X129.433 Y65.122 E76.05353
G1 X130.058 Y64.638 E76.14839
G1 X130.505 Y64.116 E76.23086
G1 X130.575 Y64.031 E76.24407
G1 X130.929 Y63.390 E76.33194
G1 X131.170 Y62.638 E76.42670
G1 X131.253 Y61.850 E76.52179
G1 X131.183 Y61.166 E76.60429
G1 X131.170 Y61.056 E76.61759
G1 X130.961 Y60.393 E76.70101
G1 X130.921 Y60.290 E76.71426
G1 X130.570 Y59.663 E76.80049
G1 X130.059 Y59.062 E76.89516
G1 X129.520 Y58.644 E76.97701
G1 X129.439 Y58.578 E76.98955
G1 X128.767 Y58.250 E77.07928
G1 X128.007 Y58.046 E77.17371
G1 X127.217 Y58.001 E77.26866
G1 X126.433 Y58.120 E77.36382
G1 X125.792 Y58.357 E77.44583
G1 X125.687 Y58.398 E77.45935
G1 X125.063 Y58.789 E77.54772
G1 X124.504 Y59.313 E77.63966
G1 X124.033 Y59.978 E77.73745
G1 X123.764 Y60.602 E77.81899
G1 X123.721 Y60.703 E77.83217
G1 X123.582 Y61.381 E77.91522
G0 F9000 X127.217 Y109.801
G1 F1200 X126.433 Y109.920 E78.01038
G1 X125.792 Y110.157 E78.09238
G1 X125.687 Y110.198 E78.10591
G1 X125.063 Y110.589 E78.19428
G1 X124.504 Y111.113 E78.28622
G1 X124.033 Y111.778 E78.38401
G1 X123.764 Y112.402 E78.46555
G1 X123.721 Y112.503 E78.47872
G1 X123.582 Y113.181 E78.56178
G1 X123.564 Y113.291 E78.57515
G1 X123.565 Y114.019 E78.66251
G1 X123.721 Y114.793 E78.75726
G1 X124.033 Y115.522 E78.85241
G1 X124.425 Y116.085 E78.93474
G1 X124.490 Y116.174 E78.94796
G1 X124.997 Y116.654 E79.03174
G1 X125.082 Y116.723 E79.04488
G1 X125.691 Y117.102 E79.13096
G1 X126.432 Y117.379 E79.22589
G1 X127.107 Y117.483 E79.30784
G1 X127.217 Y117.498 E79.32116
G1 X127.913 Y117.462 E79.40480
G1 X128.024 Y117.449 E79.41821
G1 X128.691 Y117.275 E79.50093
G1 X129.433 Y116.922 E79.59953
G1 X130.058 Y116.438 E79.69439
G1 X130.505 Y115.916 E79.77686
G1 X130.575 Y115.831 E79.79007
G1 X130.929 Y115.190 E79.87794
G1 X131.170 Y114.438 E79.97270
G1 X131.253 Y113.651 E80.06767
G1 X131.183 Y112.968 E80.15005
G1 X131.170 Y112.857 E80.16347
G1 X130.961 Y112.193 E80.24700
G1 X130.921 Y112.090 E80.26026
G1 X130.570 Y111.463 E80.34649
G1 X130.059 Y110.862 E80.44115
G1 X129.520 Y110.444 E80.52300
G1 X129.439 Y110.378 E80.53554
G1 X128.767 Y110.050 E80.62527
G1 X128.007 Y109.846 E80.71970
G1 X127.217 Y109.801 E80.81465
G0 F9000 X106.383 Y112.973
G1 F1200 X106.372 Y112.863 E80.82792
G1 X106.161 Y112.193 E80.91221
G1 X106.121 Y112.090 E80.92547
G1 X105.770 Y111.463 E81.01170
G1 X105.259 Y110.862 E81.10636
G1 X104.720 Y110.444 E81.18822
G1 X104.639 Y110.378 E81.20075
G1 X103.967 Y110.050 E81.29049
G1 X103.207 Y109.846 E81.38491
G1 X102.417 Y109.801 E81.47987
G1 X101.633 Y109.920 E81.57503
G1 X100.992 Y110.157 E81.65704
G1 X100.887 Y110.198 E81.67056
G1 X100.263 Y110.589 E81.75893
G1 X99.704 Y111.113 E81.85087
G1 X99.233 Y111.778 E81.94866
G1 X98.964 Y112.402 E82.03020
G1 X98.921 Y112.503 E82.04337
G1 X98.782 Y113.181 E82.12643
G1 X98.764 Y113.291 E82.13980
G1 X98.765 Y114.019 E82.22716
G1 X98.921 Y114.793 E82.32191
G1 X99.233 Y115.522 E82.41706
G1 X99.625 Y116.085 E82.49939
G1 X99.690 Y116.174 E82.51261
G1 X100.197 Y116.654 E82.59639
G1 X100.282 Y116.723 E82.60953
G1 X100.891 Y117.102 E82.69561
G1 X101.632 Y117.379 E82.79054
G1 X102.307 Y117.483 E82.87249
G1 X102.417 Y117.498 E82.88582
G1 X103.113 Y117.462 E82.96945
G1 X103.224 Y117.449 E82.98286
G1 X103.891 Y117.275 E83.06558
G1 X104.633 Y116.922 E83.16418
G1 X105.258 Y116.438 E83.25904
G1 X105.705 Y115.916 E83.34151
G1 X105.775 Y115.831 E83.35472
G1 X106.129 Y115.190 E83.44259
G1 X106.370 Y114.438 E83.53735
G1 X106.452 Y113.650 E83.63242
G1 X106.383 Y112.973 E83.71408
G0 F9000 X106.567 Y143.601
G1 F1200 X105.783 Y143.720 E83.80924
G1 X105.140 Y143.958 E83.89152
G1 X105.036 Y143.999 E83.90493
G1 X104.414 Y144.388 E83.99297
G1 X103.855 Y144.913 E84.08499
G1 X103.383 Y145.578 E84.18285
G1 X103.114 Y146.202 E84.26439
G1 X103.071 Y146.303 E84.27756
G1 X102.932 Y146.981 E84.36062
G1 X102.914 Y147.091 E84.37399
G1 X102.915 Y147.819 E84.46135
G1 X103.071 Y148.593 E84.55610
G1 X103.383 Y149.322 E84.65126
G1 X103.775 Y149.885 E84.73358
G1 X103.840 Y149.974 E84.74680
G1 X104.347 Y150.454 E84.83058
G1 X104.432 Y150.523 E84.84372
G1 X105.041 Y150.902 E84.92980
G1 X105.782 Y151.179 E85.02473
G1 X106.457 Y151.283 E85.10668
G1 X106.567 Y151.298 E85.12001
G1 X107.263 Y151.262 E85.20364
G1 X107.374 Y151.249 E85.21705
G1 X108.041 Y151.075 E85.29977
G1 X108.783 Y150.722 E85.39837
G1 X109.408 Y150.238 E85.49323
G1 X109.855 Y149.716 E85.57570
G1 X109.925 Y149.631 E85.58891
G1 X110.279 Y148.990 E85.67678
G1 X110.520 Y148.238 E85.77154
G1 X110.603 Y147.450 E85.86663
G1 X110.533 Y146.766 E85.94913
G1 X110.520 Y146.656 E85.96243
G1 X110.311 Y145.993 E86.04585
G1 X110.271 Y145.890 E86.05911
G1 X109.920 Y145.263 E86.14533
G1 X109.409 Y144.662 E86.24000
G1 X108.870 Y144.244 E86.32185
G1 X108.789 Y144.178 E86.33439
G1 X108.117 Y143.850 E86.42412
G1 X107.357 Y143.646 E86.51855
G1 X106.567 Y143.601 E86.61350
G0 F9000 X119.614 Y146.202
G1 F1200 X119.571 Y146.303 E86.62667
G1 X119.432 Y146.981 E86.70973
G1 X119.414 Y147.091 E86.72310
G1 X119.415 Y147.819 E86.81046
G1 X119.571 Y148.593 E86.90521
G1 X119.883 Y149.322 E87.00036
G1 X120.275 Y149.885 E87.08269
G1 X120.340 Y149.974 E87.09591
G1 X120.847 Y150.454 E87.17969
G1 X120.932 Y150.523 E87.19283
G1 X121.541 Y150.902 E87.27891
G1 X122.282 Y151.179 E87.37384
G1 X122.957 Y151.283 E87.45579
G1 X123.067 Y151.298 E87.46912
G1 X123.763 Y151.262 E87.55275
G1 X123.874 Y151.249 E87.56616
G1 X124.541 Y151.075 E87.64888
G1 X125.283 Y150.722 E87.74748
G1 X125.908 Y150.238 E87.84234
G1 X126.355 Y149.716 E87.92481
G1 X126.425 Y149.631 E87.93802
G1 X126.779 Y148.990 E88.02589
G1 X127.020 Y148.238 E88.12065
G1 X127.103 Y147.450 E88.21574
G1 X127.033 Y146.766 E88.29824
G1 X127.020 Y146.656 E88.31154
G1 X126.811 Y145.993 E88.39496
G1 X126.771 Y145.890 E88.40821
G1 X126.420 Y145.263 E88.49444
G1 X125.909 Y144.662 E88.58911
G1 X125.370 Y144.244 E88.67096
G1 X125.289 Y144.178 E88.68350
G1 X124.617 Y143.850 E88.77323
G1 X123.857 Y143.646 E88.86766
G1 X123.067 Y143.601 E88.96261
G1 X122.283 Y143.720 E89.05777
G1 X121.640 Y143.958 E89.14004
G1 X121.536 Y143.999 E89.15346
G1 X120.914 Y144.388 E89.24149
G1 X120.355 Y144.913 E89.33352
G1 X119.883 Y145.578 E89.43138
G1 X119.614 Y146.202 E89.51292
G0 F9000 X115.673 Y162.733
G1 F1200 X115.000 Y162.645 E89.59437
G1 X114.326 Y162.733 E89.67593
G1 X113.698 Y162.993 E89.75750
G1 X113.157 Y163.407 E89.83924
G1 X112.743 Y163.948 E89.92099
G1 X112.483 Y164.576 E90.00256
G1 X112.395 Y165.250 E90.08412
G1 X112.483 Y165.923 E90.16557
G1 X112.743 Y166.552 E90.24724
G1 X113.157 Y167.092 E90.32890
G1 X113.698 Y167.506 E90.41064
G1 X114.325 Y167.765 E90.49205
G1 X115.000 Y167.855 E90.57377
G1 X115.674 Y167.765 E90.65537
G1 X116.302 Y167.506 E90.73688
G1 X116.842 Y167.092 E90.81854
G1 X117.256 Y166.552 E90.90019
G1 X117.515 Y165.924 E90.98171
G1 X117.605 Y165.250 E91.06330
G1 X117.515 Y164.575 E91.14502
G1 X117.256 Y163.948 E91.22643
G1 X116.842 Y163.407 E91.30817
G1 X116.302 Y162.993 E91.38983
G1 X115.673 Y162.733 E91.47150
G0 F9000 X115.569 Y163.123
;TYPE:WALL-OUTER
G1 F1200 X115.000 Y163.048 E91.54037
G1 X114.430 Y163.123 E91.60936
G1 X113.899 Y163.342 E91.67829
G1 X113.442 Y163.692 E91.74736
G1 X113.092 Y164.149 E91.81644
G1 X112.873 Y164.680 E91.88537
G1 X112.798 Y165.250 E91.95435
G1 X112.873 Y165.819 E92.02323
G1 X113.092 Y166.351 E92.09226
G1 X113.442 Y166.807 E92.16124
G1 X113.899 Y167.157 E92.23032
G1 X114.430 Y167.376 E92.29925
G1 X115.000 Y167.452 E92.36825
G1 X115.569 Y167.376 E92.43714
G1 X116.101 Y167.157 E92.50617
G1 X116.557 Y166.807 E92.57515
G1 X116.907 Y166.351 E92.64414
G1 X117.126 Y165.819 E92.71317
G1 X117.202 Y165.250 E92.78206
G1 X117.126 Y164.680 E92.85106
G1 X116.907 Y164.149 E92.91999
G1 X116.557 Y163.692 E92.98907
G1 X116.101 Y163.342 E93.05805
G1 X115.569 Y163.123 E93.12708
G0 F9000 X115.608 Y162.826
G0 X116.840 Y163.409
G0 X117.604 Y165.250
G0 X119.362 Y168.750
G0 X119.374 Y169.050
G1 F1200 X110.014 Y169.050 E94.25028
G1 X109.398 Y168.980 E94.32468
G1 X109.376 Y168.977 E94.32734
G1 X108.782 Y168.769 E94.40287
G1 X108.272 Y168.450 E94.47505
G1 X107.811 Y167.995 E94.55278
G1 X107.489 Y167.480 E94.62567
G1 X107.478 Y167.462 E94.62820
G1 X107.271 Y166.872 E94.70323
G1 X107.205 Y166.279 E94.77483
G1 X107.200 Y164.238 E95.01975
G1 X107.128 Y163.601 E95.09668
G1 X107.120 Y163.537 E95.10442
G1 X106.883 Y162.861 E95.19038
G1 X106.537 Y162.308 E95.26866
G1 X106.502 Y162.253 E95.27648
G1 X105.995 Y161.747 E95.36243
G1 X105.444 Y161.402 E95.44045
G1 X105.389 Y161.366 E95.44833
G1 X104.712 Y161.129 E95.53441
G1 X104.053 Y161.055 E95.61399
G1 X98.501 Y161.049 E96.28023
G1 X98.035 Y160.986 E96.33665
G1 X97.602 Y160.808 E96.39283
G1 X97.228 Y160.521 E96.44940
G1 X96.941 Y160.148 E96.50588
G1 X96.762 Y159.714 E96.56222
G1 X96.700 Y159.239 E96.61970
G1 X96.700 Y57.761 E108.79706
G1 X96.762 Y57.285 E108.85466
G1 X96.941 Y56.852 E108.91089
G1 X97.228 Y56.478 E108.96746
G1 X97.602 Y56.191 E109.02403
G1 X98.035 Y56.012 E109.08026
G1 X98.511 Y55.950 E109.13786
G1 X131.489 Y55.950 E113.09522
G1 X131.964 Y56.012 E113.15270
G1 X132.398 Y56.191 E113.20904
G1 X132.771 Y56.478 E113.26551
G1 X133.058 Y56.852 E113.32209
G1 X133.237 Y57.285 E113.37831
G1 X133.300 Y57.761 E113.43593
G1 X133.300 Y159.239 E125.61329
G1 X133.237 Y159.714 E125.67079
G1 X133.058 Y160.148 E125.72712
G1 X132.771 Y160.521 E125.78360
G1 X132.398 Y160.808 E125.84008
G1 X131.964 Y160.987 E125.89641
G1 X131.489 Y161.050 E125.95391
G1 X125.989 Y161.050 E126.61391
G1 X125.351 Y161.121 E126.69094
G1 X125.287 Y161.129 E126.69868
G1 X124.611 Y161.366 E126.78464
G1 X124.058 Y161.712 E126.86292
G1 X124.003 Y161.747 E126.87075
G1 X123.497 Y162.254 E126.95670
G1 X123.152 Y162.805 E127.03471
G1 X123.116 Y162.860 E127.04260
G1 X122.879 Y163.537 E127.12868
G1 X122.805 Y164.197 E127.20837
G1 X122.800 Y166.235 E127.45293
G1 X122.730 Y166.851 E127.52733
G1 X122.727 Y166.873 E127.52999
G1 X122.519 Y167.467 E127.60552
G1 X122.200 Y167.977 E127.67770
G1 X121.745 Y168.438 E127.75543
G1 X121.230 Y168.760 E127.82831
G1 X121.212 Y168.771 E127.83085
G1 X120.623 Y168.977 E127.90572
G1 X120.027 Y169.045 E127.97771
G1 X119.374 Y169.050 E128.05607
G0 F9000 X119.362 Y168.750
G0 X122.336 Y151.084
G0 X122.383 Y150.790
G1 F1200 X123.016 Y150.887 E128.13292
G1 X123.085 Y150.897 E128.14128
G1 X123.729 Y150.863 E128.21867
