;FLAVOR:UltiGCode
;TIME:5020
;MATERIAL:7207
;MATERIAL2:0
;NOZZLE_DIAMETER:0.400000
;NOZZLE_DIAMETER2:0.400000

;Layer count: 108
;LAYER:0
M107
G0 F9000 X93.154 Y60.922 Z0.300
;TYPE:SKIRT
G1 F1200 X136.554 Y60.922 E5.20800
G1 X136.554 Y100.765 E9.98916
G1 X136.486 Y101.528 E10.08108
G1 X136.252 Y102.402 E10.18966
G1 X135.868 Y103.228 E10.29896
G1 X135.346 Y103.973 E10.40813
G1 X134.705 Y104.614 E10.51691
G1 X133.960 Y105.136 E10.62607
G1 X133.134 Y105.520 E10.73538
G1 X132.260 Y105.754 E10.84395
G1 X131.497 Y105.822 E10.93587
G1 X126.054 Y105.822 E11.58903
G1 X126.054 Y113.822 E12.54903
G1 X103.654 Y113.822 E15.23703
G1 X103.654 Y105.822 E16.19703
G1 X98.212 Y105.822 E16.85007
G1 X97.447 Y105.754 E16.94223
G1 X96.571 Y105.520 E17.05104
G1 X95.748 Y105.136 E17.16002
G1 X95.004 Y104.615 E17.26901
G1 X94.361 Y103.973 E17.37805
G1 X93.839 Y103.228 E17.48721
G1 X93.455 Y102.402 E17.59652
G1 X93.220 Y101.524 E17.70559
G1 X93.154 Y100.760 E17.79761
G1 X93.154 Y60.922 E22.57817
G10
G0 F9000 X96.954 Y64.722
;TYPE:WALL-INNER
G11
G1 F1200 X132.754 Y64.722 E26.87417
G1 X132.754 Y100.591 E31.17845
G1 X132.730 Y100.864 E31.21134
G1 X132.666 Y101.103 E31.24103
G1 X132.565 Y101.320 E31.26975
G1 X132.423 Y101.522 E31.29938
G1 X132.254 Y101.691 E31.32806
G1 X132.052 Y101.833 E31.35769
G1 X131.835 Y101.934 E31.38641
G1 X131.596 Y101.998 E31.41610
G1 X131.323 Y102.022 E31.44899
G1 X122.254 Y102.022 E32.53727
G1 X122.254 Y110.022 E33.49727
G1 X107.454 Y110.022 E35.27327
G1 X107.454 Y102.022 E36.23327
G1 X98.385 Y102.022 E37.32155
G1 X98.111 Y101.998 E37.35455
G1 X97.875 Y101.935 E37.38387
G1 X97.655 Y101.832 E37.41302
G1 X97.452 Y101.690 E37.44274
G1 X97.284 Y101.522 E37.47125
G1 X97.142 Y101.320 E37.50088
G1 X97.041 Y101.103 E37.52961
G1 X96.977 Y100.864 E37.55930
G1 X96.954 Y64.722 E41.89634
G0 F9000 X105.336 Y85.186
G1 F1200 X104.847 Y85.395 E41.96015
G1 X104.352 Y85.696 E42.02967
G1 X103.912 Y86.069 E42.09889
G1 X103.557 Y86.465 E42.16271
G1 X103.237 Y86.948 E42.23224
G1 X102.996 Y87.474 E42.30167
G1 X102.845 Y87.985 E42.36561
G1 X102.761 Y88.556 E42.43487
G1 X102.766 Y89.133 E42.50411
G1 X102.845 Y89.660 E42.56806
G1 X103.012 Y90.216 E42.63772
G1 X103.264 Y90.735 E42.70695
G1 X103.557 Y91.178 E42.77069
G1 X103.945 Y91.609 E42.84028
G1 X104.394 Y91.974 E42.90972
G1 X104.849 Y92.249 E42.97351
G1 X105.382 Y92.474 E43.04294
G1 X105.942 Y92.613 E43.11218
G1 X106.472 Y92.670 E43.17615
G1 X107.048 Y92.647 E43.24532
G1 X107.572 Y92.549 E43.30929
G1 X108.120 Y92.363 E43.37874
G1 X108.632 Y92.095 E43.44808
G1 X109.065 Y91.784 E43.51206
G1 X109.481 Y91.382 E43.58148
G1 X109.830 Y90.922 E43.65077
G1 X110.090 Y90.456 E43.71480
G1 X110.295 Y89.919 E43.78378
G1 X110.411 Y89.398 E43.84783
G1 X110.456 Y88.821 E43.91728
G1 X110.411 Y88.244 E43.98673
G1 X110.294 Y87.725 E44.05057
G1 X110.090 Y87.186 E44.11973
G1 X109.805 Y86.681 E44.18931
G1 X109.478 Y86.260 E44.25328
G1 X109.064 Y85.858 E44.32253
G1 X108.591 Y85.522 E44.39215
G1 X108.074 Y85.264 E44.46149
G1 X107.570 Y85.093 E44.52536
G1 X107.003 Y84.991 E44.59449
G1 X106.469 Y84.973 E44.65860
G1 X105.894 Y85.036 E44.72802
G1 X105.336 Y85.186 E44.79735
G0 F9000 X107.570 Y85.095
G0 X119.345 Y87.985
G1 F1200 X119.261 Y88.556 E44.86661
G1 X119.266 Y89.133 E44.93585
G1 X119.345 Y89.660 E44.99980
G1 X119.512 Y90.216 E45.06947
G1 X119.764 Y90.735 E45.13870
G1 X120.057 Y91.178 E45.20243
G1 X120.445 Y91.609 E45.27202
G1 X120.894 Y91.974 E45.34146
G1 X121.349 Y92.249 E45.40526
G1 X121.882 Y92.474 E45.47468
G1 X122.442 Y92.613 E45.54392
G1 X122.972 Y92.670 E45.60789
G1 X123.548 Y92.647 E45.67707
G1 X124.072 Y92.549 E45.74104
G1 X124.620 Y92.363 E45.81048
G1 X125.132 Y92.095 E45.87983
G1 X125.565 Y91.784 E45.94380
G1 X125.981 Y91.382 E46.01322
G1 X126.330 Y90.922 E46.08251
G1 X126.590 Y90.456 E46.14655
G1 X126.795 Y89.919 E46.21552
G1 X126.911 Y89.398 E46.27957
G1 X126.956 Y88.821 E46.34902
G1 X126.911 Y88.244 E46.41847
G1 X126.794 Y87.725 E46.48232
G1 X126.590 Y87.186 E46.55147
G1 X126.305 Y86.681 E46.62106
G1 X125.978 Y86.260 E46.68503
G1 X125.564 Y85.858 E46.75427
G1 X125.091 Y85.522 E46.82390
G1 X124.574 Y85.264 E46.89323
G1 X124.070 Y85.093 E46.95710
G1 X123.503 Y84.991 E47.02623
G1 X122.969 Y84.973 E47.09035
G1 X122.394 Y85.036 E47.15976
G1 X121.836 Y85.186 E47.22910
G1 X121.347 Y85.395 E47.29291
G1 X120.852 Y85.696 E47.36243
G1 X120.412 Y86.069 E47.43165
G1 X120.057 Y86.465 E47.49547
G1 X119.737 Y86.948 E47.56500
G1 X119.496 Y87.474 E47.63443
G1 X119.345 Y87.985 E47.69837
G0 F9000 X115.467 Y104.092
G1 F1200 X114.978 Y104.022 E47.75765
G1 X114.483 Y104.045 E47.81711
G1 X114.002 Y104.162 E47.87652
G1 X113.553 Y104.367 E47.93575
G1 X113.150 Y104.654 E47.99512
G1 X112.807 Y105.012 E48.05461
G1 X112.540 Y105.429 E48.11403
G1 X112.357 Y105.888 E48.17333
G1 X112.263 Y106.374 E48.23273
G1 X112.263 Y106.869 E48.29213
G1 X112.357 Y107.355 E48.35153
G1 X112.540 Y107.814 E48.41082
G1 X112.807 Y108.231 E48.47024
G1 X113.150 Y108.589 E48.52974
G1 X113.553 Y108.876 E48.58911
G1 X114.002 Y109.081 E48.64834
G1 X114.483 Y109.198 E48.70774
G1 X114.978 Y109.221 E48.76721
G1 X115.467 Y109.151 E48.82648
G1 X115.934 Y108.989 E48.88580
G1 X116.364 Y108.742 E48.94531
G1 X116.737 Y108.418 E49.00459
G1 X117.043 Y108.029 E49.06399
G1 X117.270 Y107.589 E49.12340
G1 X117.409 Y107.115 E49.18267
G1 X117.457 Y106.622 E49.24211
G1 X117.409 Y106.128 E49.30167
G1 X117.270 Y105.654 E49.36095
G1 X117.043 Y105.214 E49.42036
G1 X116.737 Y104.825 E49.47975
G1 X116.364 Y104.501 E49.53904
G1 X115.934 Y104.254 E49.59855
G1 X115.467 Y104.092 E49.65786
G0 F9000 X115.372 Y104.483
;TYPE:WALL-OUTER
G1 F1200 X114.959 Y104.423 E49.70794
G1 X114.540 Y104.443 E49.75828
G1 X114.133 Y104.542 E49.80855
G1 X113.754 Y104.715 E49.85854
G1 X113.413 Y104.958 E49.90879
G1 X113.123 Y105.261 E49.95912
G1 X112.897 Y105.613 E50.00931
G1 X112.742 Y106.001 E50.05945
G1 X112.663 Y106.412 E50.10967
G1 X112.663 Y106.831 E50.15995
G1 X112.742 Y107.242 E50.21018
G1 X112.897 Y107.630 E50.26031
G1 X113.123 Y107.982 E50.31051
G1 X113.413 Y108.285 E50.36084
G1 X113.754 Y108.528 E50.41109
G1 X114.133 Y108.701 E50.46108
G1 X114.540 Y108.800 E50.51135
G1 X114.959 Y108.820 E50.56168
G1 X115.372 Y108.760 E50.61176
G1 X115.767 Y108.624 E50.66189
G1 X116.131 Y108.415 E50.71226
G1 X116.446 Y108.141 E50.76236
G1 X116.705 Y107.812 E50.81261
G1 X116.897 Y107.440 E50.86284
G1 X117.014 Y107.038 E50.91308
G1 X117.055 Y106.622 E50.96325
G1 X117.014 Y106.205 E51.01353
G1 X116.897 Y105.803 E51.06377
G1 X116.705 Y105.431 E51.11400
G1 X116.446 Y105.102 E51.16425
G1 X116.131 Y104.828 E51.21435
G1 X115.767 Y104.619 E51.26472
G1 X115.372 Y104.483 E51.31485
G0 F9000 X115.415 Y104.186
G0 X122.654 Y102.122
G0 X122.654 Y102.422
G1 F1200 X122.654 Y110.422 E52.27485
G1 X107.054 Y110.422 E54.14685
G1 X107.054 Y102.422 E55.10685
G1 X98.361 Y102.422 E56.15001
G1 X98.041 Y102.394 E56.18856
G1 X97.738 Y102.313 E56.22619
G1 X97.456 Y102.181 E56.26356
G1 X97.193 Y101.997 E56.30207
G1 X96.978 Y101.782 E56.33856
G1 X96.793 Y101.518 E56.37724
G1 X96.663 Y101.239 E56.41418
G1 X96.581 Y100.933 E56.45220
G1 X96.554 Y100.622 E56.48966
G1 X96.554 Y64.322 E60.84566
G1 X133.154 Y64.322 E65.23766
G1 X133.154 Y100.615 E69.59282
G1 X133.126 Y100.934 E69.63124
G1 X133.044 Y101.239 E69.66914
G1 X132.914 Y101.518 E69.70608
G1 X132.729 Y101.782 E69.74476
G1 X132.514 Y101.997 E69.78125
G1 X132.250 Y102.182 E69.81993
G1 X131.971 Y102.312 E69.85687
G1 X131.666 Y102.394 E69.89477
G1 X131.347 Y102.422 E69.93320
G1 X122.654 Y102.422 E70.97636
G0 F9000 X122.654 Y102.122
G0 X122.955 Y92.567
G0 X122.985 Y92.269
G1 F1200 X123.503 Y92.248 E71.03857
G1 X123.971 Y92.161 E71.09569
G1 X124.462 Y91.994 E71.15792
G1 X124.921 Y91.754 E71.22008
G1 X125.308 Y91.476 E71.27726
G1 X125.681 Y91.115 E71.33955
G1 X125.995 Y90.703 E71.40171
G1 X126.227 Y90.287 E71.45887
G1 X126.411 Y89.804 E71.52089
G1 X126.514 Y89.339 E71.57805
G1 X126.555 Y88.821 E71.64040
G1 X126.514 Y88.304 E71.70263
G1 X126.410 Y87.840 E71.75970
G1 X126.227 Y87.356 E71.82179
G1 X125.971 Y86.903 E71.88423
G1 X125.679 Y86.527 E71.94136
G1 X125.307 Y86.167 E72.00348
G1 X124.884 Y85.866 E72.06578
G1 X124.420 Y85.634 E72.12803
G1 X123.970 Y85.482 E72.18503
G1 X123.460 Y85.390 E72.24721
G1 X122.984 Y85.374 E72.30437
G1 X122.468 Y85.430 E72.36665
G1 X121.967 Y85.565 E72.42891
G1 X121.530 Y85.752 E72.48595
G1 X121.087 Y86.021 E72.54815
G1 X120.691 Y86.356 E72.61039
G1 X120.374 Y86.710 E72.66741
G1 X120.088 Y87.143 E72.72968
G1 X119.871 Y87.615 E72.79202
G1 X119.736 Y88.071 E72.84909
G1 X119.661 Y88.583 E72.91119
G1 X119.666 Y89.102 E72.97347
G1 X119.736 Y89.573 E73.03061
G1 X119.886 Y90.070 E73.09291
G1 X120.112 Y90.536 E73.15506
G1 X120.374 Y90.933 E73.21214
G1 X120.722 Y91.318 E73.27441
G1 X121.125 Y91.646 E73.33677
G1 X121.531 Y91.892 E73.39373
G1 X122.009 Y92.093 E73.45596
G1 X122.512 Y92.218 E73.51815
G1 X122.985 Y92.269 E73.57524
G0 F9000 X122.955 Y92.567
G0 X110.312 Y89.363
G0 X110.014 Y89.339
G1 F1200 X110.055 Y88.821 E73.63760
G1 X110.014 Y88.304 E73.69983
G1 X109.910 Y87.840 E73.75689
G1 X109.727 Y87.356 E73.81898
G1 X109.471 Y86.903 E73.88142
G1 X109.179 Y86.527 E73.93855
G1 X108.807 Y86.167 E74.00067
G1 X108.384 Y85.866 E74.06297
G1 X107.920 Y85.634 E74.12522
G1 X107.470 Y85.482 E74.18222
G1 X106.960 Y85.390 E74.24441
G1 X106.484 Y85.374 E74.30156
G1 X105.968 Y85.430 E74.36385
G1 X105.467 Y85.565 E74.42611
G1 X105.030 Y85.752 E74.48315
G1 X104.587 Y86.021 E74.54534
G1 X104.191 Y86.356 E74.60759
G1 X103.874 Y86.710 E74.66461
G1 X103.588 Y87.143 E74.72688
G1 X103.371 Y87.615 E74.78922
G1 X103.236 Y88.071 E74.84629
G1 X103.161 Y88.583 E74.90838
G1 X103.166 Y89.102 E74.97067
G1 X103.236 Y89.573 E75.02781
G1 X103.386 Y90.070 E75.09010
G1 X103.612 Y90.536 E75.15225
G1 X103.874 Y90.933 E75.20933
G1 X104.222 Y91.318 E75.27161
G1 X104.625 Y91.646 E75.33396
G1 X105.031 Y91.892 E75.39093
G1 X105.509 Y92.093 E75.45315
G1 X106.012 Y92.218 E75.51535
G1 X106.485 Y92.269 E75.57244
G1 X107.003 Y92.248 E75.63465
G1 X107.471 Y92.161 E75.69177
G1 X107.962 Y91.994 E75.75400
G1 X108.421 Y91.754 E75.81616
G1 X108.808 Y91.476 E75.87334
G1 X109.181 Y91.115 E75.93563
G1 X109.495 Y90.703 E75.99779
G1 X109.727 Y90.287 E76.05495
G1 X109.911 Y89.804 E76.11697
G1 X110.014 Y89.339 E76.17413
G0 F9000 X110.554 Y89.341
;TYPE:SKIN
G1 F1200 X123.095 Y101.882 E78.30240
G0 F9000 X123.660 Y101.882
G1 F1200 X110.595 Y88.816 E80.51969
G0 F9000 X110.542 Y88.197
G1 F1200 X124.226 Y101.882 E82.84203
G0 F9000 X124.792 Y101.882
G1 F1200 X110.326 Y87.416 E85.29699
G0 F9000 X110.460 Y89.813
G1 F1200 X122.529 Y101.882 E87.34517
G0 F9000 X122.113 Y102.031
G1 F1200 X110.322 Y90.240 E89.34617
G0 F9000 X110.150 Y90.634
G1 F1200 X122.113 Y102.597 E91.37636
G0 F9000 X122.113 Y103.163
G1 F1200 X109.948 Y90.997 E93.44091
G0 F9000 X109.703 Y91.318
G1 F1200 X122.113 Y103.729 E95.54704
G0 F9000 X122.113 Y104.294
G1 F1200 X109.436 Y91.617 E97.69840
G0 F9000 X109.149 Y91.895
G1 F1200 X122.113 Y104.860 E99.89855
G0 F9000 X122.113 Y105.426
G1 F1200 X108.820 Y92.132 E102.15453
G0 F9000 X108.463 Y92.341
G1 F1200 X122.113 Y105.991 E104.47101
G0 F9000 X122.113 Y106.557
G1 F1200 X108.079 Y92.523 E106.85266
G0 F9000 X107.658 Y92.667
G1 F1200 X122.113 Y107.123 E109.30584
G0 F9000 X122.113 Y107.688
G1 F1200 X107.188 Y92.763 E111.83870
G0 F9000 X106.661 Y92.802
G1 F1200 X122.113 Y108.254 E114.46099
G0 F9000 X122.113 Y108.820
G1 F1200 X106.059 Y92.766 E117.18544
G0 F9000 X105.333 Y92.605
G1 F1200 X122.113 Y109.385 E120.03310
G0 F9000 X122.043 Y109.880
G1 F1200 X103.976 Y91.814 E123.09909
G0 F9000 X103.618 Y91.455
G1 F1200 X97.106 Y84.944 E124.20413
G0 F9000 X97.106 Y85.509
G1 F1200 X115.581 Y103.985 E127.33952
G0 F9000 X114.914 Y103.883
G1 F1200 X97.106 Y86.076 E130.36156
G0 F9000 X97.106 Y86.641
G1 F1200 X114.388 Y103.923 E133.29441
G0 F9000 X113.936 Y104.037
G1 F1200 X97.107 Y87.208 E136.15039
G0 F9000 X97.108 Y87.774
G1 F1200 X113.548 Y104.214 E138.94035
G0 F9000 X113.207 Y104.439
G1 F1200 X97.108 Y88.340 E141.67244
G0 F9000 X97.109 Y88.906
G1 F1200 X112.907 Y104.704 E144.35345
G0 F9000 X112.643 Y105.006
G1 F1200 X97.109 Y89.472 E146.98965
G0 F9000 X97.109 Y90.038
G1 F1200 X112.422 Y105.351 E149.58836
G0 F9000 X112.259 Y105.754
G1 F1200 X97.109 Y90.604 E152.15940
G0 F9000 X97.110 Y91.170
G1 F1200 X112.151 Y106.211 E154.71194
G0 F9000 X112.122 Y106.748
G1 F1200 X107.592 Y102.218 E155.48070
G0 F9000 X107.255 Y101.881
G1 F1200 X97.110 Y91.736 E157.20237
G0 F9000 X97.111 Y92.302
G1 F1200 X106.689 Y101.881 E158.82789
G0 F9000 X106.123 Y101.881
G1 F1200 X97.111 Y92.868 E160.35737
G0 F9000 X97.111 Y93.434
G1 F1200 X105.558 Y101.881 E161.79087
G0 F9000 X104.992 Y101.881
G1 F1200 X97.111 Y94.000 E163.12832
G0 F9000 X97.112 Y94.567
G1 F1200 X104.426 Y101.881 E164.36955
G0 F9000 X103.861 Y101.881
G1 F1200 X97.112 Y95.132 E165.51489
G0 F9000 X97.113 Y95.699
G1 F1200 X103.295 Y101.881 E166.56401
G0 F9000 X102.729 Y101.881
G1 F1200 X97.113 Y96.264 E167.51716
G0 F9000 X97.114 Y96.831
G1 F1200 X102.164 Y101.881 E168.37417
G0 F9000 X101.598 Y101.881
G1 F1200 X97.114 Y97.396 E169.13522
G0 F9000 X97.114 Y97.963
G1 F1200 X101.032 Y101.881 E169.80013
G0 F9000 X100.467 Y101.881
G1 F1200 X97.114 Y98.528 E170.36915
G0 F9000 X97.115 Y99.095
G1 F1200 X99.901 Y101.881 E170.84195
G0 F9000 X99.335 Y101.881
G1 F1200 X97.115 Y99.661 E171.21870
G0 F9000 X102.830 Y90.102
G1 F1200 X97.105 Y84.377 E172.19026
G0 F9000 X97.105 Y83.811
G1 F1200 X102.657 Y89.364 E173.13255
G0 F9000 X102.622 Y88.763
G1 F1200 X97.104 Y83.245 E174.06899
G0 F9000 X97.104 Y82.679
G1 F1200 X102.665 Y88.240 E175.01272
G0 F9000 X102.762 Y87.771
G1 F1200 X97.104 Y82.113 E175.97291
G0 F9000 X97.104 Y81.547
G1 F1200 X102.901 Y87.345 E176.95678
G0 F9000 X103.079 Y86.957
G1 F1200 X97.103 Y80.981 E177.97094
G0 F9000 X97.103 Y80.415
G1 F1200 X103.294 Y86.607 E179.02168
G0 F9000 X103.533 Y86.280
G1 F1200 X97.102 Y79.849 E180.11305
G0 F9000 X97.102 Y79.283
G1 F1200 X103.801 Y85.982 E181.24991
G0 F9000 X104.105 Y85.720
G1 F1200 X97.102 Y78.717 E182.43836
G0 F9000 X97.102 Y78.151
G1 F1200 X104.432 Y85.482 E183.68239
G0 F9000 X104.784 Y85.268
G1 F1200 X97.101 Y77.585 E184.98623
G0 F9000 X97.101 Y77.019
G1 F1200 X105.180 Y85.098 E186.35729
G0 F9000 X105.613 Y84.965
G1 F1200 X97.100 Y76.453 E187.80191
G0 F9000 X97.100 Y75.887
G1 F1200 X106.087 Y84.874 E189.32705
G0 F9000 X106.616 Y84.837
G1 F1200 X97.099 Y75.321 E190.94205
G0 F9000 X97.099 Y74.755
G1 F1200 X107.235 Y84.890 E192.66210
G0 F9000 X108.002 Y85.092
G1 F1200 X97.099 Y74.188 E194.51249
G0 F9000 X97.099 Y73.623
G1 F1200 X125.358 Y101.882 E199.30820
G0 F9000 X125.923 Y101.882
G1 F1200 X97.098 Y73.056 E204.20005
G0 F9000 X97.097 Y72.490
G1 F1200 X126.489 Y101.882 E209.18804
G0 F9000 X127.055 Y101.882
G1 F1200 X97.097 Y71.924 E214.27208
G0 F9000 X97.097 Y71.358
G1 F1200 X127.620 Y101.882 E219.45209
G0 F9000 X128.186 Y101.882
G1 F1200 X97.097 Y70.792 E224.72815
G0 F9000 X97.096 Y70.226
G1 F1200 X128.752 Y101.882 E230.10035
G0 F9000 X129.317 Y101.882
G1 F1200 X97.096 Y69.660 E235.56852
G0 F9000 X97.095 Y69.094
G1 F1200 X129.883 Y101.882 E241.13283
G0 F9000 X130.449 Y101.882
G1 F1200 X97.095 Y68.528 E246.79319
G0 F9000 X97.094 Y67.962
G1 F1200 X119.371 Y90.238 E250.57364
G0 F9000 X119.174 Y89.475
G1 F1200 X97.094 Y67.396 E254.32066
G0 F9000 X97.094 Y66.830
G1 F1200 X119.122 Y88.858 E258.05893
G0 F9000 X119.152 Y88.322
G1 F1200 X97.094 Y66.264 E261.80230
G0 F9000 X97.093 Y65.697
G1 F1200 X119.240 Y87.844 E265.56077
G0 F9000 X119.371 Y87.410
G1 F1200 X97.093 Y65.132 E269.34147
G0 F9000 X97.389 Y64.862
G1 F1200 X119.549 Y87.022 E273.10215
G0 F9000 X119.756 Y86.663
G1 F1200 X97.954 Y64.862 E276.80199
G0 F9000 X98.520 Y64.862
G1 F1200 X119.988 Y86.330 E280.44523
G0 F9000 X120.256 Y86.032
G1 F1200 X99.086 Y64.862 E284.03789
G0 F9000 X99.651 Y64.862
G1 F1200 X120.553 Y85.764 E287.58508
G0 F9000 X120.872 Y85.517
G1 F1200 X100.217 Y64.862 E291.09035
G0 F9000 X100.783 Y64.862
G1 F1200 X121.224 Y85.303 E294.55930
G0 F9000 X121.614 Y85.127
G1 F1200 X101.348 Y64.862 E297.99847
G0 F9000 X101.914 Y64.862
G1 F1200 X122.038 Y84.986 E301.41363
G0 F9000 X122.502 Y84.883
