;FLAVOR:UltiGCode
;TIME:7336
;MATERIAL:11023
;MATERIAL2:0
;NOZZLE_DIAMETER:0.400000
;NOZZLE_DIAMETER2:0.400000

;Layer count: 108
;LAYER:0
M107
G0 F9000 X93.970 Y55.139 Z0.300
;TYPE:SKIRT
G1 F1200 X94.803 Y54.053 E0.16424
G1 X95.889 Y53.220 E0.32848
G1 X97.149 Y52.700 E0.49205
G1 X98.291 Y52.550 E0.63027
G1 X131.710 Y52.550 E4.64055
G1 X132.849 Y52.700 E4.77841
G1 X134.112 Y53.220 E4.94231
G1 X135.198 Y54.054 E5.10663
G1 X136.029 Y55.139 E5.27063
G1 X136.548 Y56.396 E5.43382
G1 X136.700 Y57.538 E5.57207
G1 X136.700 Y159.463 E17.80307
G1 X136.548 Y160.602 E17.94096
G1 X136.029 Y161.862 E18.10448
G1 X135.196 Y162.946 E18.26854
G1 X134.112 Y163.779 E18.43259
G1 X132.852 Y164.298 E18.59611
G1 X131.713 Y164.450 E18.73400
G1 X122.209 Y164.450 E19.87448
G1 X122.199 Y166.438 E20.11305
G1 X122.113 Y167.202 E20.20531
G1 X122.060 Y167.644 E20.25873
G1 X121.603 Y168.948 E20.42454
G1 X121.103 Y169.744 E20.53734
G1 X121.104 Y169.744 E20.53746
G1 X120.865 Y170.125 E20.59143
G1 X119.877 Y171.113 E20.75910
G1 X119.072 Y171.619 E20.87320
G1 X118.695 Y171.854 E20.92651
G1 X117.385 Y172.313 E21.09308
G1 X116.272 Y172.439 E21.22749
G1 X113.827 Y172.451 E21.52089
G1 X113.047 Y172.363 E21.61509
G1 X112.605 Y172.310 E21.66851
G1 X111.301 Y171.853 E21.83432
G1 X110.505 Y171.353 E21.94712
G1 X110.505 Y171.354 E21.94724
G1 X110.124 Y171.115 E22.00121
G1 X109.136 Y170.127 E22.16888
G1 X108.630 Y169.322 E22.28298
G1 X108.395 Y168.945 E22.33629
G1 X107.935 Y167.632 E22.50324
G1 X107.811 Y166.519 E22.63762
G1 X107.801 Y164.460 E22.88471
G1 X99.684 Y164.450 E23.85875
G1 X98.288 Y164.450 E24.02627
G1 X97.146 Y164.298 E24.16452
G1 X95.889 Y163.779 E24.32771
G1 X94.804 Y162.948 E24.49171
G1 X93.970 Y161.862 E24.65602
G1 X93.450 Y160.599 E24.81992
G1 X93.300 Y159.460 E24.95779
G1 X93.300 Y57.541 E37.18807
G1 X93.450 Y56.399 E37.32628
G1 X93.970 Y55.139 E37.48985
G10
G0 F9000 X97.293 Y57.050
;TYPE:WALL-INNER
G11
G1 F1200 X97.513 Y56.763 E37.53325
G1 X97.800 Y56.543 E37.57664
G1 X98.139 Y56.403 E37.62065
G1 X98.540 Y56.350 E37.66919
G1 X131.460 Y56.350 E41.61959
G1 X131.860 Y56.403 E41.66801
G1 X132.199 Y56.543 E41.71202
G1 X132.486 Y56.763 E41.75542
G1 X132.706 Y57.050 E41.79881
G1 X132.846 Y57.389 E41.84283
G1 X132.900 Y57.791 E41.89150
G1 X132.900 Y159.208 E54.06154
G1 X132.846 Y159.610 E54.11021
G1 X132.706 Y159.949 E54.15422
G1 X132.486 Y160.236 E54.19762
G1 X132.199 Y160.456 E54.24101
G1 X131.860 Y160.596 E54.28503
G1 X131.458 Y160.650 E54.33370
G1 X121.967 Y160.650 E55.47262
G1 X121.347 Y160.719 E55.54748
G1 X121.196 Y160.737 E55.56573
G1 X120.436 Y161.003 E55.66235
G1 X119.883 Y161.350 E55.74069
G1 X119.753 Y161.431 E55.75907
G1 X119.182 Y162.003 E55.85606
G1 X118.834 Y162.557 E55.93457
G1 X118.753 Y162.687 E55.95295
G1 X118.486 Y163.448 E56.04973
G1 X118.410 Y164.131 E56.13219
G1 X118.400 Y166.217 E56.38252
G1 X118.338 Y166.762 E56.44834
G1 X118.335 Y166.783 E56.45088
G1 X118.159 Y167.288 E56.51506
G1 X117.882 Y167.729 E56.57755
G1 X117.495 Y168.122 E56.64374
G1 X117.055 Y168.398 E56.70607
G1 X117.038 Y168.409 E56.70850
G1 X116.533 Y168.586 E56.77271
G1 X116.051 Y168.640 E56.83091
G1 X114.030 Y168.650 E57.07344
G1 X113.487 Y168.588 E57.13902
G1 X113.466 Y168.585 E57.14156
G1 X112.961 Y168.409 E57.20574
G1 X112.520 Y168.132 E57.26823
G1 X112.127 Y167.745 E57.33442
G1 X111.850 Y167.304 E57.39691
G1 X111.663 Y166.783 E57.46334
G1 X111.610 Y166.303 E57.52129
G1 X111.600 Y164.215 E57.77185
G1 X111.530 Y163.597 E57.84649
G1 X111.512 Y163.446 E57.86473
G1 X111.246 Y162.686 E57.96136
G1 X110.898 Y162.132 E58.03987
G1 X110.818 Y162.003 E58.05808
G1 X110.246 Y161.432 E58.15507
G1 X109.692 Y161.084 E58.23358
G1 X109.562 Y161.003 E58.25196
G1 X108.801 Y160.736 E58.34873
G1 X108.118 Y160.660 E58.43120
G1 X98.542 Y160.650 E59.58032
G1 X98.139 Y160.596 E59.62911
G1 X97.800 Y160.456 E59.67313
G1 X97.513 Y160.236 E59.71652
G1 X97.293 Y159.949 E59.75991
G1 X97.153 Y159.610 E59.80393
G1 X97.100 Y159.210 E59.85235
G1 X97.100 Y57.790 E72.02275
G1 X97.153 Y57.389 E72.07128
G1 X97.293 Y57.050 E72.11530
G0 F9000 X114.455 Y163.216
G1 F1200 X113.948 Y163.426 E72.18115
G1 X113.511 Y163.761 E72.24723
G1 X113.176 Y164.198 E72.31330
G1 X112.966 Y164.705 E72.37915
G1 X112.895 Y165.250 E72.44511
G1 X112.966 Y165.794 E72.51094
G1 X113.176 Y166.303 E72.57701
G1 X113.511 Y166.738 E72.64290
G1 X113.948 Y167.073 E72.70898
G1 X114.454 Y167.282 E72.77467
G1 X115.000 Y167.355 E72.84077
G1 X115.545 Y167.282 E72.90676
G1 X116.053 Y167.073 E72.97268
G1 X116.488 Y166.738 E73.03856
G1 X116.823 Y166.303 E73.10445
G1 X117.032 Y165.795 E73.17036
G1 X117.105 Y165.250 E73.23635
G1 X117.032 Y164.704 E73.30245
G1 X116.823 Y164.198 E73.36815
G1 X116.488 Y163.761 E73.43422
G1 X116.053 Y163.426 E73.50011
G1 X115.544 Y163.216 E73.56618
G1 X115.000 Y163.145 E73.63202
G1 X114.455 Y163.216 E73.69797
G0 F9000 X114.559 Y163.606
;TYPE:WALL-OUTER
G1 F1200 X114.149 Y163.775 E73.75118
G1 X113.796 Y164.046 E73.80459
G1 X113.525 Y164.399 E73.85799
G1 X113.356 Y164.809 E73.91121
G1 X113.298 Y165.250 E73.96458
G1 X113.356 Y165.690 E74.01784
G1 X113.525 Y166.101 E74.07117
G1 X113.796 Y166.453 E74.12447
G1 X114.149 Y166.724 E74.17788
G1 X114.559 Y166.893 E74.23109
G1 X115.000 Y166.952 E74.28448
G1 X115.440 Y166.893 E74.33776
G1 X115.851 Y166.724 E74.39108
G1 X116.203 Y166.453 E74.44439
G1 X116.474 Y166.101 E74.49770
G1 X116.643 Y165.690 E74.55103
G1 X116.702 Y165.250 E74.60430
G1 X116.643 Y164.809 E74.65769
G1 X116.474 Y164.399 E74.71091
G1 X116.203 Y164.046 E74.76431
G1 X115.851 Y163.775 E74.81762
G1 X115.440 Y163.606 E74.87095
G1 X115.000 Y163.548 E74.92420
G1 X114.559 Y163.606 E74.97758
G0 F9000 X114.522 Y163.308
G0 X111.419 Y163.502
G0 X111.120 Y163.537
G1 F1200 X110.883 Y162.861 E75.06354
G1 X110.502 Y162.254 E75.14954
G1 X109.995 Y161.747 E75.23558
G1 X109.388 Y161.366 E75.32158
G1 X108.712 Y161.129 E75.40754
G1 X108.095 Y161.060 E75.48204
G1 X98.511 Y161.050 E76.63212
G1 X98.035 Y160.987 E76.68974
G1 X97.602 Y160.808 E76.74597
G1 X97.228 Y160.521 E76.80254
G1 X96.941 Y160.148 E76.85901
G1 X96.762 Y159.714 E76.91535
G1 X96.700 Y159.239 E76.97283
G1 X96.700 Y57.761 E89.15019
G1 X96.762 Y57.285 E89.20779
G1 X96.941 Y56.852 E89.26402
G1 X97.228 Y56.478 E89.32059
G1 X97.602 Y56.191 E89.37716
G1 X98.035 Y56.012 E89.43339
G1 X98.511 Y55.950 E89.49099
G1 X131.489 Y55.950 E93.44835
G1 X131.964 Y56.012 E93.50583
G1 X132.398 Y56.191 E93.56217
G1 X132.771 Y56.478 E93.61865
G1 X133.058 Y56.852 E93.67522
G1 X133.237 Y57.285 E93.73144
G1 X133.300 Y57.761 E93.78906
G1 X133.300 Y159.239 E105.96642
G1 X133.237 Y159.714 E106.02392
G1 X133.058 Y160.148 E106.08025
G1 X132.771 Y160.521 E106.13673
G1 X132.398 Y160.808 E106.19321
G1 X131.964 Y160.987 E106.24954
G1 X131.489 Y161.050 E106.30704
G1 X121.989 Y161.050 E107.44704
G1 X121.393 Y161.116 E107.51900
G1 X121.287 Y161.129 E107.53181
G1 X120.611 Y161.366 E107.61778
G1 X120.004 Y161.747 E107.70378
G1 X119.497 Y162.254 E107.78982
G1 X119.116 Y162.861 E107.87582
G1 X118.879 Y163.537 E107.96178
G1 X118.810 Y164.154 E108.03628
G1 X118.800 Y166.236 E108.28612
G1 X118.735 Y166.809 E108.35532
G1 X118.727 Y166.873 E108.36306
G1 X118.519 Y167.467 E108.43859
G1 X118.188 Y167.995 E108.51337
G1 X117.745 Y168.438 E108.58855
G1 X117.217 Y168.769 E108.66333
G1 X116.622 Y168.978 E108.73900
G1 X116.070 Y169.040 E108.80566
G1 X114.013 Y169.050 E109.05250
G1 X113.440 Y168.985 E109.12170
G1 X113.376 Y168.977 E109.12944
G1 X112.782 Y168.769 E109.20497
G1 X112.254 Y168.438 E109.27975
G1 X111.811 Y167.995 E109.35493
G1 X111.480 Y167.467 E109.42971
G1 X111.271 Y166.872 E109.50539
G1 X111.210 Y166.320 E109.57203
G1 X111.200 Y164.238 E109.82187
G1 X111.133 Y163.643 E109.89372
G1 X111.120 Y163.537 E109.90654
G0 F9000 X111.645 Y163.405
;TYPE:SKIN
G1 F1200 X112.852 Y164.612 E110.11137
G0 F9000 X113.018 Y164.212
G1 F1200 X111.277 Y162.471 E110.40683
G0 F9000 X111.721 Y164.047
G1 F1200 X112.772 Y165.098 E110.58519
G0 F9000 X112.812 Y165.704
G1 F1200 X111.741 Y164.633 E110.76695
G0 F9000 X111.744 Y165.202
G1 F1200 X115.046 Y168.503 E111.32723
G0 F9000 X115.609 Y168.501
G1 F1200 X114.543 Y167.435 E111.50814
G0 F9000 X115.150 Y167.476
G1 F1200 X116.159 Y168.485 E111.67937
G0 F9000 X116.639 Y168.399
G1 F1200 X115.636 Y167.396 E111.84958
G0 F9000 X116.036 Y167.231
G1 F1200 X117.043 Y168.238 E112.02048
G0 F9000 X117.391 Y168.020
G1 F1200 X116.373 Y167.002 E112.19324
G0 F9000 X116.668 Y166.731
G1 F1200 X117.675 Y167.738 E112.36413
G0 F9000 X117.915 Y167.412
G1 F1200 X116.913 Y166.411 E112.53409
G0 F9000 X117.089 Y166.021
G1 F1200 X118.099 Y167.031 E112.70549
G0 F9000 X118.217 Y166.583
G1 F1200 X117.203 Y165.569 E112.87758
G0 F9000 X117.214 Y165.015
G1 F1200 X118.260 Y166.061 E113.05509
G0 F9000 X118.263 Y165.498
G1 F1200 X116.982 Y164.217 E113.27248
G0 F9000 X118.269 Y164.372
G1 F1200 X97.239 Y143.342 E116.84139
G0 F9000 X97.239 Y143.908
G1 F1200 X118.266 Y164.935 E120.40979
G0 F9000 X118.302 Y163.840
G1 F1200 X97.239 Y142.776 E123.98438
G0 F9000 X97.239 Y142.211
G1 F1200 X118.373 Y163.345 E127.57094
G0 F9000 X118.520 Y162.927
G1 F1200 X97.239 Y141.645 E131.18253
G0 F9000 X97.239 Y141.079
G1 F1200 X118.687 Y162.528 E134.82246
G0 F9000 X118.905 Y162.180
G1 F1200 X97.239 Y140.514 E138.49931
G0 F9000 X97.239 Y144.473
G1 F1200 X116.028 Y163.263 E141.68799
G0 F9000 X115.231 Y163.031
G1 F1200 X97.239 Y145.039 E144.74133
G0 F9000 X97.239 Y145.605
G1 F1200 X114.677 Y163.043 E147.70066
G0 F9000 X114.226 Y163.157
G1 F1200 X97.239 Y146.170 E150.58345
G0 F9000 X97.239 Y146.736
G1 F1200 X113.836 Y163.333 E153.40005
G0 F9000 X113.516 Y163.579
G1 F1200 X97.239 Y147.302 E156.16235
G0 F9000 X97.239 Y147.868
G1 F1200 X113.246 Y163.875 E158.87883
G0 F9000 X111.747 Y165.770
G1 F1200 X114.483 Y168.506 E159.34315
G0 F9000 X113.905 Y168.493
G1 F1200 X111.756 Y166.344 E159.70784
G0 F9000 X111.915 Y167.070
G1 F1200 X113.181 Y168.335 E159.92261
G0 F9000 X110.816 Y162.004
G0 X109.781 Y160.975
G1 F1200 X97.239 Y148.433 E162.05105
G0 F9000 X97.239 Y148.999
G1 F1200 X108.840 Y160.600 E164.01981
G0 F9000 X108.201 Y160.527
G1 F1200 X97.239 Y149.565 E165.88012
G0 F9000 X97.239 Y150.130
G1 F1200 X107.626 Y160.518 E167.64294
G0 F9000 X107.060 Y160.517
G1 F1200 X97.239 Y150.696 E169.30962
G0 F9000 X97.239 Y151.262
G1 F1200 X106.493 Y160.516 E170.88007
G0 F9000 X105.928 Y160.516
G1 F1200 X97.239 Y151.827 E172.35465
G0 F9000 X97.239 Y152.393
G1 F1200 X105.361 Y160.516 E173.73308
G0 F9000 X104.795 Y160.515
G1 F1200 X97.239 Y152.959 E175.01538
G0 F9000 X97.239 Y153.524
G1 F1200 X104.228 Y160.514 E176.20153
G0 F9000 X103.662 Y160.513
G1 F1200 X97.239 Y154.090 E177.29155
G0 F9000 X97.239 Y154.656
G1 F1200 X103.096 Y160.513 E178.28552
G0 F9000 X102.530 Y160.513
G1 F1200 X97.239 Y155.221 E179.18352
G0 F9000 X97.239 Y155.787
G1 F1200 X101.964 Y160.512 E179.98537
G0 F9000 X101.397 Y160.511
G1 F1200 X97.239 Y156.353 E180.69101
G0 F9000 X97.239 Y156.919
G1 F1200 X100.832 Y160.511 E181.30068
G0 F9000 X100.265 Y160.511
G1 F1200 X97.239 Y157.484 E181.81429
G0 F9000 X97.239 Y158.050
G1 F1200 X99.699 Y160.510 E182.23177
G0 F9000 X99.132 Y160.509
G1 F1200 X97.239 Y158.616 E182.55302
G0 F9000 X97.239 Y159.181
G1 F1200 X98.567 Y160.509 E182.77839
G0 F9000 X97.673 Y160.181
G1 F1200 X97.566 Y160.074 E182.79655
G0 F9000 X97.239 Y139.948
G1 F1200 X119.138 Y161.847 E186.51293
G0 F9000 X119.421 Y161.564
G1 F1200 X97.239 Y139.382 E190.27734
G0 F9000 X97.239 Y138.817
G1 F1200 X119.712 Y161.290 E194.09114
G0 F9000 X120.060 Y161.072
G1 F1200 X97.239 Y138.251 E197.96399
G0 F9000 X97.239 Y137.685
G1 F1200 X120.414 Y160.861 E201.89700
G0 F9000 X120.833 Y160.714
G1 F1200 X97.239 Y137.120 E205.90104
G0 F9000 X97.239 Y136.554
G1 F1200 X121.271 Y160.586 E209.97940
G0 F9000 X121.780 Y160.529
G1 F1200 X97.239 Y135.988 E214.14415
G0 F9000 X97.239 Y135.422
G1 F1200 X122.325 Y160.508 E218.40138
G0 F9000 X122.890 Y160.508
G1 F1200 X97.239 Y134.857 E222.75450
G0 F9000 X97.239 Y134.291
G1 F1200 X123.456 Y160.508 E227.20367
G0 F9000 X124.022 Y160.508
G1 F1200 X97.239 Y133.725 E231.74890
G0 F9000 X97.239 Y133.160
G1 F1200 X124.587 Y160.508 E236.39001
G0 F9000 X125.153 Y160.508
G1 F1200 X97.239 Y132.594 E241.12717
G0 F9000 X97.239 Y132.028
G1 F1200 X125.719 Y160.508 E245.96039
G0 F9000 X126.285 Y160.508
G1 F1200 X97.239 Y131.463 E250.88957
G0 F9000 X97.239 Y130.897
G1 F1200 X126.850 Y160.508 E255.91473
G0 F9000 X127.416 Y160.508
G1 F1200 X97.239 Y130.331 E261.03593
G0 F9000 X97.239 Y129.766
G1 F1200 X127.982 Y160.508 E266.25311
G0 F9000 X128.547 Y160.508
G1 F1200 X97.239 Y129.200 E271.56625
G0 F9000 X97.239 Y128.634
G1 F1200 X129.113 Y160.508 E276.97545
G0 F9000 X129.679 Y160.508
G1 F1200 X97.239 Y128.069 E282.48062
G0 F9000 X97.239 Y127.503
G1 F1200 X130.244 Y160.508 E288.08175
G0 F9000 X130.810 Y160.508
G1 F1200 X97.239 Y126.937 E293.77894
G0 F9000 X97.239 Y126.372
G1 F1200 X131.376 Y160.508 E299.57209
G0 F9000 X131.871 Y160.438
G1 F1200 X97.239 Y125.806 E305.44934
G0 F9000 X97.239 Y125.240
G1 F1200 X132.243 Y160.244 E311.38971
G0 F9000 X132.522 Y159.958
G1 F1200 X97.239 Y124.674 E317.37752
G0 F9000 X97.239 Y124.109
G1 F1200 X132.707 Y159.577 E323.39664
G0 F9000 X132.760 Y159.064
G1 F1200 X97.239 Y123.543 E329.42476
G0 F9000 X97.239 Y122.977
G1 F1200 X132.760 Y158.498 E335.45287
G0 F9000 X132.760 Y157.933
G1 F1200 X97.239 Y122.412 E341.48098
G0 F9000 X97.239 Y121.846
G1 F1200 X132.760 Y157.367 E347.50910
G0 F9000 X132.760 Y156.801
G1 F1200 X97.239 Y121.280 E353.53721
G0 F9000 X97.239 Y120.715
G1 F1200 X132.760 Y156.235 E359.56524
G0 F9000 X132.760 Y155.670
G1 F1200 X97.239 Y120.149 E365.59335
G0 F9000 X97.239 Y119.583
G1 F1200 X132.760 Y155.104 E371.62147
G0 F9000 X132.760 Y154.538
G1 F1200 X97.239 Y119.018 E377.64950
G0 F9000 X97.239 Y118.452
G1 F1200 X132.760 Y153.973 E383.67761
G0 F9000 X132.760 Y153.407
G1 F1200 X97.239 Y117.886 E389.70572
G0 F9000 X97.239 Y117.321
G1 F1200 X132.760 Y152.841 E395.73375
G0 F9000 X132.760 Y152.276
G1 F1200 X97.239 Y116.755 E401.76186
G0 F9000 X97.239 Y116.189
G1 F1200 X132.760 Y151.710 E407.78998
G0 F9000 X132.760 Y151.144
G1 F1200 X97.239 Y115.623 E413.81809
G0 F9000 X97.239 Y115.058
G1 F1200 X132.760 Y150.579 E419.84621
G0 F9000 X132.760 Y150.013
G1 F1200 X97.239 Y114.492 E425.87432
G0 F9000 X97.239 Y113.926
G1 F1200 X132.760 Y149.447 E431.90243
G0 F9000 X132.760 Y148.882
G1 F1200 X97.239 Y113.361 E437.93055
G0 F9000 X97.239 Y112.795
G1 F1200 X132.760 Y148.316 E443.95866
G0 F9000 X132.760 Y147.750
G1 F1200 X97.239 Y112.229 E449.98677
G0 F9000 X97.239 Y111.664
G1 F1200 X132.760 Y147.184 E456.01480
G0 F9000 X132.760 Y146.619
G1 F1200 X97.239 Y111.098 E462.04292
G0 F9000 X97.239 Y110.532
G1 F1200 X132.760 Y146.053 E468.07103
G0 F9000 X132.760 Y145.487
G1 F1200 X97.239 Y109.967 E474.09906
G0 F9000 X97.239 Y109.401
G1 F1200 X132.760 Y144.922 E480.12717
G0 F9000 X132.760 Y144.356
G1 F1200 X97.239 Y108.835 E486.15529
G0 F9000 X97.239 Y108.270
G1 F1200 X132.760 Y143.790 E492.18331
G0 F9000 X132.760 Y143.225
G1 F1200 X97.239 Y107.704 E498.21143
G0 F9000 X97.239 Y107.138
G1 F1200 X132.760 Y142.659 E504.23954
G0 F9000 X132.760 Y142.093
G1 F1200 X97.239 Y106.573 E510.26757
G0 F9000 X97.239 Y106.007
G1 F1200 X132.760 Y141.528 E516.29568
G0 F9000 X132.760 Y140.962
G1 F1200 X97.239 Y105.441 E522.32380
G0 F9000 X97.239 Y104.875
G1 F1200 X132.760 Y140.396 E528.35191
G0 F9000 X132.760 Y139.831
G1 F1200 X97.239 Y104.310 E534.38002
G0 F9000 X97.239 Y103.744
G1 F1200 X132.760 Y139.265 E540.40814
G0 F9000 X132.760 Y138.699
G1 F1200 X97.239 Y103.178 E546.43625
G0 F9000 X97.239 Y102.613
G1 F1200 X132.760 Y138.134 E552.46436
G0 F9000 X132.760 Y137.568
G1 F1200 X97.239 Y102.047 E558.49248
G0 F9000 X97.239 Y101.481
G1 F1200 X132.760 Y137.002 E564.52059
G0 F9000 X132.760 Y136.436
G1 F1200 X97.239 Y100.916 E570.54862
G0 F9000 X97.239 Y100.350
G1 F1200 X132.760 Y135.871 E576.57673
G0 F9000 X132.760 Y135.305
G1 F1200 X97.239 Y99.784 E582.60485
G0 F9000 X97.239 Y99.219
G1 F1200 X132.760 Y134.739 E588.63288
G0 F9000 X132.760 Y134.174
G1 F1200 X97.239 Y98.653 E594.66099
G0 F9000 X97.239 Y98.087
G1 F1200 X132.760 Y133.608 E600.68910
G0 F9000 X132.760 Y133.042
