;FLAVOR:UltiGCode
;TIME:5418
;MATERIAL:8642
;MATERIAL2:0
;NOZZLE_DIAMETER:0.400000
;NOZZLE_DIAMETER2:0.400000

;Layer count: 78
;LAYER:0
M107
G0 F9000 X93.970 Y59.139 Z0.300
;TYPE:SKIRT
G1 F1200 X94.803 Y58.053 E0.16424
G1 X95.889 Y57.220 E0.32848
G1 X97.149 Y56.700 E0.49205
G1 X98.291 Y56.550 E0.63027
G1 X131.710 Y56.550 E4.64055
G1 X132.849 Y56.700 E4.77841
G1 X134.095 Y57.213 E4.94011
G1 X134.447 Y57.477 E4.99291
G1 X135.198 Y58.054 E5.10656
G1 X136.029 Y59.139 E5.27056
G1 X136.548 Y60.396 E5.43375
G1 X136.700 Y61.538 E5.57200
G1 X136.700 Y163.463 E17.80300
G1 X136.548 Y164.602 E17.94089
G1 X136.036 Y165.845 E18.10221
G1 X135.772 Y166.197 E18.15501
G1 X135.184 Y166.961 E18.27069
G1 X134.822 Y167.233 E18.32503
G1 X134.113 Y167.779 E18.43242
G1 X132.852 Y168.298 E18.59605
G1 X131.713 Y168.450 E18.73394
G1 X98.288 Y168.450 E22.74494
G1 X97.146 Y168.298 E22.88319
G1 X95.889 Y167.779 E23.04638
G1 X94.789 Y166.936 E23.21269
G1 X94.516 Y166.572 E23.26729
G1 X93.970 Y165.863 E23.37467
G1 X93.450 Y164.599 E23.53869
G1 X93.300 Y163.460 E23.67655
G1 X93.300 Y61.541 E35.90683
G1 X93.450 Y60.399 E36.04504
G1 X93.970 Y59.139 E36.20861
G10
G0 F9000 X97.293 Y61.050
;TYPE:WALL-INNER
G11
G1 F1200 X97.513 Y60.763 E36.25201
G1 X97.800 Y60.543 E36.29540
G1 X98.139 Y60.403 E36.33941
G1 X98.540 Y60.350 E36.38795
G1 X131.460 Y60.350 E40.33835
G1 X131.860 Y60.403 E40.38677
G1 X132.198 Y60.542 E40.43063
G1 X132.487 Y60.764 E40.47436
G1 X132.706 Y61.050 E40.51759
G1 X132.846 Y61.389 E40.56160
G1 X132.900 Y61.791 E40.61027
G1 X132.900 Y163.208 E52.78031
G1 X132.846 Y163.610 E52.82898
G1 X132.707 Y163.948 E52.87284
G1 X132.486 Y164.236 E52.91640
G1 X132.197 Y164.457 E52.96006
G1 X131.860 Y164.596 E53.00381
G1 X131.458 Y164.650 E53.05248
G1 X98.541 Y164.650 E57.00252
G1 X98.139 Y164.596 E57.05119
G1 X97.800 Y164.456 E57.09521
G1 X97.514 Y164.237 E57.13843
G1 X97.292 Y163.947 E57.18226
G1 X97.153 Y163.610 E57.22600
G1 X97.100 Y163.210 E57.27442
G1 X97.100 Y61.790 E69.44482
G1 X97.153 Y61.389 E69.49336
G1 X97.293 Y61.050 E69.53737
G0 F9000 X112.857 Y132.168
G1 F1200 X111.648 Y132.493 E69.68760
G1 X110.484 Y132.959 E69.83806
G1 X109.384 Y133.559 E69.98842
G1 X108.363 Y134.284 E70.13869
G1 X107.440 Y135.119 E70.28805
G1 X106.608 Y136.073 E70.43995
G1 X105.903 Y137.107 E70.59012
G1 X105.324 Y138.219 E70.74057
G1 X104.881 Y139.392 E70.89103
G1 X104.579 Y140.608 E71.04138
G1 X104.423 Y141.851 E71.19171
G1 X104.414 Y143.105 E71.34220
G1 X104.554 Y144.350 E71.49254
G1 X104.839 Y145.571 E71.64300
G1 X105.267 Y146.749 E71.79340
G1 X105.824 Y147.854 E71.94189
G1 X105.917 Y148.013 E71.96400
G1 X106.525 Y148.916 E72.09463
G1 X107.335 Y149.870 E72.24481
G1 X108.309 Y150.772 E72.40411
G1 X109.268 Y151.464 E72.54602
G1 X110.357 Y152.076 E72.69592
G1 X111.511 Y152.557 E72.84595
G1 X112.715 Y152.898 E72.99611
G1 X113.950 Y153.094 E73.14617
G1 X115.173 Y153.143 E73.29305
G1 X115.355 Y153.144 E73.31489
G1 X116.447 Y153.047 E73.44644
G1 X117.671 Y152.804 E73.59619
G1 X118.835 Y152.425 E73.74309
G1 X119.006 Y152.364 E73.76487
G1 X119.972 Y151.904 E73.89327
G1 X120.133 Y151.825 E73.91479
G1 X121.040 Y151.252 E74.04353
G1 X121.189 Y151.155 E74.06486
G1 X122.023 Y150.480 E74.19361
G1 X122.171 Y150.355 E74.21686
G1 X123.009 Y149.494 E74.36104
G1 X123.687 Y148.611 E74.49463
G1 X123.796 Y148.466 E74.51640
G1 X124.340 Y147.545 E74.64476
G1 X124.432 Y147.388 E74.66660
G1 X124.864 Y146.407 E74.79522
G1 X124.937 Y146.242 E74.81688
G1 X125.303 Y145.041 E74.96754
G1 X125.525 Y143.807 E75.11800
G1 X125.600 Y142.558 E75.26815
G1 X125.527 Y141.306 E75.41864
G1 X125.307 Y140.072 E75.56906
G1 X124.943 Y138.871 E75.71965
G1 X124.438 Y137.723 E75.87015
G1 X123.803 Y136.643 E76.02049
G1 X123.044 Y135.645 E76.17095
G1 X122.173 Y134.744 E76.32133
G1 X121.201 Y133.952 E76.47179
G1 X120.143 Y133.280 E76.62219
G1 X119.013 Y132.739 E76.77253
G1 X117.833 Y132.335 E76.92220
G1 X116.600 Y132.071 E77.07352
G1 X115.362 Y131.956 E77.22272
G1 X115.179 Y131.955 E77.24468
G1 X114.106 Y131.987 E77.37349
G1 X112.857 Y132.168 E77.52494
G0 F9000 X112.939 Y132.560
;TYPE:WALL-OUTER
G1 F1200 X111.775 Y132.873 E77.66958
G1 X110.655 Y133.322 E77.81438
G1 X109.596 Y133.899 E77.95910
G1 X108.614 Y134.597 E78.10367
G1 X107.721 Y135.404 E78.24811
G1 X106.926 Y136.317 E78.39338
G1 X106.247 Y137.313 E78.53803
G1 X105.690 Y138.382 E78.68268
G1 X105.264 Y139.511 E78.82749
G1 X104.973 Y140.681 E78.97216
G1 X104.823 Y141.878 E79.11693
G1 X104.814 Y143.084 E79.26165
G1 X104.949 Y144.282 E79.40632
G1 X105.223 Y145.457 E79.55110
G1 X105.635 Y146.590 E79.69577
G1 X106.175 Y147.663 E79.83992
G1 X106.256 Y147.800 E79.85902
G1 X106.844 Y148.674 E79.98542
G1 X107.624 Y149.593 E80.13007
G1 X108.563 Y150.462 E80.28360
G1 X109.484 Y151.127 E80.41992
G1 X110.532 Y151.716 E80.56418
G1 X111.643 Y152.178 E80.70857
G1 X112.801 Y152.507 E80.85303
G1 X113.989 Y152.695 E80.99736
G1 X115.182 Y152.743 E81.14064
G1 X115.338 Y152.744 E81.15936
G1 X116.390 Y152.650 E81.28610
G1 X117.570 Y152.416 E81.43046
G1 X118.706 Y152.046 E81.57383
G1 X119.798 Y151.544 E81.71805
G1 X119.937 Y151.476 E81.73662
G1 X120.824 Y150.915 E81.86256
G1 X121.768 Y150.171 E82.00679
G1 X121.898 Y150.062 E82.02715
G1 X122.706 Y149.232 E82.16615
G1 X123.368 Y148.369 E82.29667
G1 X123.463 Y148.243 E82.31561
G1 X124.075 Y147.205 E82.46021
G1 X124.562 Y146.102 E82.60489
G1 X124.914 Y144.947 E82.74979
G1 X125.127 Y143.760 E82.89450
G1 X125.199 Y142.557 E83.03912
G1 X125.129 Y141.353 E83.18385
G1 X124.918 Y140.165 E83.32864
G1 X124.567 Y139.010 E83.47349
G1 X124.081 Y137.906 E83.61824
G1 X123.470 Y136.866 E83.76299
G1 X122.740 Y135.906 E83.90771
G1 X121.902 Y135.039 E84.05241
G1 X120.966 Y134.277 E84.19724
G1 X119.948 Y133.631 E84.34192
G1 X118.861 Y133.110 E84.48657
G1 X117.722 Y132.720 E84.63104
G1 X116.540 Y132.467 E84.77609
G1 X115.342 Y132.356 E84.92047
G1 X115.184 Y132.355 E84.93943
G1 X114.135 Y132.386 E85.06536
G1 X112.939 Y132.560 E85.21039
G0 F9000 X112.894 Y132.264
G0 X110.484 Y132.960
G0 X107.316 Y135.253
G0 X105.325 Y138.219
G0 X104.424 Y141.852
G0 X104.840 Y145.570
G0 X97.000 Y163.211
G0 X96.700 Y163.239
G1 F1200 X96.700 Y61.761 E97.38775
G1 X96.762 Y61.285 E97.44536
G1 X96.941 Y60.852 E97.50158
G1 X97.228 Y60.478 E97.55815
G1 X97.602 Y60.191 E97.61473
G1 X98.035 Y60.012 E97.67095
G1 X98.511 Y59.950 E97.72855
G1 X131.489 Y59.950 E101.68591
G1 X131.964 Y60.012 E101.74340
G1 X132.398 Y60.191 E101.79973
G1 X132.771 Y60.478 E101.85621
G1 X133.058 Y60.852 E101.91278
G1 X133.237 Y61.285 E101.96900
G1 X133.300 Y61.761 E102.02662
G1 X133.300 Y163.239 E114.20398
G1 X133.237 Y163.714 E114.26148
G1 X133.058 Y164.148 E114.31782
G1 X132.770 Y164.522 E114.37446
G1 X132.398 Y164.808 E114.43077
G1 X131.964 Y164.987 E114.48711
G1 X131.489 Y165.050 E114.54460
G1 X98.511 Y165.050 E118.50196
G1 X98.035 Y164.987 E118.55958
G1 X97.602 Y164.808 E118.61581
G1 X97.227 Y164.520 E118.67255
G1 X96.941 Y164.148 E118.72886
G1 X96.762 Y163.714 E118.78519
G1 X96.700 Y163.239 E118.84267
G0 F9000 X97.239 Y163.142
;TYPE:SKIN
G1 F1200 X98.606 Y164.509 E119.07466
G0 F9000 X99.172 Y164.509
G1 F1200 X97.239 Y162.576 E119.40270
G0 F9000 X97.239 Y162.010
G1 F1200 X99.738 Y164.509 E119.82680
G0 F9000 X100.303 Y164.509
G1 F1200 X97.239 Y161.445 E120.34678
G0 F9000 X97.239 Y160.879
G1 F1200 X100.869 Y164.509 E120.96281
G0 F9000 X101.435 Y164.509
G1 F1200 X97.239 Y160.313 E121.67489
G0 F9000 X97.436 Y163.904
G1 F1200 X97.841 Y164.309 E121.74362
G0 F9000 X102.000 Y164.509
G1 F1200 X97.239 Y159.748 E122.55159
G0 F9000 X97.239 Y159.182
G1 F1200 X102.566 Y164.509 E123.45561
G0 F9000 X103.132 Y164.509
G1 F1200 X97.239 Y158.616 E124.45569
G0 F9000 X97.239 Y158.051
G1 F1200 X103.697 Y164.509 E125.55165
G0 F9000 X104.263 Y164.509
G1 F1200 X97.239 Y157.485 E126.74366
G0 F9000 X97.239 Y156.919
G1 F1200 X104.829 Y164.509 E128.03173
G0 F9000 X105.394 Y164.509
G1 F1200 X97.239 Y156.354 E129.41567
G0 F9000 X97.239 Y155.788
G1 F1200 X105.960 Y164.509 E130.89568
G0 F9000 X106.526 Y164.509
G1 F1200 X97.239 Y155.222 E132.47173
G0 F9000 X97.239 Y154.656
G1 F1200 X107.092 Y164.509 E134.14384
G0 F9000 X107.657 Y164.509
G1 F1200 X97.239 Y154.091 E135.91184
G0 F9000 X97.239 Y153.525
G1 F1200 X108.223 Y164.509 E137.77588
G0 F9000 X108.789 Y164.509
G1 F1200 X97.239 Y152.959 E139.73598
G0 F9000 X97.239 Y152.394
G1 F1200 X109.354 Y164.509 E141.79197
G0 F9000 X109.920 Y164.509
G1 F1200 X97.239 Y151.828 E143.94400
G0 F9000 X97.239 Y151.262
G1 F1200 X110.486 Y164.509 E146.19209
G0 F9000 X111.051 Y164.509
G1 F1200 X97.239 Y150.697 E148.53607
G0 F9000 X97.239 Y150.131
G1 F1200 X111.617 Y164.509 E150.97610
G0 F9000 X112.183 Y164.509
G1 F1200 X97.239 Y149.565 E153.51218
G0 F9000 X97.239 Y149.000
G1 F1200 X112.748 Y164.509 E156.14414
G0 F9000 X113.314 Y164.509
G1 F1200 X97.239 Y148.434 E158.87216
G0 F9000 X97.239 Y147.868
G1 F1200 X113.880 Y164.509 E161.69623
G0 F9000 X114.445 Y164.509
G1 F1200 X97.239 Y147.303 E164.61619
G0 F9000 X97.239 Y146.737
G1 F1200 X115.011 Y164.509 E167.63219
G0 F9000 X115.577 Y164.509
G1 F1200 X97.239 Y146.171 E170.74426
G0 F9000 X97.239 Y145.606
G1 F1200 X116.142 Y164.509 E173.95220
G0 F9000 X116.708 Y164.509
G1 F1200 X97.239 Y145.040 E177.25620
G0 F9000 X97.239 Y144.474
G1 F1200 X117.274 Y164.509 E180.65625
G0 F9000 X117.840 Y164.509
G1 F1200 X97.239 Y143.908 E184.15236
G0 F9000 X97.239 Y143.343
G1 F1200 X118.405 Y164.509 E187.74435
G0 F9000 X118.971 Y164.509
G1 F1200 X97.239 Y142.777 E191.43239
G0 F9000 X97.239 Y142.211
G1 F1200 X119.537 Y164.509 E195.21649
G0 F9000 X120.102 Y164.509
G1 F1200 X97.239 Y141.646 E199.09647
G0 F9000 X97.239 Y141.080
G1 F1200 X120.668 Y164.509 E203.07250
G0 F9000 X121.234 Y164.509
G1 F1200 X97.239 Y140.514 E207.14459
G0 F9000 X97.239 Y139.949
G1 F1200 X107.107 Y149.816 E208.81916
G0 F9000 X107.544 Y150.253
G1 F1200 X121.799 Y164.509 E211.23839
G0 F9000 X122.365 Y164.509
G1 F1200 X109.753 Y151.897 E213.37872
G0 F9000 X110.858 Y152.435
G1 F1200 X122.931 Y164.509 E215.42766
G0 F9000 X123.496 Y164.509
G1 F1200 X111.759 Y152.771 E217.41958
G0 F9000 X112.550 Y152.996
G1 F1200 X124.062 Y164.509 E219.37332
G0 F9000 X124.628 Y164.509
G1 F1200 X113.242 Y153.123 E221.30559
G0 F9000 X113.914 Y153.229
G1 F1200 X125.193 Y164.509 E223.21978
G0 F9000 X125.759 Y164.509
G1 F1200 X114.506 Y153.255 E225.12956
G0 F9000 X115.095 Y153.278
G1 F1200 X126.325 Y164.509 E227.03544
G0 F9000 X126.891 Y164.509
G1 F1200 X115.640 Y153.258 E228.94480
G0 F9000 X116.159 Y153.212
G1 F1200 X127.456 Y164.509 E230.86197
G0 F9000 X128.022 Y164.509
G1 F1200 X116.659 Y153.146 E232.79033
G0 F9000 X117.132 Y153.053
G1 F1200 X128.588 Y164.509 E234.73448
G0 F9000 X129.153 Y164.509
G1 F1200 X117.604 Y152.959 E236.69449
G0 F9000 X118.040 Y152.830
G1 F1200 X129.719 Y164.509 E238.67649
G0 F9000 X130.285 Y164.509
G1 F1200 X118.467 Y152.691 E240.68207
G0 F9000 X118.893 Y152.551
G1 F1200 X130.850 Y164.509 E242.71132
G0 F9000 X131.416 Y164.509
G1 F1200 X119.290 Y152.382 E244.76926
G0 F9000 X119.672 Y152.199
G1 F1200 X131.900 Y164.427 E246.84442
G0 F9000 X132.266 Y164.227
G1 F1200 X120.055 Y152.016 E248.91669
G0 F9000 X120.415 Y151.810
G1 F1200 X132.540 Y163.935 E250.97437
G0 F9000 X132.713 Y163.543
G1 F1200 X120.761 Y151.591 E253.00269
G0 F9000 X121.107 Y151.371
G1 F1200 X132.760 Y163.024 E254.98027
G0 F9000 X132.760 Y162.458
G1 F1200 X121.436 Y151.134 E256.90202
G0 F9000 X121.748 Y150.881
G1 F1200 X132.760 Y161.892 E258.77073
G0 F9000 X132.760 Y161.327
G1 F1200 X122.061 Y150.628 E260.58642
G0 F9000 X122.359 Y150.360
G1 F1200 X132.760 Y160.761 E262.35152
G0 F9000 X132.760 Y160.195
G1 F1200 X122.637 Y150.073 E264.06937
G0 F9000 X122.917 Y149.787
G1 F1200 X132.760 Y159.630 E265.73978
G0 F9000 X132.760 Y159.064
G1 F1200 X123.185 Y149.490 E267.36463
G0 F9000 X123.431 Y149.169
G1 F1200 X132.760 Y158.498 E268.94781
G0 F9000 X132.760 Y157.933
G1 F1200 X123.676 Y148.849 E270.48942
G0 F9000 X123.920 Y148.527
G1 F1200 X132.760 Y157.367 E271.98962
G0 F9000 X132.760 Y156.801
G1 F1200 X124.130 Y148.172 E273.45409
G0 F9000 X124.340 Y147.816
G1 F1200 X132.760 Y156.235 E274.88293
G0 F9000 X132.760 Y155.670
G1 F1200 X124.549 Y147.460 E276.27629
G0 F9000 X124.724 Y147.069
G1 F1200 X132.760 Y155.104 E277.63996
G0 F9000 X132.760 Y154.538
G1 F1200 X124.897 Y146.676 E278.97427
G0 F9000 X125.070 Y146.284
G1 F1200 X132.760 Y153.973 E280.27923
G0 F9000 X132.760 Y153.407
G1 F1200 X125.202 Y145.849 E281.56186
G0 F9000 X125.334 Y145.416
G1 F1200 X132.760 Y152.841 E282.82201
G0 F9000 X132.760 Y152.276
G1 F1200 X125.457 Y144.973 E284.06137
G0 F9000 X125.543 Y144.493
G1 F1200 X132.760 Y151.710 E285.28614
G0 F9000 X132.760 Y151.144
G1 F1200 X125.629 Y144.014 E286.49622
G0 F9000 X125.683 Y143.502
G1 F1200 X132.760 Y150.579 E287.69723
G0 F9000 X132.760 Y150.013
G1 F1200 X125.715 Y142.968 E288.89280
G0 F9000 X125.731 Y142.419
G1 F1200 X132.760 Y149.447 E290.08558
G0 F9000 X132.760 Y148.882
G1 F1200 X125.696 Y141.818 E291.28438
G0 F9000 X125.651 Y141.207
G1 F1200 X132.760 Y148.316 E292.49082
G0 F9000 X132.760 Y147.750
G1 F1200 X125.529 Y140.519 E293.71796
G0 F9000 X125.370 Y139.795
G1 F1200 X132.760 Y147.184 E294.97200
G0 F9000 X132.760 Y146.619
G1 F1200 X125.123 Y138.983 E296.26796
G0 F9000 X124.718 Y138.011
G1 F1200 X132.760 Y146.053 E297.63273
G0 F9000 X132.760 Y145.487
G1 F1200 X124.037 Y136.765 E299.11299
G0 F9000 X120.809 Y133.537
G1 F1200 X97.239 Y109.967 E303.11295
G0 F9000 X97.239 Y110.532
G1 F1200 X119.543 Y132.837 E306.89815
G0 F9000 X118.583 Y132.443
G1 F1200 X97.239 Y111.098 E310.52043
G0 F9000 X97.239 Y111.664
G1 F1200 X117.747 Y132.172 E314.00075
G0 F9000 X117.028 Y132.018
G1 F1200 X97.239 Y112.229 E317.35906
G0 F9000 X97.239 Y112.796
G1 F1200 X116.350 Y131.906 E320.60222
G0 F9000 X115.726 Y131.848
G1 F1200 X97.239 Y113.361 E323.73956
G0 F9000 X97.239 Y113.927
G1 F1200 X115.128 Y131.816 E326.77543
G0 F9000 X114.578 Y131.831
G1 F1200 X97.239 Y114.493 E329.71787
G0 F9000 X97.239 Y115.059
G1 F1200 X114.035 Y131.854 E332.56816
G0 F9000 X113.541 Y131.926
G1 F1200 X97.239 Y115.624 E335.33470
G0 F9000 X97.239 Y116.190
G1 F1200 X113.047 Y131.997 E338.01732
G0 F9000 X112.580 Y132.096
G1 F1200 X97.239 Y116.756 E340.62069
G0 F9000 X97.239 Y117.321
G1 F1200 X112.134 Y132.216 E343.14846
G0 F9000 X111.688 Y132.335
G1 F1200 X97.239 Y117.887 E345.60045
G0 F9000 X97.239 Y118.453
G1 F1200 X111.276 Y132.489 E347.98252
G0 F9000 X110.872 Y132.651
G1 F1200 X97.239 Y119.018 E350.29612
G0 F9000 X97.239 Y119.584
G1 F1200 X110.469 Y132.813 E352.54124
G0 F9000 X110.099 Y133.009
G1 F1200 X97.239 Y120.150 E354.72357
G0 F9000 X97.239 Y120.715
G1 F1200 X109.733 Y133.209 E356.84387
G0 F9000 X109.366 Y133.408
G1 F1200 X97.239 Y121.281 E358.90189
G0 F9000 X97.239 Y121.847
G1 F1200 X109.030 Y133.637 E360.90281
G0 F9000 X108.699 Y133.872
G1 F1200 X97.239 Y122.412 E362.84763
G0 F9000 X97.239 Y122.978
G1 F1200 X108.369 Y134.107 E364.73637
G0 F9000 X108.062 Y134.366
G1 F1200 X97.239 Y123.544 E366.57301
G0 F9000 X97.239 Y124.109
G1 F1200 X107.765 Y134.635 E368.35933
G0 F9000 X107.468 Y134.903
G1 F1200 X97.239 Y124.675 E370.09517
G0 F9000 X97.239 Y125.241
G1 F1200 X107.191 Y135.192 E371.78399
G0 F9000 X106.927 Y135.494
G1 F1200 X97.239 Y125.807 E373.42801
G0 F9000 X97.239 Y126.372
G1 F1200 X106.663 Y135.796 E375.02732
G0 F9000 X106.413 Y136.111
G1 F1200 X97.239 Y126.938 E376.58411
G0 F9000 X97.239 Y127.504
G1 F1200 X106.183 Y136.447 E378.10188
G0 F9000 X105.954 Y136.784
G1 F1200 X97.239 Y128.069 E379.58086
G0 F9000 X97.239 Y128.635
G1 F1200 X105.732 Y137.128 E381.02217
G0 F9000 X105.539 Y137.500
G1 F1200 X97.239 Y129.201 E382.43064
G0 F9000 X97.239 Y129.766
G1 F1200 X105.346 Y137.873 E383.80645
G0 F9000 X105.160 Y138.252
G1 F1200 X97.239 Y130.332 E385.15060
G0 F9000 X97.239 Y130.898
G1 F1200 X105.006 Y138.664 E386.46862
G0 F9000 X104.851 Y139.075
G1 F1200 X97.239 Y131.463 E387.76042
G0 F9000 X97.239 Y132.029
G1 F1200 X104.710 Y139.500 E389.02829
G0 F9000 X104.597 Y139.952
G1 F1200 X97.239 Y132.595 E390.27690
G0 F9000 X97.239 Y133.160
G1 F1200 X104.484 Y140.405 E391.50642
G0 F9000 X104.402 Y140.889
G1 F1200 X97.239 Y133.726 E392.72202
G0 F9000 X97.239 Y134.292
