;FLAVOR:UltiGCode
;TIME:335
;MATERIAL:524
;MATERIAL2:0
;NOZZLE_DIAMETER:0.400000
;NOZZLE_DIAMETER2:0.400000

;Layer count: 3
;LAYER:0
M107
G0 F9000 X97.812 Y81.812 Z0.300
;TYPE:SKIRT
G1 F1200 X98.604 Y81.164 E0.12280
G1 X99.503 Y80.683 E0.24515
G1 X100.483 Y80.385 E0.36806
G1 X101.344 Y80.301 E0.47188
G1 X128.655 Y80.301 E3.74920
G1 X129.517 Y80.385 E3.85313
G1 X130.498 Y80.683 E3.97616
G1 X131.397 Y81.164 E4.09851
G1 X132.189 Y81.812 E4.22131
G1 X132.837 Y82.604 E4.34410
G1 X133.318 Y83.503 E4.46645
G1 X133.616 Y84.484 E4.58949
G1 X133.700 Y85.346 E4.69342
G1 X133.700 Y139.657 E11.21074
G1 X133.616 Y140.518 E11.31455
G1 X133.318 Y141.498 E11.43746
G1 X132.837 Y142.397 E11.55981
G1 X132.189 Y143.189 E11.68261
G1 X131.397 Y143.837 E11.80541
G1 X130.498 Y144.318 E11.92776
G1 X129.517 Y144.616 E12.05079
G1 X128.655 Y144.700 E12.15472
G1 X101.344 Y144.700 E15.43204
G1 X100.483 Y144.616 E15.53585
G1 X99.503 Y144.318 E15.65877
G1 X98.604 Y143.837 E15.78112
G1 X97.812 Y143.189 E15.90392
G1 X97.164 Y142.397 E16.02671
G1 X96.683 Y141.498 E16.14906
G1 X96.386 Y140.521 E16.27160
G1 X96.300 Y139.659 E16.37555
G1 X96.300 Y85.340 E22.89383
G1 X96.386 Y84.479 E22.99767
G1 X96.683 Y83.503 E23.12009
G1 X97.164 Y82.604 E23.24244
G1 X97.812 Y81.812 E23.36524
G10
G0 F9000 X100.684 Y139.731
;TYPE:FILL
G11
G1 F1200 X100.373 Y140.042 E23.41802
G0 F9000 X103.090 Y140.547
G0 X128.003 Y140.697
G1 F1200 X128.066 Y140.634 E23.42871
G0 F9000 X129.636 Y139.064
G1 F1200 X129.698 Y139.001 E23.43932
G0 F9000 X129.549 Y138.891
;TYPE:WALL-INNER
G1 F1200 X129.604 Y138.401 E23.49849
G1 X129.549 Y137.910 E23.55777
G1 X129.386 Y137.444 E23.61702
G1 X129.123 Y137.026 E23.67628
G1 X128.775 Y136.678 E23.73534
G1 X128.357 Y136.415 E23.79460
G1 X127.892 Y136.253 E23.85369
G1 X127.401 Y136.196 E23.91300
G1 X126.909 Y136.253 E23.97244
G1 X126.444 Y136.415 E24.03153
G1 X126.026 Y136.678 E24.09079
G1 X125.678 Y137.026 E24.14985
G1 X125.415 Y137.444 E24.20911
G1 X125.252 Y137.910 E24.26835
G1 X125.197 Y138.401 E24.32764
G1 X125.252 Y138.891 E24.38681
G1 X125.415 Y139.357 E24.44605
G1 X125.678 Y139.775 E24.50532
G1 X126.026 Y140.123 E24.56437
G1 X126.444 Y140.386 E24.62364
G1 X126.910 Y140.549 E24.68288
G1 X127.401 Y140.604 E24.74217
G1 X127.891 Y140.549 E24.80134
G1 X128.357 Y140.386 E24.86058
G1 X128.775 Y140.123 E24.91984
G1 X129.123 Y139.775 E24.97890
G1 X129.386 Y139.357 E25.03816
G1 X129.549 Y138.891 E25.09740
G0 F9000 X129.900 Y139.474
G1 F1200 X129.871 Y139.772 E25.13333
G1 X129.791 Y140.036 E25.16644
G1 X129.661 Y140.278 E25.19940
G1 X129.489 Y140.489 E25.23207
G1 X129.278 Y140.661 E25.26473
G1 X129.036 Y140.791 E25.29770
G1 X128.772 Y140.871 E25.33080
G1 X128.473 Y140.900 E25.36685
G1 X101.527 Y140.900 E28.60037
G1 X101.229 Y140.871 E28.63630
G1 X100.965 Y140.791 E28.66940
G1 X100.723 Y140.661 E28.70237
G1 X100.512 Y140.489 E28.73503
G1 X100.340 Y140.278 E28.76770
G1 X100.210 Y140.036 E28.80066
G1 X100.130 Y139.772 E28.83377
G1 X100.100 Y139.470 E28.87018
G1 X100.100 Y85.530 E35.34298
G1 X100.130 Y85.229 E35.37928
G1 X100.210 Y84.965 E35.41239
G1 X100.340 Y84.723 E35.44535
G1 X100.512 Y84.512 E35.47802
G1 X100.723 Y84.340 E35.51068
G1 X100.965 Y84.210 E35.54365
G1 X101.229 Y84.130 E35.57675
G1 X101.527 Y84.101 E35.61268
G1 X128.473 Y84.101 E38.84620
G1 X128.772 Y84.130 E38.88225
G1 X129.036 Y84.210 E38.91535
G1 X129.278 Y84.340 E38.94832
G1 X129.489 Y84.512 E38.98098
G1 X129.661 Y84.723 E39.01365
G1 X129.791 Y84.965 E39.04662
G1 X129.871 Y85.229 E39.07972
G1 X129.900 Y85.528 E39.11577
G1 X129.900 Y139.474 E45.58929
G0 F9000 X129.122 Y137.028
G0 X127.891 Y136.254
G0 X123.646 Y134.646
G1 F1200 X123.969 Y134.252 E45.65042
G1 X124.210 Y133.802 E45.71168
G1 X124.358 Y133.314 E45.77287
G1 X124.406 Y132.836 E45.83052
G1 X124.406 Y92.165 E50.71104
G1 X124.358 Y91.687 E50.76869
G1 X124.210 Y91.199 E50.82988
G1 X123.969 Y90.749 E50.89114
G1 X123.646 Y90.355 E50.95228
G1 X123.252 Y90.032 E51.01342
G1 X122.802 Y89.791 E51.07467
G1 X122.314 Y89.643 E51.13587
G1 X121.836 Y89.595 E51.19351
G1 X108.165 Y89.595 E52.83403
G1 X107.687 Y89.643 E52.89168
G1 X107.199 Y89.791 E52.95288
G1 X106.749 Y90.032 E53.01413
G1 X106.355 Y90.355 E53.07527
G1 X106.032 Y90.749 E53.13641
G1 X105.791 Y91.199 E53.19766
G1 X105.643 Y91.687 E53.25886
G1 X105.595 Y92.165 E53.31651
G1 X105.595 Y132.836 E58.19703
G1 X105.643 Y133.314 E58.25467
G1 X105.791 Y133.802 E58.31587
G1 X106.032 Y134.252 E58.37712
G1 X106.355 Y134.646 E58.43826
G1 X106.749 Y134.969 E58.49940
G1 X107.199 Y135.210 E58.56066
G1 X107.687 Y135.358 E58.62185
G1 X108.165 Y135.406 E58.67950
G1 X121.836 Y135.406 E60.32002
G1 X122.314 Y135.358 E60.37767
G1 X122.802 Y135.210 E60.43886
G1 X123.252 Y134.969 E60.50012
G1 X123.646 Y134.646 E60.56125
G0 F9000 X121.835 Y135.405
G0 X104.748 Y137.909
G1 F1200 X104.586 Y137.444 E60.62034
G1 X104.323 Y137.026 E60.67961
G1 X103.975 Y136.678 E60.73866
G1 X103.557 Y136.415 E60.79793
G1 X103.092 Y136.253 E60.85702
G1 X102.601 Y136.196 E60.91633
G1 X102.109 Y136.253 E60.97577
G1 X101.644 Y136.415 E61.03486
G1 X101.226 Y136.678 E61.09412
G1 X100.878 Y137.026 E61.15318
G1 X100.615 Y137.444 E61.21244
G1 X100.453 Y137.909 E61.27153
G1 X100.396 Y138.401 E61.33096
G1 X100.453 Y138.892 E61.39028
G1 X100.615 Y139.357 E61.44937
G1 X100.878 Y139.775 E61.50863
G1 X101.226 Y140.123 E61.56769
G1 X101.644 Y140.386 E61.62695
G1 X102.110 Y140.549 E61.68619
G1 X102.601 Y140.604 E61.74548
G1 X103.091 Y140.549 E61.80465
G1 X103.557 Y140.386 E61.86389
G1 X103.975 Y140.123 E61.92316
G1 X104.323 Y139.775 E61.98221
G1 X104.586 Y139.357 E62.04148
G1 X104.748 Y138.892 E62.10056
G1 X104.805 Y138.401 E62.15988
G1 X104.748 Y137.909 E62.21932
G0 F9000 X102.601 Y88.804
G1 F1200 X103.091 Y88.749 E62.27848
G1 X103.557 Y88.586 E62.33773
G1 X103.975 Y88.323 E62.39699
G1 X104.323 Y87.975 E62.45605
G1 X104.586 Y87.557 E62.51531
G1 X104.748 Y87.092 E62.57440
G1 X104.805 Y86.600 E62.63383
G1 X104.748 Y86.109 E62.69315
G1 X104.586 Y85.644 E62.75224
G1 X104.323 Y85.226 E62.81150
G1 X103.975 Y84.878 E62.87056
G1 X103.557 Y84.615 E62.92982
G1 X103.092 Y84.453 E62.98891
G1 X102.601 Y84.396 E63.04823
G1 X102.109 Y84.453 E63.10766
G1 X101.644 Y84.615 E63.16675
G1 X101.226 Y84.878 E63.22601
G1 X100.878 Y85.226 E63.28507
G1 X100.615 Y85.644 E63.34433
G1 X100.453 Y86.109 E63.40342
G1 X100.396 Y86.600 E63.46274
G1 X100.453 Y87.092 E63.52217
G1 X100.615 Y87.557 E63.58126
G1 X100.878 Y87.975 E63.64053
G1 X101.226 Y88.323 E63.69958
G1 X101.644 Y88.586 E63.75885
G1 X102.110 Y88.749 E63.81809
G1 X102.601 Y88.804 E63.87738
G0 F9000 X125.197 Y86.600
G1 F1200 X125.252 Y87.091 E63.93667
G1 X125.415 Y87.557 E63.99591
G1 X125.678 Y87.975 E64.05517
G1 X126.026 Y88.323 E64.11423
G1 X126.444 Y88.586 E64.17349
G1 X126.910 Y88.749 E64.23273
G1 X127.401 Y88.804 E64.29202
G1 X127.891 Y88.749 E64.35119
G1 X128.357 Y88.586 E64.41043
G1 X128.775 Y88.323 E64.46970
G1 X129.123 Y87.975 E64.52875
G1 X129.386 Y87.557 E64.58802
G1 X129.549 Y87.091 E64.64726
G1 X129.604 Y86.600 E64.70655
G1 X129.549 Y86.110 E64.76572
G1 X129.386 Y85.644 E64.82496
G1 X129.123 Y85.226 E64.88422
G1 X128.775 Y84.878 E64.94328
G1 X128.357 Y84.615 E65.00254
G1 X127.892 Y84.453 E65.06163
G1 X127.401 Y84.396 E65.12095
G1 X126.909 Y84.453 E65.18038
G1 X126.444 Y84.615 E65.23947
G1 X126.026 Y84.878 E65.29873
G1 X125.678 Y85.226 E65.35779
G1 X125.415 Y85.644 E65.41705
G1 X125.252 Y86.110 E65.47629
G1 X125.197 Y86.600 E65.53546
G0 F9000 X125.600 Y86.600
;TYPE:WALL-OUTER
G1 F1200 X125.645 Y87.002 E65.58401
G1 X125.778 Y87.382 E65.63232
G1 X125.993 Y87.724 E65.68079
G1 X126.277 Y88.008 E65.72899
G1 X126.619 Y88.223 E65.77747
G1 X126.999 Y88.356 E65.82578
G1 X127.401 Y88.401 E65.87432
G1 X127.802 Y88.356 E65.92274
G1 X128.182 Y88.223 E65.97105
G1 X128.524 Y88.008 E66.01953
G1 X128.808 Y87.724 E66.06773
G1 X129.023 Y87.382 E66.11620
G1 X129.156 Y87.002 E66.16451
G1 X129.201 Y86.600 E66.21306
G1 X129.156 Y86.199 E66.26148
G1 X129.023 Y85.819 E66.30979
G1 X128.808 Y85.477 E66.35827
G1 X128.524 Y85.193 E66.40646
G1 X128.182 Y84.978 E66.45494
G1 X127.802 Y84.845 E66.50325
G1 X127.401 Y84.799 E66.55169
G1 X126.999 Y84.845 E66.60024
G1 X126.619 Y84.978 E66.64855
G1 X126.277 Y85.193 E66.69703
G1 X125.993 Y85.477 E66.74523
G1 X125.778 Y85.819 E66.79370
G1 X125.645 Y86.199 E66.84201
G1 X125.600 Y86.600 E66.89044
G0 F9000 X125.302 Y86.567
G0 X125.679 Y85.228
G0 X126.910 Y84.454
G0 X128.482 Y84.000
G0 X128.491 Y83.701
G1 F1200 X128.853 Y83.736 E66.93408
G1 X129.190 Y83.838 E66.97633
G1 X129.497 Y84.003 E67.01815
G1 X129.773 Y84.228 E67.06089
G1 X129.998 Y84.504 E67.10362
G1 X130.163 Y84.811 E67.14544
G1 X130.265 Y85.148 E67.18769
G1 X130.300 Y85.510 E67.23133
G1 X130.300 Y139.492 E73.70917
G1 X130.265 Y139.853 E73.75270
G1 X130.163 Y140.190 E73.79495
G1 X129.998 Y140.497 E73.83677
G1 X129.773 Y140.773 E73.87950
G1 X129.497 Y140.998 E73.92223
G1 X129.190 Y141.163 E73.96406
G1 X128.853 Y141.265 E74.00631
G1 X128.491 Y141.300 E74.04995
G1 X101.509 Y141.300 E77.28779
G1 X101.148 Y141.265 E77.33132
G1 X100.811 Y141.163 E77.37357
G1 X100.504 Y140.998 E77.41539
G1 X100.228 Y140.773 E77.45812
G1 X100.003 Y140.497 E77.50085
G1 X99.838 Y140.190 E77.54268
G1 X99.736 Y139.854 E77.58481
G1 X99.700 Y139.490 E77.62871
G1 X99.700 Y85.510 E84.10631
G1 X99.736 Y85.147 E84.15008
G1 X99.838 Y84.811 E84.19222
G1 X100.003 Y84.504 E84.23404
G1 X100.228 Y84.228 E84.27677
G1 X100.504 Y84.003 E84.31950
G1 X100.811 Y83.838 E84.36133
G1 X101.148 Y83.736 E84.40358
G1 X101.509 Y83.701 E84.44710
G1 X128.491 Y83.701 E87.68494
G0 F9000 X128.482 Y84.000
G0 X126.028 Y84.879
G0 X125.254 Y86.111
G0 X123.171 Y90.103
G0 X123.029 Y90.366
G1 F1200 X122.648 Y90.162 E87.73680
G1 X122.235 Y90.037 E87.78858
G1 X121.816 Y89.995 E87.83912
G1 X108.185 Y89.995 E89.47484
G1 X107.766 Y90.037 E89.52537
G1 X107.353 Y90.162 E89.57715
G1 X106.972 Y90.366 E89.62901
G1 X106.639 Y90.639 E89.68068
G1 X106.366 Y90.972 E89.73235
G1 X106.162 Y91.353 E89.78421
G1 X106.037 Y91.766 E89.83600
G1 X105.995 Y92.185 E89.88653
G1 X105.995 Y132.816 E94.76225
G1 X106.037 Y133.235 E94.81278
G1 X106.162 Y133.648 E94.86456
G1 X106.366 Y134.029 E94.91642
G1 X106.639 Y134.362 E94.96809
G1 X106.972 Y134.635 E95.01976
G1 X107.353 Y134.839 E95.07163
G1 X107.766 Y134.964 E95.12341
G1 X108.185 Y135.006 E95.17394
G1 X121.816 Y135.006 E96.80966
G1 X122.235 Y134.964 E96.86019
G1 X122.648 Y134.839 E96.91197
G1 X123.029 Y134.635 E96.96383
G1 X123.362 Y134.362 E97.01550
G1 X123.635 Y134.029 E97.06718
G1 X123.839 Y133.648 E97.11904
G1 X123.964 Y133.235 E97.17082
G1 X124.006 Y132.816 E97.22135
G1 X124.006 Y92.185 E102.09707
G1 X123.964 Y91.766 E102.14760
G1 X123.839 Y91.353 E102.19938
G1 X123.635 Y90.972 E102.25124
G1 X123.362 Y90.639 E102.30292
G1 X123.029 Y90.366 E102.35459
G0 F9000 X123.171 Y90.103
G0 X121.835 Y89.596
G0 X104.653 Y87.037
G0 X104.356 Y87.002
G1 F1200 X104.402 Y86.600 E102.40314
G1 X104.356 Y86.199 E102.45158
G1 X104.223 Y85.819 E102.49989
G1 X104.008 Y85.477 E102.54837
G1 X103.724 Y85.193 E102.59656
G1 X103.382 Y84.978 E102.64504
G1 X103.002 Y84.845 E102.69335
G1 X102.601 Y84.799 E102.74179
G1 X102.199 Y84.845 E102.79034
G1 X101.819 Y84.978 E102.83865
G1 X101.477 Y85.193 E102.88713
G1 X101.193 Y85.477 E102.93533
G1 X100.978 Y85.819 E102.98380
G1 X100.845 Y86.199 E103.03211
G1 X100.799 Y86.600 E103.08055
G1 X100.845 Y87.002 E103.12910
G1 X100.978 Y87.382 E103.17742
G1 X101.193 Y87.724 E103.22589
G1 X101.477 Y88.008 E103.27409
G1 X101.819 Y88.223 E103.32257
G1 X102.199 Y88.356 E103.37088
G1 X102.601 Y88.401 E103.41942
G1 X103.002 Y88.356 E103.46784
G1 X103.382 Y88.223 E103.51615
G1 X103.724 Y88.008 E103.56463
G1 X104.008 Y87.724 E103.61283
G1 X104.223 Y87.382 E103.66130
G1 X104.356 Y87.002 E103.70961
G0 F9000 X104.653 Y87.037
G0 X102.636 Y136.301
G0 X102.601 Y136.599
G1 F1200 X102.199 Y136.645 E103.75817
G1 X101.819 Y136.778 E103.80648
G1 X101.477 Y136.993 E103.85496
G1 X101.193 Y137.277 E103.90315
G1 X100.978 Y137.619 E103.95163
G1 X100.845 Y137.999 E103.99994
G1 X100.799 Y138.401 E104.04850
G1 X100.845 Y138.802 E104.09693
G1 X100.978 Y139.182 E104.14524
G1 X101.193 Y139.524 E104.19372
G1 X101.477 Y139.808 E104.24192
G1 X101.819 Y140.023 E104.29039
G1 X102.199 Y140.156 E104.33871
G1 X102.601 Y140.201 E104.38725
G1 X103.002 Y140.156 E104.43567
G1 X103.382 Y140.023 E104.48398
G1 X103.724 Y139.808 E104.53246
G1 X104.008 Y139.524 E104.58065
G1 X104.223 Y139.182 E104.62913
G1 X104.356 Y138.802 E104.67744
G1 X104.402 Y138.401 E104.72588
G1 X104.356 Y137.999 E104.77443
G1 X104.223 Y137.619 E104.82274
G1 X104.008 Y137.277 E104.87122
G1 X103.724 Y136.993 E104.91942
G1 X103.382 Y136.778 E104.96789
G1 X103.002 Y136.645 E105.01621
G1 X102.601 Y136.599 E105.06464
G0 F9000 X102.636 Y136.301
G0 X125.302 Y138.368
G0 X125.600 Y138.401
G1 F1200 X125.645 Y138.802 E105.11306
G1 X125.778 Y139.182 E105.16138
G1 X125.993 Y139.524 E105.20985
G1 X126.277 Y139.808 E105.25805
G1 X126.619 Y140.023 E105.30652
G1 X126.999 Y140.156 E105.35484
G1 X127.401 Y140.201 E105.40338
G1 X127.802 Y140.156 E105.45180
G1 X128.182 Y140.023 E105.50011
G1 X128.524 Y139.808 E105.54859
G1 X128.808 Y139.524 E105.59678
G1 X129.023 Y139.182 E105.64526
G1 X129.156 Y138.802 E105.69357
G1 X129.201 Y138.401 E105.74199
G1 X129.156 Y137.999 E105.79054
G1 X129.023 Y137.619 E105.83885
G1 X128.808 Y137.277 E105.88732
G1 X128.524 Y136.993 E105.93552
G1 X128.182 Y136.778 E105.98400
G1 X127.802 Y136.645 E106.03231
G1 X127.401 Y136.599 E106.08074
G1 X126.999 Y136.645 E106.12930
G1 X126.619 Y136.778 E106.17761
G1 X126.277 Y136.993 E106.22609
G1 X125.993 Y137.277 E106.27428
G1 X125.778 Y137.619 E106.32276
G1 X125.645 Y137.999 E106.37107
G1 X125.600 Y138.401 E106.41961
G0 F9000 X125.061 Y138.355
;TYPE:SKIN
G1 F1200 X122.214 Y135.507 E106.90285
G0 F9000 X122.668 Y135.396
G1 F1200 X125.124 Y137.852 E107.31965
G0 F9000 X125.271 Y137.433
G1 F1200 X123.065 Y135.227 E107.69402
G0 F9000 X123.417 Y135.014
G1 F1200 X125.481 Y137.077 E108.04421
G0 F9000 X125.737 Y136.767
G1 F1200 X123.728 Y134.759 E108.38506
G0 F9000 X123.986 Y134.451
G1 F1200 X126.038 Y136.504 E108.73338
G0 F9000 X126.386 Y136.286
G1 F1200 X124.205 Y134.104 E109.10359
G0 F9000 X124.382 Y133.716
G1 F1200 X126.806 Y136.139 E109.51487
G0 F9000 X127.299 Y136.067
G1 F1200 X124.502 Y133.270 E109.98954
G0 F9000 X124.545 Y132.747
G1 F1200 X127.911 Y136.113 E110.56077
G0 F9000 X129.760 Y136.265
G1 F1200 X124.545 Y131.050 E111.44579
G0 F9000 X124.545 Y130.485
G1 F1200 X129.760 Y135.700 E112.33080
G0 F9000 X129.760 Y135.134
G1 F1200 X124.545 Y129.919 E113.21581
G0 F9000 X124.545 Y129.353
G1 F1200 X129.760 Y134.568 E114.10083
G0 F9000 X129.760 Y134.003
G1 F1200 X124.545 Y128.788 E114.98584
G0 F9000 X124.545 Y128.222
G1 F1200 X129.760 Y133.437 E115.87086
G0 F9000 X129.760 Y132.871
G1 F1200 X124.545 Y127.656 E116.75587
G0 F9000 X124.545 Y127.091
G1 F1200 X129.760 Y132.306 E117.64089
G0 F9000 X129.760 Y131.740
G1 F1200 X124.545 Y126.525 E118.52590
G0 F9000 X124.545 Y125.959
G1 F1200 X129.760 Y131.174 E119.41092
G0 F9000 X129.760 Y130.608
G1 F1200 X124.545 Y125.394 E120.29585
G0 F9000 X124.545 Y124.828
G1 F1200 X129.760 Y130.043 E121.18086
G0 F9000 X129.760 Y129.477
G1 F1200 X124.545 Y124.262 E122.06588
G0 F9000 X124.545 Y123.697
G1 F1200 X129.760 Y128.911 E122.95081
G0 F9000 X129.760 Y128.346
G1 F1200 X124.545 Y123.131 E123.83582
G0 F9000 X124.545 Y122.565
G1 F1200 X129.760 Y127.780 E124.72084
G0 F9000 X129.760 Y127.214
G1 F1200 X124.545 Y121.999 E125.60585
G0 F9000 X124.545 Y121.434
G1 F1200 X129.760 Y126.649 E126.49087
G0 F9000 X129.760 Y126.083
G1 F1200 X124.545 Y120.868 E127.37588
G0 F9000 X124.545 Y120.302
G1 F1200 X129.760 Y125.517 E128.26090
G0 F9000 X129.760 Y124.952
G1 F1200 X124.545 Y119.737 E129.14591
G0 F9000 X124.545 Y119.171
G1 F1200 X129.760 Y124.386 E130.03093
G0 F9000 X129.760 Y123.820
G1 F1200 X124.545 Y118.605 E130.91594
G0 F9000 X124.545 Y118.040
G1 F1200 X129.760 Y123.255 E131.80096
G0 F9000 X129.760 Y122.689
G1 F1200 X124.545 Y117.474 E132.68597
G0 F9000 X124.545 Y116.908
G1 F1200 X129.760 Y122.123 E133.57099
G0 F9000 X129.760 Y121.558
