;FLAVOR:UltiGCode
;TIME:4837
;MATERIAL:7034
;MATERIAL2:0
;NOZZLE_DIAMETER:0.400000
;NOZZLE_DIAMETER2:0.400000

;Layer count: 78
;LAYER:0
M107
G0 F9000 X161.365 Y95.543 Z0.300
G0 X161.765 Y95.142
;TYPE:SKIRT
G1 F1200 X161.365 Y95.543 E0.06797
G1 X161.365 Y96.146 E0.14033
G1 X161.165 Y96.346 E0.17427
G1 X161.165 Y96.546 E0.19827
G1 X160.965 Y96.746 E0.23221
G1 X160.965 Y96.946 E0.25621
G1 X160.765 Y97.146 E0.29015
G1 X160.765 Y97.546 E0.33815
G1 X160.565 Y97.746 E0.37209
G1 X160.565 Y98.346 E0.44409
G1 X160.480 Y98.431 E0.45852
G1 X160.565 Y98.516 E0.47294
G1 X160.565 Y99.116 E0.54494
G1 X160.765 Y99.316 E0.57888
G1 X160.765 Y99.716 E0.62688
G1 X160.965 Y99.916 E0.66082
G1 X160.965 Y100.316 E0.70882
G1 X161.165 Y100.516 E0.74276
G1 X161.165 Y100.716 E0.76676
G1 X161.365 Y100.916 E0.80071
G1 X161.365 Y101.316 E0.84871
G1 X161.565 Y101.516 E0.88265
G1 X161.565 Y101.719 E0.90701
G1 X161.965 Y102.120 E0.97497
G1 X161.965 Y102.316 E0.99849
G1 X162.965 Y103.317 E1.16828
G1 X162.965 Y103.320 E1.16864
G1 X162.972 Y103.323 E1.16956
G1 X163.174 Y103.525 E1.20384
G1 X163.974 Y103.924 E1.31112
G1 X163.992 Y103.942 E1.31417
G1 X165.057 Y104.207 E1.44587
G1 X165.204 Y104.354 E1.47082
G1 X165.769 Y104.435 E1.53931
G1 X167.847 Y104.463 E1.78869
G1 X168.346 Y104.380 E1.84939
G1 X168.880 Y104.114 E1.92098
G1 X169.459 Y103.922 E1.99418
G1 X169.660 Y103.722 E2.02821
G1 X170.059 Y103.523 E2.08172
G1 X170.290 Y103.292 E2.12092
G1 X170.865 Y102.716 E2.21858
G1 X170.865 Y102.516 E2.24258
G1 X171.065 Y102.316 E2.27652
G1 X171.065 Y102.120 E2.30004
G1 X171.465 Y101.719 E2.36801
G1 X171.465 Y101.516 E2.39237
G1 X171.665 Y101.316 E2.42631
G1 X171.665 Y101.116 E2.45031
G1 X171.865 Y100.916 E2.48425
G1 X171.865 Y100.716 E2.50825
G1 X172.065 Y100.516 E2.54219
G1 X172.065 Y100.116 E2.59019
G1 X172.265 Y99.916 E2.62414
G1 X172.265 Y99.316 E2.69614
G1 X172.465 Y99.116 E2.73008
G1 X172.465 Y98.516 E2.80208
G1 X172.550 Y98.431 E2.81650
G1 X172.465 Y98.346 E2.83093
G1 X172.465 Y97.746 E2.90293
G1 X172.265 Y97.546 E2.93687
G1 X172.265 Y97.146 E2.98487
G1 X172.065 Y96.946 E3.01881
G1 X172.065 Y96.346 E3.09081
G1 X171.865 Y96.146 E3.12475
G1 X171.865 Y95.946 E3.14875
G1 X171.665 Y95.746 E3.18269
G1 X171.665 Y95.546 E3.20669
G1 X171.465 Y95.346 E3.24063
G1 X171.465 Y95.143 E3.26499
G1 X171.065 Y94.742 E3.33296
G1 X171.065 Y94.543 E3.35684
G1 X170.665 Y94.142 E3.42481
G1 X170.665 Y93.948 E3.44809
G1 X170.450 Y93.733 E3.48457
G1 X170.059 Y93.537 E3.53706
G1 X169.460 Y92.940 E3.63854
G1 X168.874 Y92.746 E3.71262
G1 X168.387 Y92.503 E3.77793
G1 X167.691 Y92.403 E3.86230
G1 X165.934 Y92.428 E4.07317
G1 X164.945 Y92.551 E4.19276
G1 X164.025 Y93.010 E4.31614
G1 X163.632 Y93.109 E4.36477
G1 X163.575 Y93.137 E4.37239
G1 X163.172 Y93.539 E4.44070
G1 X162.772 Y93.739 E4.49436
G1 X162.704 Y93.806 E4.50582
G1 X162.165 Y94.346 E4.59738
G1 X162.165 Y94.542 E4.62090
G1 X161.765 Y94.943 E4.68886
G1 X161.765 Y95.142 E4.71274
G0 F9000 X147.965 Y83.693
G1 F1200 X148.031 Y82.929 E4.80476
G1 X148.266 Y82.048 E4.91418
G1 X148.650 Y81.225 E5.02316
G1 X149.171 Y80.481 E5.13216
G1 X149.815 Y79.837 E5.24145
G1 X150.559 Y79.316 E5.35044
G1 X151.382 Y78.932 E5.45942
G1 X152.263 Y78.697 E5.56884
G1 X153.027 Y78.631 E5.66086
G1 X180.202 Y78.631 E8.92186
G1 X180.966 Y78.697 E9.01388
G1 X181.847 Y78.932 E9.12330
G1 X182.670 Y79.316 E9.23228
G1 X183.414 Y79.837 E9.34127
G1 X184.058 Y80.481 E9.45056
G1 X184.579 Y81.225 E9.55956
G1 X184.963 Y82.048 E9.66854
G1 X185.198 Y82.929 E9.77795
G1 X185.264 Y83.693 E9.86998
G1 X185.264 Y118.469 E14.04310
G1 X185.198 Y119.233 E14.13512
G1 X184.963 Y120.111 E14.24419
G1 X184.579 Y120.937 E14.35349
G1 X184.057 Y121.682 E14.46265
G1 X183.414 Y122.324 E14.57169
G1 X182.670 Y122.845 E14.68068
G1 X181.847 Y123.229 E14.78967
G1 X180.971 Y123.463 E14.89847
G1 X180.206 Y123.531 E14.99063
G1 X163.230 Y123.531 E17.02775
G1 X159.742 Y124.031 E17.45059
G1 X154.465 Y124.031 E18.08383
G1 X154.465 Y123.531 E18.14383
G1 X153.023 Y123.531 E18.31687
G1 X152.258 Y123.463 E18.40903
G1 X151.382 Y123.229 E18.51784
G1 X150.559 Y122.845 E18.62682
G1 X149.815 Y122.324 E18.73581
G1 X149.172 Y121.682 E18.84485
G1 X148.650 Y120.937 E18.95401
G1 X148.266 Y120.111 E19.06332
G1 X148.031 Y119.233 E19.17239
G1 X147.965 Y118.469 E19.26441
G1 X147.965 Y83.693 E23.43753
G10
G0 F9000 X151.765 Y83.860
;TYPE:WALL-INNER
G11
G1 F1200 X151.788 Y83.588 E23.47029
G1 X151.851 Y83.352 E23.49960
G1 X151.954 Y83.132 E23.52875
G1 X152.096 Y82.929 E23.55848
G1 X152.263 Y82.762 E23.58682
G1 X152.466 Y82.620 E23.61654
G1 X152.686 Y82.517 E23.64569
G1 X152.922 Y82.454 E23.67501
G1 X180.035 Y82.431 E26.92857
G1 X180.307 Y82.454 E26.96132
G1 X180.543 Y82.517 E26.99064
G1 X180.763 Y82.620 E27.01979
G1 X180.966 Y82.762 E27.04951
G1 X181.133 Y82.929 E27.07786
G1 X181.275 Y83.132 E27.10758
G1 X181.378 Y83.352 E27.13673
G1 X181.441 Y83.588 E27.16605
G1 X181.464 Y118.302 E31.33173
G1 X181.441 Y118.573 E31.36436
G1 X181.377 Y118.812 E31.39405
G1 X181.276 Y119.029 E31.42278
G1 X181.134 Y119.231 E31.45241
G1 X180.966 Y119.399 E31.48092
G1 X180.763 Y119.541 E31.51064
G1 X180.543 Y119.644 E31.53979
G1 X180.307 Y119.707 E31.56911
G1 X180.033 Y119.731 E31.60211
G1 X162.425 Y119.731 E33.71507
G1 X162.423 Y118.931 E33.81107
G1 X180.664 Y118.931 E35.99999
G1 X180.664 Y83.231 E40.28399
G1 X152.565 Y83.231 E43.65587
G1 X152.565 Y118.931 E47.93987
G1 X156.905 Y118.931 E48.46067
G1 X156.904 Y119.731 E48.55667
G1 X153.196 Y119.731 E49.00163
G1 X152.922 Y119.707 E49.03464
G1 X152.686 Y119.644 E49.06395
G1 X152.466 Y119.541 E49.09310
G1 X152.263 Y119.399 E49.12283
G1 X152.095 Y119.231 E49.15134
G1 X151.953 Y119.029 E49.18097
G1 X151.852 Y118.812 E49.20969
G1 X151.788 Y118.573 E49.23938
G1 X151.765 Y83.860 E53.40494
G0 F9000 X151.365 Y83.831
;TYPE:WALL-OUTER
G1 F1200 X151.392 Y83.519 E53.44252
G1 X151.473 Y83.215 E53.48028
G1 X151.605 Y82.933 E53.51764
G1 X151.789 Y82.670 E53.55616
G1 X152.004 Y82.455 E53.59264
G1 X152.267 Y82.271 E53.63116
G1 X152.549 Y82.139 E53.66852
G1 X152.853 Y82.058 E53.70628
G1 X153.170 Y82.031 E53.74445
G1 X180.059 Y82.031 E56.97113
G1 X180.376 Y82.058 E57.00931
G1 X180.680 Y82.139 E57.04707
G1 X180.962 Y82.271 E57.08443
G1 X181.225 Y82.455 E57.12295
G1 X181.440 Y82.670 E57.15943
G1 X181.624 Y82.933 E57.19795
G1 X181.756 Y83.215 E57.23531
G1 X181.837 Y83.519 E57.27307
G1 X181.864 Y83.831 E57.31065
G1 X181.864 Y118.331 E61.45065
G1 X181.837 Y118.642 E61.48811
G1 X181.755 Y118.948 E61.52612
G1 X181.625 Y119.227 E61.56306
G1 X181.440 Y119.491 E61.60174
G1 X181.225 Y119.706 E61.63823
G1 X180.962 Y119.890 E61.67675
G1 X180.680 Y120.022 E61.71411
G1 X180.377 Y120.103 E61.75175
G1 X180.057 Y120.131 E61.79029
G1 X162.026 Y120.131 E63.95401
G1 X162.022 Y118.531 E64.14601
G1 X180.264 Y118.531 E66.33505
G1 X180.264 Y83.631 E70.52305
G1 X152.965 Y83.631 E73.79893
G1 X152.965 Y118.531 E77.98693
G1 X157.306 Y118.531 E78.50785
G1 X157.303 Y120.131 E78.69985
G1 X153.172 Y120.131 E79.19557
G1 X152.852 Y120.103 E79.23412
G1 X152.549 Y120.022 E79.27176
G1 X152.267 Y119.890 E79.30912
G1 X152.004 Y119.706 E79.34764
G1 X151.789 Y119.491 E79.38413
G1 X151.604 Y119.227 E79.42281
G1 X151.474 Y118.948 E79.45975
G1 X151.392 Y118.642 E79.49776
G1 X151.365 Y118.331 E79.53522
G1 X151.365 Y83.831 E83.67522
G0 F9000 X151.913 Y83.748
;TYPE:SKIN
G1 F1200 X152.163 Y84.281 E83.76176
G1 X152.163 Y84.847 E83.84972
G1 X152.163 Y85.413 E83.93768
G1 X152.164 Y85.979 E84.02563
G1 X152.164 Y86.544 E84.11343
G1 X152.164 Y87.111 E84.20137
G1 X152.164 Y87.676 E84.28901
G1 X152.165 Y88.242 E84.37662
G1 X152.165 Y88.808 E84.46407
G1 X152.165 Y89.374 E84.55152
G1 X152.165 Y89.940 E84.63896
G1 X152.165 Y90.506 E84.72641
G1 X152.165 Y91.072 E84.81386
G1 X152.166 Y91.637 E84.90115
G1 X152.166 Y92.203 E84.98826
G1 X152.166 Y92.769 E85.07537
G1 X152.166 Y93.335 E85.16247
G1 X152.166 Y93.901 E85.24941
G1 X152.167 Y94.467 E85.33652
G1 X152.167 Y95.032 E85.42330
G1 X152.167 Y95.599 E85.51005
G1 X152.167 Y96.164 E85.59684
G1 X152.167 Y96.730 E85.68360
G1 X152.167 Y97.296 E85.77020
G1 X152.168 Y97.862 E85.85680
G1 X152.168 Y98.428 E85.94323
G1 X152.168 Y98.994 E86.02966
G1 X152.168 Y99.560 E86.11592
G1 X152.168 Y100.126 E86.20217
G1 X152.169 Y100.691 E86.28845
G1 X152.169 Y101.257 E86.37471
G1 X152.169 Y101.824 E86.46095
G1 X152.169 Y102.389 E86.54689
G1 X152.169 Y102.955 E86.63280
G1 X152.169 Y103.521 E86.71872
G1 X152.170 Y104.087 E86.80464
G1 X152.170 Y104.652 E86.89041
G1 X152.170 Y105.219 E86.97631
G1 X152.170 Y105.784 E87.06191
G1 X152.171 Y106.350 E87.14749
G1 X152.171 Y106.916 E87.23290
G1 X152.171 Y107.482 E87.31831
G1 X152.171 Y108.048 E87.40371
G1 X152.171 Y108.614 E87.48912
G1 X152.172 Y109.180 E87.57453
G1 X152.172 Y109.745 E87.65962
G1 X152.172 Y110.312 E87.74467
G1 X152.172 Y110.877 E87.82959
G1 X152.172 Y111.443 E87.91466
G1 X152.172 Y112.009 E87.99956
G1 X152.173 Y112.575 E88.08463
G1 X152.173 Y113.140 E88.16938
G1 X152.173 Y113.707 E88.25409
G1 X152.173 Y114.272 E88.33867
G1 X152.173 Y114.838 E88.42323
G1 X152.174 Y115.404 E88.50779
G1 X152.174 Y115.970 E88.59218
G1 X152.174 Y116.536 E88.67657
G1 X152.174 Y117.102 E88.76080
G1 X152.174 Y117.668 E88.84502
G1 X152.174 Y118.233 E88.92909
G1 X152.275 Y118.900 E89.01328
G1 X152.592 Y119.217 E89.06882
G1 X153.272 Y119.330 E89.15692
G1 X153.837 Y119.330 E89.24472
G1 X154.403 Y119.330 E89.33268
G1 X154.969 Y119.330 E89.42063
G1 X155.534 Y119.330 E89.50843
G1 X156.100 Y119.330 E89.59639
G1 X156.703 Y119.368 E89.68448
G1 X156.689 Y119.071 E89.72016
G0 F9000 X152.624 Y118.872
G0 X152.624 Y83.290
G0 X180.605 Y83.290
G0 X180.605 Y118.872
G0 X162.562 Y119.287
G1 F1200 X162.888 Y119.330 E89.77156
G1 X163.454 Y119.330 E89.85951
G1 X164.020 Y119.330 E89.94747
G1 X164.585 Y119.330 E90.03527
G1 X165.151 Y119.330 E90.12323
G1 X165.717 Y119.330 E90.21118
G1 X166.282 Y119.330 E90.29898
G1 X166.848 Y119.330 E90.38694
G1 X167.414 Y119.330 E90.47490
G1 X167.979 Y119.330 E90.56270
G1 X168.545 Y119.330 E90.65065
G1 X169.111 Y119.330 E90.73861
G1 X169.676 Y119.330 E90.82658
G1 X170.242 Y119.330 E90.91454
G1 X170.808 Y119.330 E91.00249
G1 X171.374 Y119.330 E91.09045
G1 X171.939 Y119.330 E91.17825
G1 X172.505 Y119.330 E91.26621
G1 X173.071 Y119.330 E91.35416
G1 X173.636 Y119.330 E91.44197
G1 X174.202 Y119.330 E91.52992
G1 X174.768 Y119.330 E91.61788
G1 X175.333 Y119.330 E91.70568
G1 X175.899 Y119.330 E91.79364
G1 X176.465 Y119.330 E91.88159
G1 X177.030 Y119.330 E91.96939
G1 X177.596 Y119.330 E92.05735
G1 X178.162 Y119.330 E92.14531
G1 X178.727 Y119.330 E92.23311
G1 X179.293 Y119.330 E92.32106
G1 X179.859 Y119.330 E92.40902
G1 X180.555 Y119.461 E92.48976
G1 X180.624 Y118.965 E92.54144
G1 X181.149 Y118.924 E92.58314
G1 X181.062 Y118.271 E92.65903
G1 X181.062 Y117.706 E92.74734
G1 X181.062 Y117.140 E92.83564
G1 X181.062 Y116.574 E92.92377
G1 X181.061 Y116.008 E93.01189
G1 X181.061 Y115.442 E93.09985
G1 X181.061 Y114.876 E93.18780
G1 X181.061 Y114.310 E93.27576
G1 X181.061 Y113.745 E93.36356
G1 X181.061 Y113.179 E93.45135
G1 X181.060 Y112.613 E93.53914
G1 X181.060 Y112.047 E93.62675
G1 X181.060 Y111.481 E93.71437
G1 X181.060 Y110.915 E93.80182
G1 X181.060 Y110.349 E93.88926
G1 X181.059 Y109.783 E93.97671
G1 X181.059 Y109.217 E94.06399
G1 X181.059 Y108.652 E94.15111
G1 X181.059 Y108.086 E94.23822
G1 X181.059 Y107.520 E94.32533
G1 X181.059 Y106.954 E94.41243
G1 X181.058 Y106.388 E94.49954
G1 X181.058 Y105.822 E94.58648
G1 X181.058 Y105.256 E94.67342
G1 X181.058 Y104.691 E94.76020
G1 X181.058 Y104.125 E94.84697
G1 X181.057 Y103.558 E94.93372
G1 X181.057 Y102.993 E95.02016
G1 X181.057 Y102.427 E95.10676
G1 X181.057 Y101.861 E95.19319
G1 X181.057 Y101.295 E95.27945
G1 X181.057 Y100.729 E95.36571
G1 X181.056 Y100.163 E95.45196
G1 X181.056 Y99.598 E95.53824
G1 X181.056 Y99.032 E95.62450
G1 X181.056 Y98.466 E95.71059
G1 X181.055 Y97.900 E95.79651
G1 X181.055 Y97.334 E95.88243
G1 X181.055 Y96.768 E95.96834
G1 X181.055 Y96.202 E96.05426
G1 X181.055 Y95.637 E96.13986
G1 X181.054 Y95.070 E96.22559
G1 X181.054 Y94.505 E96.31119
G1 X181.054 Y93.939 E96.39677
G1 X181.054 Y93.373 E96.48218
G1 X181.054 Y92.807 E96.56776
G1 X181.054 Y92.241 E96.65317
G1 X181.053 Y91.675 E96.73858
G1 X181.053 Y91.109 E96.82381
G1 X181.053 Y90.544 E96.90890
G1 X181.053 Y89.978 E96.99397
G1 X181.053 Y89.412 E97.07904
G1 X181.052 Y88.846 E97.16411
G1 X181.052 Y88.280 E97.24901
G1 X181.052 Y87.714 E97.33391
G1 X181.052 Y87.149 E97.41849
G1 X181.052 Y86.582 E97.50320
G1 X181.052 Y86.017 E97.58778
G1 X181.051 Y85.450 E97.67249
G1 X181.051 Y84.885 E97.75690
G1 X181.051 Y84.319 E97.84147
G1 X181.051 Y83.753 E97.92586
G1 X180.736 Y83.156 E98.01030
G1 X180.134 Y82.836 E98.09641
G1 X179.563 Y82.830 E98.18429
G1 X178.997 Y82.831 E98.27224
G1 X178.432 Y82.831 E98.36005
G1 X177.867 Y82.831 E98.44768
G1 X177.301 Y82.831 E98.53529
G1 X176.735 Y82.831 E98.62291
G1 X176.170 Y82.832 E98.71037
G1 X175.605 Y82.832 E98.79767
G1 X175.039 Y82.832 E98.88511
G1 X174.473 Y82.832 E98.97239
G1 X173.908 Y82.833 E99.05934
G1 X173.343 Y82.833 E99.14630
G1 X172.777 Y82.833 E99.23323
G1 X172.212 Y82.834 E99.32002
G1 X171.646 Y82.834 E99.40679
G1 X171.081 Y82.834 E99.49357
G1 X170.516 Y82.834 E99.58018
G1 X169.950 Y82.834 E99.66678
G1 X169.384 Y82.835 E99.75321
G1 X168.819 Y82.835 E99.83966
G1 X168.254 Y82.835 E99.92610
G1 X167.688 Y82.835 E100.01236
G1 X167.123 Y82.836 E100.09847
G1 X166.557 Y82.836 E100.18455
G1 X165.992 Y82.836 E100.27049
G1 X165.426 Y82.836 E100.35641
G1 X164.861 Y82.836 E100.44235
G1 X164.295 Y82.837 E100.52826
G1 X163.730 Y82.837 E100.61386
G1 X163.165 Y82.837 E100.69946
G1 X162.599 Y82.837 E100.78504
G1 X162.034 Y82.838 E100.87047
G1 X161.468 Y82.838 E100.95588
G1 X160.903 Y82.838 E101.04130
G1 X160.337 Y82.838 E101.12654
G1 X159.772 Y82.838 E101.21163
G1 X159.207 Y82.839 E101.29655
G1 X158.641 Y82.839 E101.38145
G1 X158.076 Y82.839 E101.46637
G1 X157.510 Y82.840 E101.55110
G1 X156.945 Y82.840 E101.63585
G1 X156.379 Y82.840 E101.72058
G1 X155.814 Y82.840 E101.80516
G1 X155.248 Y82.841 E101.88955
G1 X154.683 Y82.841 E101.97397
G1 X154.118 Y82.841 E102.05821
G1 X153.552 Y82.841 E102.14243
G1 X152.801 Y82.656 E102.22666
G1 X152.687 Y83.108 E102.28931
G1 X152.144 Y83.130 E102.31702
G1 X152.423 Y83.693 E102.39242
G0 F9000 X153.204 Y83.979
;TYPE:SUPPORT
G1 F1200 X180.023 Y83.979 E105.61070
G0 F9000 X179.264 Y84.541
G0 X179.264 Y86.645
G0 X180.023 Y86.645
G1 F1200 X153.204 Y86.645 E108.82898
G0 F9000 X153.965 Y86.645
G0 X153.965 Y89.311
G0 X153.204 Y89.311
G1 F1200 X180.023 Y89.311 E112.04726
G0 F9000 X179.264 Y89.311
G0 X179.264 Y91.977
G0 X180.023 Y91.977
G1 F1200 X172.286 Y91.977 E112.97570
G0 F9000 X171.957 Y91.648
G1 F1200 X171.957 Y83.871 E113.90894
G0 F9000 X171.957 Y84.631
G0 X169.291 Y84.631
G0 X169.291 Y83.871
G1 F1200 X169.291 Y90.115 E114.65822
G0 F9000 X169.631 Y89.436
G0 X167.907 Y89.001
G0 X166.615 Y89.117
G0 X166.625 Y89.878
G1 F1200 X166.625 Y83.871 E115.37906
G0 F9000 X166.625 Y84.631
G0 X163.959 Y84.631
G0 X163.959 Y83.871
G1 F1200 X163.959 Y90.160 E116.13374
G0 F9000 X163.422 Y89.623
G0 X161.564 Y90.345
G0 X160.953 Y90.959
G0 X161.293 Y91.639
G1 F1200 X161.293 Y83.871 E117.06590
G0 F9000 X161.293 Y84.631
G0 X160.475 Y91.298
G0 X160.813 Y91.977
G1 F1200 X153.204 Y91.977 E117.97898
G0 F9000 X153.965 Y91.977
G0 X153.965 Y94.643
G0 X153.204 Y94.643
G1 F1200 X158.824 Y94.643 E118.65338
G0 F9000 X158.627 Y95.293
G1 F1200 X158.627 Y83.871 E120.02402
G0 F9000 X158.627 Y84.631
G0 X155.961 Y84.631
G0 X155.961 Y83.871
G1 F1200 X155.961 Y118.291 E124.15442
G0 F9000 X155.961 Y117.531
G0 X158.348 Y117.490
G0 X158.305 Y118.638
G0 X157.545 Y118.637
G1 F1200 X161.782 Y118.637 E124.66286
G0 F9000 X161.022 Y118.638
G0 X160.980 Y117.490
G0 X163.959 Y117.531
G0 X163.959 Y118.291
G1 F1200 X163.959 Y106.702 E126.05354
G0 F9000 X163.422 Y107.238
G0 X164.156 Y107.638
G0 X166.615 Y107.746
G0 X166.625 Y106.988
G1 F1200 X166.625 Y118.291 E127.40990
G0 F9000 X166.625 Y117.531
G0 X169.291 Y117.531
G0 X169.291 Y118.291
G1 F1200 X169.291 Y106.746 E128.79530
G0 F9000 X169.629 Y107.427
G0 X172.068 Y106.316
G0 X172.402 Y105.845
G0 X171.866 Y105.307
