;FLAVOR:UltiGCode
;TIME:5739
;MATERIAL:9213
;MATERIAL2:0
;NOZZLE_DIAMETER:0.400000
;NOZZLE_DIAMETER2:0.400000

;Layer count: 88
;LAYER:0
M107
G0 F9000 X94.971 Y57.640 Z0.300
;TYPE:SKIRT
G1 F1200 X95.802 Y56.555 E0.16400
G1 X96.888 Y55.721 E0.32832
G1 X98.148 Y55.202 E0.49184
G1 X99.287 Y55.050 E0.62973
G1 X130.711 Y55.050 E4.40061
G1 X131.853 Y55.202 E4.53886
G1 X133.110 Y55.721 E4.70205
G1 X134.195 Y56.552 E4.86605
G1 X135.029 Y57.638 E5.03037
G1 X135.549 Y58.901 E5.19427
G1 X135.699 Y60.040 E5.33213
G1 X135.699 Y154.068 E16.61549
G1 X135.700 Y156.961 E16.96265
G1 X135.548 Y158.103 E17.10090
G1 X135.029 Y159.360 E17.26409
G1 X134.198 Y160.445 E17.42809
G1 X133.112 Y161.279 E17.59240
G1 X131.849 Y161.799 E17.75631
G1 X130.710 Y161.949 E17.89417
G1 X122.200 Y161.949 E18.91537
G1 X122.200 Y169.949 E19.87537
G1 X107.800 Y169.949 E21.60337
G1 X107.800 Y161.949 E22.56337
G1 X100.941 Y161.949 E23.38645
G1 X99.289 Y161.950 E23.58469
G1 X98.147 Y161.798 E23.72294
G1 X96.890 Y161.279 E23.88613
G1 X95.805 Y160.448 E24.05013
G1 X94.971 Y159.362 E24.21444
G1 X94.451 Y158.099 E24.37835
G1 X94.301 Y156.960 E24.51621
G1 X94.301 Y62.932 E35.79957
G1 X94.300 Y60.039 E36.14673
G1 X94.452 Y58.897 E36.28497
G1 X94.971 Y57.640 E36.44817
G10
G0 F9000 X98.294 Y59.551
;TYPE:WALL-INNER
G11
G1 F1200 X98.514 Y59.264 E36.49156
G1 X98.801 Y59.044 E36.53496
G1 X99.140 Y58.904 E36.57897
G1 X99.542 Y58.850 E36.62764
G1 X130.458 Y58.850 E40.33756
G1 X130.860 Y58.904 E40.38623
G1 X131.199 Y59.044 E40.43025
G1 X131.486 Y59.264 E40.47364
G1 X131.706 Y59.551 E40.51704
G1 X131.846 Y59.890 E40.56105
G1 X131.899 Y60.290 E40.60947
G1 X131.900 Y156.708 E52.17963
G1 X131.846 Y157.110 E52.22830
G1 X131.706 Y157.449 E52.27231
G1 X131.486 Y157.736 E52.31571
G1 X131.199 Y157.956 E52.35910
G1 X130.860 Y158.096 E52.40311
G1 X130.460 Y158.149 E52.45153
G1 X118.400 Y158.149 E53.89873
G1 X118.400 Y166.149 E54.85873
G1 X111.600 Y166.149 E55.67473
G1 X111.600 Y158.149 E56.63473
G1 X99.542 Y158.150 E58.08169
G1 X99.140 Y158.096 E58.13037
G1 X98.801 Y157.956 E58.17438
G1 X98.514 Y157.736 E58.21777
G1 X98.294 Y157.449 E58.26117
G1 X98.154 Y157.110 E58.30518
G1 X98.101 Y156.710 E58.35360
G1 X98.100 Y60.292 E69.92376
G1 X98.154 Y59.890 E69.97243
G1 X98.294 Y59.551 E70.01645
G0 F9000 X114.454 Y160.717
G1 F1200 X113.948 Y160.926 E70.08214
G1 X113.511 Y161.261 E70.14822
G1 X113.176 Y161.696 E70.21410
G1 X112.966 Y162.205 E70.28018
G1 X112.895 Y162.749 E70.34601
G1 X112.966 Y163.294 E70.41196
G1 X113.176 Y163.801 E70.47782
G1 X113.511 Y164.238 E70.54389
G1 X113.948 Y164.573 E70.60997
G1 X114.455 Y164.783 E70.67582
G1 X115.000 Y164.854 E70.74177
G1 X115.544 Y164.783 E70.80761
G1 X116.053 Y164.573 E70.87368
G1 X116.488 Y164.238 E70.93957
G1 X116.823 Y163.801 E71.00564
G1 X117.032 Y163.295 E71.07134
G1 X117.105 Y162.749 E71.13744
G1 X117.032 Y162.204 E71.20342
G1 X116.823 Y161.696 E71.26934
G1 X116.488 Y161.261 E71.33523
G1 X116.053 Y160.926 E71.40111
G1 X115.545 Y160.717 E71.46703
G1 X115.000 Y160.644 E71.53301
G1 X114.454 Y160.717 E71.59912
G0 F9000 X114.559 Y161.106
;TYPE:WALL-OUTER
G1 F1200 X114.149 Y161.275 E71.65233
G1 X113.796 Y161.546 E71.70574
G1 X113.525 Y161.898 E71.75904
G1 X113.356 Y162.309 E71.81237
G1 X113.298 Y162.749 E71.86563
G1 X113.356 Y163.190 E71.91900
G1 X113.525 Y163.600 E71.97222
G1 X113.796 Y163.953 E72.02562
G1 X114.149 Y164.224 E72.07903
G1 X114.559 Y164.393 E72.13224
G1 X115.000 Y164.451 E72.18562
G1 X115.440 Y164.393 E72.23887
G1 X115.851 Y164.224 E72.29220
G1 X116.203 Y163.953 E72.34551
G1 X116.474 Y163.600 E72.39891
G1 X116.643 Y163.190 E72.45213
G1 X116.702 Y162.749 E72.50552
G1 X116.643 Y162.309 E72.55879
G1 X116.474 Y161.898 E72.61212
G1 X116.203 Y161.546 E72.66543
G1 X115.851 Y161.275 E72.71874
G1 X115.440 Y161.106 E72.77206
G1 X115.000 Y161.047 E72.82534
G1 X114.559 Y161.106 E72.87873
G0 F9000 X114.519 Y160.808
G0 X111.500 Y158.549
G0 X111.200 Y158.549
G1 F1200 X99.511 Y158.550 E74.28141
G1 X99.036 Y158.487 E74.33891
G1 X98.603 Y158.308 E74.39513
G1 X98.229 Y158.021 E74.45170
G1 X97.942 Y157.648 E74.50818
G1 X97.763 Y157.214 E74.56451
G1 X97.701 Y156.739 E74.62200
G1 X97.700 Y60.262 E86.19924
G1 X97.763 Y59.786 E86.25686
G1 X97.942 Y59.353 E86.31308
G1 X98.229 Y58.979 E86.36965
G1 X98.602 Y58.692 E86.42613
G1 X99.036 Y58.513 E86.48246
G1 X99.511 Y58.450 E86.53996
G1 X130.488 Y58.450 E90.25720
G1 X130.964 Y58.513 E90.31482
G1 X131.397 Y58.692 E90.37105
G1 X131.771 Y58.979 E90.42762
G1 X132.058 Y59.352 E90.48409
G1 X132.237 Y59.786 E90.54043
G1 X132.299 Y60.261 E90.59791
G1 X132.300 Y156.738 E102.17515
G1 X132.237 Y157.214 E102.23277
G1 X132.058 Y157.647 E102.28900
G1 X131.771 Y158.021 E102.34557
G1 X131.398 Y158.308 E102.40204
G1 X130.964 Y158.487 E102.45838
G1 X130.489 Y158.549 E102.51586
G1 X118.800 Y158.549 E103.91854
G1 X118.800 Y166.549 E104.87854
G1 X111.200 Y166.549 E105.79054
G1 X111.200 Y158.549 E106.75054
G0 F9000 X111.739 Y158.408
;TYPE:SKIN
G1 F1200 X114.058 Y160.727 E107.14409
G0 F9000 X113.702 Y160.937
G1 F1200 X111.739 Y158.974 E107.47722
G0 F9000 X111.739 Y159.540
G1 F1200 X113.389 Y161.189 E107.75715
G0 F9000 X113.143 Y161.509
G1 F1200 X111.739 Y160.105 E107.99542
G0 F9000 X111.739 Y160.671
G1 F1200 X112.948 Y161.880 E108.20059
G0 F9000 X112.811 Y162.308
G1 F1200 X111.739 Y161.237 E108.38243
G0 F9000 X111.739 Y161.803
G1 F1200 X112.763 Y162.826 E108.55613
G0 F9000 X112.920 Y163.548
G1 F1200 X111.739 Y162.368 E108.75646
G0 F9000 X111.739 Y162.934
G1 F1200 X114.813 Y166.008 E109.27814
G0 F9000 X114.247 Y166.008
G1 F1200 X111.739 Y163.500 E109.70376
G0 F9000 X111.739 Y164.065
G1 F1200 X113.682 Y166.008 E110.03350
G0 F9000 X113.116 Y166.008
G1 F1200 X111.739 Y164.631 E110.26718
G0 F9000 X111.739 Y165.197
G1 F1200 X112.550 Y166.008 E110.40481
G0 F9000 X111.985 Y166.008
G1 F1200 X111.739 Y165.762 E110.44656
G0 F9000 X114.199 Y164.828
G1 F1200 X115.379 Y166.008 E110.64682
G0 F9000 X115.945 Y166.008
G1 F1200 X114.922 Y164.985 E110.82042
G0 F9000 X115.440 Y164.938
G1 F1200 X116.510 Y166.008 E111.00201
G0 F9000 X117.076 Y166.008
G1 F1200 X115.868 Y164.800 E111.20701
G0 F9000 X116.239 Y164.605
G1 F1200 X117.642 Y166.008 E111.44511
G0 F9000 X118.207 Y166.008
G1 F1200 X116.558 Y164.359 E111.72495
G0 F9000 X116.810 Y164.045
G1 F1200 X118.260 Y165.494 E111.97094
G0 F9000 X118.260 Y164.929
G1 F1200 X117.020 Y163.689 E112.18138
G0 F9000 X117.175 Y163.278
G1 F1200 X118.260 Y164.363 E112.36551
G0 F9000 X118.260 Y163.797
G1 F1200 X117.242 Y162.780 E112.53818
G0 F9000 X117.149 Y162.121
G1 F1200 X118.260 Y163.232 E112.72673
G0 F9000 X118.260 Y162.666
G1 F1200 X98.240 Y142.646 E116.12423
G0 F9000 X98.240 Y142.081
G1 F1200 X118.260 Y162.100 E119.52166
G0 F9000 X118.260 Y161.535
G1 F1200 X98.240 Y141.515 E122.91916
G0 F9000 X98.240 Y140.949
G1 F1200 X118.260 Y160.969 E126.31667
G0 F9000 X118.260 Y160.403
G1 F1200 X98.240 Y140.384 E129.71409
G0 F9000 X98.240 Y143.212
G1 F1200 X115.626 Y160.598 E132.66459
G0 F9000 X114.967 Y160.505
G1 F1200 X98.240 Y143.778 E135.50326
G0 F9000 X98.240 Y144.343
G1 F1200 X114.468 Y160.571 E138.25724
G0 F9000 X118.260 Y159.837
G1 F1200 X98.240 Y139.818 E141.65466
G0 F9000 X98.240 Y139.252
G1 F1200 X118.260 Y159.272 E145.05217
G0 F9000 X118.260 Y158.706
G1 F1200 X98.240 Y138.686 E148.44968
G0 F9000 X98.240 Y138.121
G1 F1200 X118.260 Y158.140 E151.84710
G0 F9000 X118.692 Y158.007
G1 F1200 X98.240 Y137.555 E155.31792
G0 F9000 X98.240 Y136.989
G1 F1200 X119.258 Y158.007 E158.88479
G0 F9000 X119.824 Y158.007
G1 F1200 X98.240 Y136.424 E162.54763
G0 F9000 X98.240 Y135.858
G1 F1200 X120.389 Y158.007 E166.30644
G0 F9000 X120.955 Y158.007
G1 F1200 X98.240 Y135.292 E170.16131
G0 F9000 X98.240 Y134.727
G1 F1200 X121.521 Y158.007 E174.11214
G0 F9000 X122.086 Y158.007
G1 F1200 X98.240 Y134.161 E178.15894
G0 F9000 X98.240 Y133.595
G1 F1200 X122.652 Y158.007 E182.30179
G0 F9000 X123.218 Y158.007
G1 F1200 X98.240 Y133.030 E186.54061
G0 F9000 X98.240 Y132.464
G1 F1200 X123.783 Y158.007 E190.87541
G0 F9000 X124.349 Y158.007
G1 F1200 X98.240 Y131.898 E195.30625
G0 F9000 X98.240 Y131.333
G1 F1200 X124.915 Y158.007 E199.83306
G0 F9000 X125.481 Y158.007
G1 F1200 X98.240 Y130.767 E204.45593
G0 F9000 X98.240 Y130.201
G1 F1200 X126.046 Y158.007 E209.17476
G0 F9000 X126.612 Y158.007
G1 F1200 X98.240 Y129.636 E213.98957
G0 F9000 X98.240 Y129.070
G1 F1200 X127.178 Y158.007 E218.90042
G0 F9000 X127.743 Y158.007
G1 F1200 X98.240 Y128.504 E223.90725
G0 F9000 X98.240 Y127.938
G1 F1200 X128.309 Y158.007 E229.01013
G0 F9000 X128.875 Y158.007
G1 F1200 X98.240 Y127.373 E234.20897
G0 F9000 X98.240 Y126.807
G1 F1200 X129.440 Y158.007 E239.50379
G0 F9000 X130.006 Y158.007
G1 F1200 X98.240 Y126.241 E244.89466
G0 F9000 X98.240 Y125.676
G1 F1200 X130.558 Y157.993 E250.37912
G0 F9000 X131.010 Y157.880
G1 F1200 X98.240 Y125.110 E255.94037
G0 F9000 X98.239 Y124.544
G1 F1200 X131.354 Y157.658 E261.56009
G0 F9000 X131.600 Y157.339
G1 F1200 X98.239 Y123.978 E267.22164
G0 F9000 X98.239 Y123.412
G1 F1200 X131.731 Y156.904 E272.90542
G0 F9000 X131.760 Y156.367
G1 F1200 X98.239 Y122.847 E278.59404
G0 F9000 X98.239 Y122.281
G1 F1200 X131.760 Y155.801 E284.28266
G0 F9000 X131.760 Y155.236
G1 F1200 X98.239 Y121.715 E289.97136
G0 F9000 X98.239 Y121.150
G1 F1200 X131.760 Y154.670 E295.65998
G0 F9000 X131.760 Y154.104
G1 F1200 X98.239 Y120.584 E301.34859
G0 F9000 X98.239 Y120.018
G1 F1200 X131.760 Y153.539 E307.03729
G0 F9000 X131.760 Y152.973
G1 F1200 X98.239 Y119.452 E312.72600
G0 F9000 X98.239 Y118.887
G1 F1200 X131.760 Y152.407 E318.41461
G0 F9000 X131.760 Y151.841
G1 F1200 X98.239 Y118.321 E324.10323
G0 F9000 X98.239 Y117.755
G1 F1200 X131.760 Y151.276 E329.79193
G0 F9000 X131.760 Y150.710
G1 F1200 X98.239 Y117.190 E335.48055
G0 F9000 X98.239 Y116.624
G1 F1200 X131.760 Y150.144 E341.16917
G0 F9000 X131.760 Y149.579
G1 F1200 X98.239 Y116.058 E346.85787
G0 F9000 X98.239 Y115.493
G1 F1200 X131.760 Y149.013 E352.54649
G0 F9000 X131.760 Y148.447
G1 F1200 X98.239 Y114.927 E358.23511
G0 F9000 X98.239 Y114.361
G1 F1200 X131.760 Y147.882 E363.92381
G0 F9000 X131.760 Y147.316
G1 F1200 X98.239 Y113.796 E369.61243
G0 F9000 X98.239 Y113.230
G1 F1200 X131.760 Y146.750 E375.30104
G0 F9000 X131.760 Y146.185
G1 F1200 X98.239 Y112.664 E380.98975
G0 F9000 X98.239 Y112.099
G1 F1200 X131.760 Y145.619 E386.67836
G0 F9000 X131.760 Y145.053
G1 F1200 X98.239 Y111.533 E392.36698
G0 F9000 X98.239 Y110.967
G1 F1200 X131.760 Y144.488 E398.05568
G0 F9000 X131.760 Y143.922
G1 F1200 X98.239 Y110.401 E403.74439
G0 F9000 X98.239 Y109.836
G1 F1200 X131.760 Y143.356 E409.43300
G0 F9000 X131.760 Y142.791
G1 F1200 X98.239 Y109.270 E415.12171
G0 F9000 X98.239 Y108.704
G1 F1200 X131.760 Y142.225 E420.81041
G0 F9000 X131.760 Y141.659
G1 F1200 X98.239 Y108.139 E426.49903
G0 F9000 X98.239 Y107.573
G1 F1200 X131.760 Y141.093 E432.18764
G0 F9000 X131.760 Y140.528
G1 F1200 X98.239 Y107.007 E437.87635
G0 F9000 X98.239 Y106.442
G1 F1200 X131.760 Y139.962 E443.56496
G0 F9000 X131.760 Y139.396
G1 F1200 X98.239 Y105.876 E449.25358
G0 F9000 X98.239 Y105.310
G1 F1200 X131.760 Y138.831 E454.94228
G0 F9000 X131.760 Y138.265
G1 F1200 X98.239 Y104.745 E460.63090
G0 F9000 X98.239 Y104.179
G1 F1200 X131.760 Y137.699 E466.31952
G0 F9000 X131.760 Y137.134
G1 F1200 X98.239 Y103.613 E472.00822
G0 F9000 X98.239 Y103.048
G1 F1200 X131.760 Y136.568 E477.69684
G0 F9000 X131.760 Y136.002
G1 F1200 X98.239 Y102.482 E483.38546
G0 F9000 X98.239 Y101.916
G1 F1200 X131.760 Y135.437 E489.07416
G0 F9000 X131.760 Y134.871
G1 F1200 X98.239 Y101.351 E494.76278
G0 F9000 X98.239 Y100.785
G1 F1200 X131.760 Y134.305 E500.45139
G0 F9000 X131.760 Y133.740
G1 F1200 X98.239 Y100.219 E506.14009
G0 F9000 X98.239 Y99.653
G1 F1200 X131.760 Y133.174 E511.82880
G0 F9000 X131.760 Y132.608
G1 F1200 X98.239 Y99.088 E517.51741
G0 F9000 X98.239 Y98.522
G1 F1200 X131.760 Y132.042 E523.20603
G0 F9000 X131.760 Y131.477
G1 F1200 X98.239 Y97.956 E528.89473
G0 F9000 X98.239 Y97.391
G1 F1200 X131.760 Y130.911 E534.58335
G0 F9000 X131.760 Y130.345
G1 F1200 X98.239 Y96.825 E540.27197
G0 F9000 X98.239 Y96.259
G1 F1200 X131.760 Y129.780 E545.96067
G0 F9000 X131.760 Y129.214
G1 F1200 X98.239 Y95.694 E551.64929
G0 F9000 X98.239 Y95.128
G1 F1200 X131.760 Y128.648 E557.33791
G0 F9000 X131.760 Y128.083
G1 F1200 X98.239 Y94.562 E563.02661
G0 F9000 X98.239 Y93.997
G1 F1200 X131.760 Y127.517 E568.71523
G0 F9000 X131.760 Y126.951
G1 F1200 X98.239 Y93.431 E574.40384
G0 F9000 X98.239 Y92.865
G1 F1200 X131.760 Y126.386 E580.09255
G0 F9000 X131.760 Y125.820
G1 F1200 X98.239 Y92.299 E585.78125
G0 F9000 X98.239 Y91.733
G1 F1200 X131.760 Y125.254 E591.46995
G0 F9000 X131.760 Y124.689
G1 F1200 X98.239 Y91.167 E597.15874
G0 F9000 X98.239 Y90.602
G1 F1200 X131.760 Y124.123 E602.84744
G0 F9000 X131.760 Y123.557
G1 F1200 X98.239 Y90.036 E608.53614
G0 F9000 X98.239 Y89.470
G1 F1200 X131.760 Y122.992 E614.22493
G0 F9000 X131.760 Y122.426
G1 F1200 X98.239 Y88.905 E619.91363
G0 F9000 X98.239 Y88.339
G1 F1200 X131.760 Y121.860 E625.60233
G0 F9000 X131.760 Y121.294
G1 F1200 X98.239 Y87.773 E631.29104
G0 F9000 X98.239 Y87.208
G1 F1200 X131.760 Y120.729 E636.97974
G0 F9000 X131.760 Y120.163
G1 F1200 X98.239 Y86.642 E642.66844
G0 F9000 X98.239 Y86.076
G1 F1200 X131.760 Y119.597 E648.35714
G0 F9000 X131.760 Y119.032
G1 F1200 X98.239 Y85.511 E654.04585
G0 F9000 X98.239 Y84.945
G1 F1200 X131.760 Y118.466 E659.73455
G0 F9000 X131.760 Y117.900
G1 F1200 X98.239 Y84.379 E665.42325
G0 F9000 X98.239 Y83.814
G1 F1200 X131.760 Y117.335 E671.11195
G0 F9000 X131.760 Y116.769
G1 F1200 X98.239 Y83.248 E676.80066
G0 F9000 X98.239 Y82.682
G1 F1200 X131.760 Y116.203 E682.48936
G0 F9000 X131.760 Y115.638
G1 F1200 X98.239 Y82.117 E688.17806
G0 F9000 X98.239 Y81.551
G1 F1200 X131.760 Y115.072 E693.86676
G0 F9000 X131.760 Y114.506
G1 F1200 X98.239 Y80.985 E699.55547
G0 F9000 X98.239 Y80.419
G1 F1200 X131.760 Y113.941 E705.24425
G0 F9000 X131.760 Y113.375
G1 F1200 X98.239 Y79.854 E710.93295
G0 F9000 X98.239 Y79.288
G1 F1200 X131.760 Y112.809 E716.62166
G0 F9000 X131.760 Y112.244
G1 F1200 X98.239 Y78.722 E722.31044
G0 F9000 X98.239 Y78.157
G1 F1200 X131.760 Y111.678 E727.99915
G0 F9000 X131.760 Y111.112
G1 F1200 X98.239 Y77.591 E733.68785
G0 F9000 X98.239 Y77.025
G1 F1200 X131.760 Y110.546 E739.37655
G0 F9000 X131.760 Y109.981
G1 F1200 X98.239 Y76.460 E745.06525
G0 F9000 X98.239 Y75.894
G1 F1200 X131.760 Y109.415 E750.75396
G0 F9000 X131.760 Y108.849
G1 F1200 X98.239 Y75.328 E756.44266
G0 F9000 X98.239 Y74.763
G1 F1200 X131.759 Y108.283 E762.13119
G0 F9000 X131.759 Y107.717
G1 F1200 X98.239 Y74.197 E767.81972
G0 F9000 X98.239 Y73.631
G1 F1200 X131.759 Y107.152 E773.50834
G0 F9000 X131.759 Y106.586
G1 F1200 X98.239 Y73.066 E779.19687
G0 F9000 X98.239 Y72.500
G1 F1200 X131.759 Y106.020 E784.88541
G0 F9000 X131.759 Y105.455
G1 F1200 X98.239 Y71.934 E790.57402
G0 F9000 X98.239 Y71.368
G1 F1200 X131.759 Y104.889 E796.26264
G0 F9000 X131.759 Y104.323
G1 F1200 X98.239 Y70.803 E801.95117
G0 F9000 X98.239 Y70.237
G1 F1200 X131.759 Y103.758 E807.63979
G0 F9000 X131.759 Y103.192
G1 F1200 X98.239 Y69.671 E813.32841
G0 F9000 X98.239 Y69.106
G1 F1200 X131.759 Y102.626 E819.01694
G0 F9000 X131.759 Y102.060
G1 F1200 X98.239 Y68.540 E824.70547
G0 F9000 X98.239 Y67.974
G1 F1200 X131.759 Y101.495 E830.39409
G0 F9000 X131.759 Y100.929
G1 F1200 X98.239 Y67.409 E836.08262
G0 F9000 X98.239 Y66.843
G1 F1200 X131.759 Y100.363 E841.77116
G0 F9000 X131.759 Y99.798
G1 F1200 X98.239 Y66.277 E847.45977
G0 F9000 X98.239 Y65.712
G1 F1200 X131.759 Y99.232 E853.14831
G0 F9000 X131.759 Y98.666
G1 F1200 X98.239 Y65.146 E858.83684
G0 F9000 X98.239 Y64.580
G1 F1200 X131.759 Y98.101 E864.52546
G0 F9000 X131.759 Y97.535
G1 F1200 X98.239 Y64.015 E870.21399
G0 F9000 X98.239 Y63.449
G1 F1200 X131.759 Y96.969 E875.90252
G0 F9000 X131.759 Y96.404
G1 F1200 X98.239 Y62.883 E881.59114
G0 F9000 X98.239 Y62.318
G1 F1200 X131.759 Y95.838 E887.27967
G0 F9000 X131.759 Y95.272
G1 F1200 X98.239 Y61.752 E892.96821
G0 F9000 X98.239 Y61.186
G1 F1200 X131.759 Y94.707 E898.65682
G0 F9000 X131.759 Y94.141
G1 F1200 X98.239 Y60.620 E904.34544
G0 F9000 X98.268 Y60.084
