;FLAVOR:UltiGCode
;TIME:5010
;MATERIAL:7288
;MATERIAL2:0
;NOZZLE_DIAMETER:0.400000
;NOZZLE_DIAMETER2:0.400000

;Layer count: 78
;LAYER:0
M107
G0 F9000 X156.361 Y95.316 Z0.300
G0 X156.361 Y95.519
;TYPE:SKIRT
G1 F1200 X156.161 Y95.719 E0.03394
G1 X156.161 Y95.919 E0.05794
G1 X155.961 Y96.119 E0.09188
G1 X155.961 Y96.315 E0.11540
G1 X155.561 Y96.716 E0.18337
G1 X155.561 Y97.119 E0.23173
G1 X155.361 Y97.319 E0.26567
G1 X155.361 Y97.919 E0.33767
G1 X155.161 Y98.119 E0.37161
G1 X155.161 Y98.289 E0.39201
G1 X155.361 Y98.489 E0.42595
G1 X155.361 Y99.089 E0.49795
G1 X155.561 Y99.289 E0.53189
G1 X155.561 Y99.692 E0.58025
G1 X155.961 Y100.093 E0.64822
G1 X155.961 Y100.289 E0.67174
G1 X156.161 Y100.489 E0.70568
G1 X156.161 Y100.689 E0.72968
G1 X156.361 Y100.889 E0.76362
G1 X156.361 Y101.092 E0.78798
G1 X156.761 Y101.493 E0.85595
G1 X156.761 Y101.687 E0.87923
G1 X156.858 Y101.784 E0.89569
G1 X157.022 Y101.825 E0.91598
G1 X158.221 Y102.424 E1.07681
G1 X158.754 Y102.556 E1.14271
G1 X158.920 Y102.612 E1.16373
G1 X161.163 Y102.642 E1.43291
G1 X162.255 Y102.097 E1.57937
G1 X162.855 Y101.498 E1.68110
G1 X162.861 Y101.495 E1.68191
G1 X162.861 Y101.493 E1.68215
G1 X163.261 Y101.092 E1.75012
G1 X163.261 Y100.889 E1.77448
G1 X163.461 Y100.689 E1.80842
G1 X163.461 Y100.289 E1.85642
G1 X163.661 Y100.089 E1.89036
G1 X163.661 Y99.889 E1.91436
G1 X163.861 Y99.689 E1.94830
G1 X163.861 Y99.489 E1.97230
G1 X164.061 Y99.289 E2.00624
G1 X164.061 Y98.889 E2.05424
G1 X164.261 Y98.689 E2.08818
G1 X164.261 Y97.719 E2.20458
G1 X164.061 Y97.519 E2.23852
G1 X164.061 Y97.119 E2.28652
G1 X163.861 Y96.919 E2.32046
G1 X163.861 Y96.719 E2.34446
G1 X163.661 Y96.519 E2.37841
G1 X163.661 Y96.319 E2.40241
G1 X163.461 Y96.119 E2.43635
G1 X163.461 Y95.719 E2.48435
G1 X163.261 Y95.519 E2.51829
G1 X163.261 Y95.316 E2.54265
G1 X162.861 Y94.915 E2.61062
G1 X162.861 Y94.913 E2.61086
G1 X162.855 Y94.910 E2.61166
G1 X162.254 Y94.311 E2.71348
G1 X161.163 Y93.766 E2.85983
G1 X158.919 Y93.796 E3.12913
G1 X158.755 Y93.851 E3.14989
G1 X158.219 Y93.985 E3.21619
G1 X157.022 Y94.583 E3.37676
G1 X156.858 Y94.624 E3.39704
G1 X156.761 Y94.721 E3.41351
G1 X156.761 Y94.915 E3.43679
G1 X156.361 Y95.316 E3.50475
G1 X156.361 Y95.519 E3.52911
G0 F9000 X141.161 Y83.466
G1 F1200 X141.227 Y82.702 E3.62113
G1 X141.462 Y81.821 E3.73055
G1 X141.846 Y80.998 E3.83953
G1 X142.367 Y80.254 E3.94853
G1 X143.011 Y79.610 E4.05782
G1 X143.755 Y79.089 E4.16681
G1 X144.578 Y78.705 E4.27579
G1 X145.459 Y78.470 E4.38521
G1 X146.223 Y78.404 E4.47723
G1 X173.398 Y78.404 E7.73823
G1 X174.162 Y78.470 E7.83025
G1 X175.043 Y78.705 E7.93967
G1 X175.866 Y79.089 E8.04865
G1 X176.610 Y79.610 E8.15764
G1 X177.254 Y80.254 E8.26693
G1 X177.775 Y80.998 E8.37593
G1 X178.159 Y81.821 E8.48491
G1 X178.394 Y82.702 E8.59432
G1 X178.460 Y83.466 E8.68635
G1 X178.460 Y118.242 E12.85947
G1 X178.394 Y119.006 E12.95149
G1 X178.159 Y119.884 E13.06056
G1 X177.775 Y120.710 E13.16986
G1 X177.253 Y121.455 E13.27902
G1 X176.610 Y122.097 E13.38806
G1 X175.866 Y122.618 E13.49705
G1 X175.043 Y123.002 E13.60604
G1 X174.167 Y123.236 E13.71484
G1 X173.402 Y123.304 E13.80700
G1 X156.426 Y123.304 E15.84412
G1 X152.938 Y123.804 E16.26696
G1 X147.661 Y123.804 E16.90020
G1 X147.661 Y123.304 E16.96020
G1 X146.219 Y123.304 E17.13324
G1 X145.454 Y123.236 E17.22540
G1 X144.578 Y123.002 E17.33421
G1 X143.755 Y122.618 E17.44319
G1 X143.011 Y122.097 E17.55218
G1 X142.368 Y121.455 E17.66122
G1 X141.846 Y120.710 E17.77038
G1 X141.462 Y119.884 E17.87969
G1 X141.227 Y119.006 E17.98876
G1 X141.161 Y118.242 E18.08078
G1 X141.161 Y83.466 E22.25390
G10
G0 F9000 X144.961 Y83.633
;TYPE:WALL-INNER
G11
G1 F1200 X144.984 Y83.361 E22.28666
G1 X145.047 Y83.125 E22.31597
G1 X145.150 Y82.905 E22.34512
G1 X145.292 Y82.702 E22.37485
G1 X145.459 Y82.535 E22.40319
G1 X145.662 Y82.393 E22.43291
G1 X145.882 Y82.290 E22.46206
G1 X146.118 Y82.227 E22.49138
G1 X173.231 Y82.204 E25.74494
G1 X173.503 Y82.227 E25.77769
G1 X173.739 Y82.290 E25.80701
G1 X173.959 Y82.393 E25.83616
G1 X174.162 Y82.535 E25.86588
G1 X174.329 Y82.702 E25.89423
G1 X174.471 Y82.905 E25.92395
G1 X174.574 Y83.125 E25.95310
G1 X174.637 Y83.361 E25.98242
G1 X174.660 Y118.075 E30.14810
G1 X174.637 Y118.346 E30.18073
G1 X174.573 Y118.585 E30.21042
G1 X174.472 Y118.802 E30.23915
G1 X174.330 Y119.004 E30.26878
G1 X174.162 Y119.172 E30.29729
G1 X173.959 Y119.314 E30.32701
G1 X173.739 Y119.417 E30.35617
G1 X173.503 Y119.480 E30.38548
G1 X173.229 Y119.504 E30.41848
G1 X155.621 Y119.504 E32.53144
G1 X155.619 Y118.704 E32.62744
G1 X173.860 Y118.704 E34.81636
G1 X173.860 Y83.004 E39.10036
G1 X145.761 Y83.004 E42.47224
G1 X145.761 Y118.704 E46.75624
G1 X150.101 Y118.704 E47.27704
G1 X150.100 Y119.504 E47.37304
G1 X146.392 Y119.504 E47.81800
G1 X146.118 Y119.480 E47.85101
G1 X145.882 Y119.417 E47.88032
G1 X145.662 Y119.314 E47.90947
G1 X145.459 Y119.172 E47.93920
G1 X145.291 Y119.004 E47.96771
G1 X145.149 Y118.802 E47.99734
G1 X145.048 Y118.585 E48.02606
G1 X144.984 Y118.346 E48.05575
G1 X144.961 Y83.633 E52.22131
G0 F9000 X144.561 Y83.604
;TYPE:WALL-OUTER
G1 F1200 X144.588 Y83.292 E52.25889
G1 X144.669 Y82.988 E52.29665
G1 X144.801 Y82.706 E52.33401
G1 X144.985 Y82.443 E52.37253
G1 X145.200 Y82.228 E52.40901
G1 X145.463 Y82.044 E52.44753
G1 X145.745 Y81.912 E52.48489
G1 X146.049 Y81.831 E52.52265
G1 X146.366 Y81.804 E52.56082
G1 X173.255 Y81.804 E55.78750
G1 X173.572 Y81.831 E55.82568
G1 X173.876 Y81.912 E55.86344
G1 X174.158 Y82.044 E55.90080
G1 X174.421 Y82.228 E55.93932
G1 X174.636 Y82.443 E55.97580
G1 X174.820 Y82.706 E56.01432
G1 X174.952 Y82.988 E56.05168
G1 X175.033 Y83.292 E56.08944
G1 X175.060 Y83.604 E56.12702
G1 X175.060 Y118.104 E60.26702
G1 X175.033 Y118.415 E60.30448
G1 X174.951 Y118.721 E60.34249
G1 X174.821 Y119.000 E60.37943
G1 X174.636 Y119.264 E60.41811
G1 X174.421 Y119.479 E60.45460
G1 X174.158 Y119.663 E60.49312
G1 X173.876 Y119.795 E60.53048
G1 X173.573 Y119.876 E60.56812
G1 X173.253 Y119.904 E60.60666
G1 X155.222 Y119.904 E62.77038
G1 X155.218 Y118.304 E62.96238
G1 X173.460 Y118.304 E65.15142
G1 X173.460 Y83.404 E69.33942
G1 X146.161 Y83.404 E72.61530
G1 X146.161 Y118.304 E76.80330
G1 X150.502 Y118.304 E77.32422
G1 X150.499 Y119.904 E77.51622
G1 X146.368 Y119.904 E78.01194
G1 X146.048 Y119.876 E78.05049
G1 X145.745 Y119.795 E78.08813
G1 X145.463 Y119.663 E78.12549
G1 X145.200 Y119.479 E78.16401
G1 X144.985 Y119.264 E78.20050
G1 X144.800 Y119.000 E78.23918
G1 X144.670 Y118.721 E78.27612
G1 X144.588 Y118.415 E78.31413
G1 X144.561 Y118.104 E78.35159
G1 X144.561 Y83.604 E82.49159
G0 F9000 X145.100 Y83.723
;TYPE:SKIN
G1 F1200 X145.360 Y84.266 E82.57973
G1 X145.360 Y84.831 E82.66770
G1 X145.360 Y85.397 E82.75566
G1 X145.360 Y85.963 E82.84361
G1 X145.360 Y86.529 E82.93157
G1 X145.361 Y87.095 E83.01953
G1 X145.361 Y87.661 E83.10731
G1 X145.361 Y88.227 E83.19510
G1 X145.361 Y88.792 E83.28273
G1 X145.361 Y89.358 E83.37035
G1 X145.361 Y89.924 E83.45796
G1 X145.362 Y90.490 E83.54541
G1 X145.362 Y91.056 E83.63286
G1 X145.362 Y91.622 E83.72031
G1 X145.362 Y92.187 E83.80743
G1 X145.363 Y92.754 E83.89469
G1 X145.363 Y93.319 E83.98164
G1 X145.363 Y93.885 E84.06875
G1 X145.363 Y94.451 E84.15586
G1 X145.363 Y95.017 E84.24280
G1 X145.364 Y95.583 E84.32956
G1 X145.364 Y96.149 E84.41633
G1 X145.364 Y96.715 E84.50310
G1 X145.364 Y97.281 E84.58987
G1 X145.364 Y97.846 E84.67648
G1 X145.364 Y98.412 E84.76308
G1 X145.365 Y98.978 E84.84968
G1 X145.365 Y99.544 E84.93611
G1 X145.365 Y100.110 E85.02253
G1 X145.365 Y100.676 E85.10879
G1 X145.365 Y101.242 E85.19505
G1 X145.365 Y101.807 E85.28133
G1 X145.366 Y102.374 E85.36757
G1 X145.366 Y102.939 E85.45350
G1 X145.366 Y103.505 E85.53959
G1 X145.366 Y104.071 E85.62551
G1 X145.366 Y104.637 E85.71143
G1 X145.366 Y105.203 E85.79735
G1 X145.367 Y105.769 E85.88327
G1 X145.367 Y106.335 E85.96902
G1 X145.367 Y106.900 E86.05461
G1 X145.367 Y107.466 E86.14019
G1 X145.367 Y108.032 E86.22577
G1 X145.368 Y108.598 E86.31118
G1 X145.368 Y109.164 E86.39659
G1 X145.368 Y109.730 E86.48200
G1 X145.368 Y110.295 E86.56709
G1 X145.369 Y110.862 E86.65231
G1 X145.369 Y111.427 E86.73723
G1 X145.369 Y111.993 E86.82230
G1 X145.369 Y112.559 E86.90737
G1 X145.369 Y113.125 E86.99244
G1 X145.369 Y113.690 E87.07719
G1 X145.370 Y114.257 E87.16207
G1 X145.370 Y114.823 E87.24680
G1 X145.370 Y115.388 E87.33138
G1 X145.370 Y115.954 E87.41594
G1 X145.370 Y116.520 E87.50050
G1 X145.370 Y117.086 E87.58506
G1 X145.371 Y117.652 E87.66945
G1 X145.371 Y118.218 E87.75384
G1 X145.666 Y118.796 E87.83833
G1 X146.248 Y119.095 E87.92392
G1 X146.821 Y119.103 E88.01211
G1 X147.387 Y119.103 E88.10041
G1 X147.953 Y119.103 E88.18853
G1 X148.518 Y119.103 E88.27667
G1 X149.084 Y119.103 E88.36497
G1 X149.793 Y119.246 E88.45328
G1 X149.673 Y118.843 E88.50374
G0 F9000 X145.820 Y118.645
G0 X145.820 Y83.063
G0 X173.801 Y83.063
G0 X173.801 Y118.645
G0 X155.758 Y119.271
G1 F1200 X155.873 Y119.103 E88.51937
G1 X156.439 Y119.103 E88.60733
G1 X157.004 Y119.103 E88.69513
G1 X157.570 Y119.103 E88.78309
G1 X158.136 Y119.103 E88.87104
G1 X158.701 Y119.103 E88.95902
G1 X159.267 Y119.103 E89.04697
G1 X159.833 Y119.103 E89.13493
G1 X160.399 Y119.103 E89.22288
G1 X160.964 Y119.103 E89.31069
G1 X161.530 Y119.103 E89.39864
G1 X162.096 Y119.103 E89.48660
G1 X162.661 Y119.103 E89.57440
G1 X163.227 Y119.103 E89.66236
G1 X163.793 Y119.103 E89.75031
G1 X164.358 Y119.103 E89.83811
G1 X164.924 Y119.103 E89.92607
G1 X165.490 Y119.103 E90.01403
G1 X166.055 Y119.103 E90.10183
G1 X166.621 Y119.103 E90.18978
G1 X167.187 Y119.103 E90.27774
G1 X167.752 Y119.103 E90.36554
G1 X168.318 Y119.103 E90.45350
G1 X168.884 Y119.103 E90.54145
G1 X169.449 Y119.103 E90.62942
G1 X170.015 Y119.103 E90.71738
G1 X170.581 Y119.103 E90.80534
G1 X171.147 Y119.103 E90.89329
G1 X171.712 Y119.103 E90.98109
G1 X172.278 Y119.103 E91.06905
G1 X172.844 Y119.103 E91.15701
G1 X173.593 Y119.287 E91.24262
G1 X173.715 Y118.844 E91.30727
G1 X174.263 Y118.826 E91.33211
G1 X174.253 Y118.250 E91.39692
G1 X174.259 Y117.690 E91.48294
G1 X174.259 Y117.124 E91.57123
G1 X174.258 Y116.559 E91.65937
G1 X174.258 Y115.992 E91.74731
G1 X174.258 Y115.427 E91.83512
G1 X174.258 Y114.861 E91.92307
G1 X174.258 Y114.295 E92.01086
G1 X174.257 Y113.729 E92.09865
G1 X174.257 Y113.163 E92.18626
G1 X174.257 Y112.597 E92.27388
G1 X174.257 Y112.031 E92.36150
G1 X174.257 Y111.465 E92.44911
G1 X174.257 Y110.900 E92.53657
G1 X174.256 Y110.334 E92.62402
G1 X174.256 Y109.768 E92.71147
G1 X174.256 Y109.202 E92.79875
G1 X174.256 Y108.636 E92.88585
G1 X174.256 Y108.070 E92.97296
G1 X174.255 Y107.504 E93.06007
G1 X174.255 Y106.939 E93.14702
G1 X174.255 Y106.372 E93.23411
G1 X174.255 Y105.807 E93.32090
G1 X174.255 Y105.241 E93.40767
G1 X174.255 Y104.675 E93.49443
G1 X174.254 Y104.109 E93.58103
G1 X174.254 Y103.543 E93.66763
G1 X174.254 Y102.977 E93.75423
G1 X174.254 Y102.411 E93.84066
G1 X174.254 Y101.846 E93.92710
G1 X174.253 Y101.280 E94.01353
G1 X174.253 Y100.714 E94.09979
G1 X174.253 Y100.148 E94.18605
G1 X174.253 Y99.582 E94.27213
G1 X174.252 Y99.016 E94.35839
G1 X174.252 Y98.451 E94.44433
G1 X174.252 Y97.884 E94.53023
G1 X174.252 Y97.319 E94.61617
G1 X174.252 Y96.753 E94.70208
G1 X174.252 Y96.187 E94.78783
G1 X174.251 Y95.621 E94.87375
G1 X174.251 Y95.055 E94.95933
G1 X174.251 Y94.489 E95.04491
G1 X174.251 Y93.923 E95.13049
G1 X174.251 Y93.358 E95.21592
G1 X174.250 Y92.792 E95.30133
G1 X174.250 Y92.226 E95.38674
G1 X174.250 Y91.660 E95.47215
G1 X174.250 Y91.094 E95.55722
G1 X174.250 Y90.528 E95.64229
G1 X174.250 Y89.962 E95.72736
G1 X174.249 Y89.396 E95.81243
G1 X174.249 Y88.831 E95.89735
G1 X174.249 Y88.264 E95.98240
G1 X174.249 Y87.699 E96.06715
G1 X174.249 Y87.133 E96.15188
G1 X174.249 Y86.567 E96.23661
G1 X174.248 Y86.001 E96.32134
G1 X174.248 Y85.435 E96.40590
G1 X174.248 Y84.869 E96.49029
G1 X174.247 Y84.304 E96.57470
G1 X174.247 Y83.738 E96.65892
G1 X174.180 Y83.105 E96.74332
G1 X173.757 Y82.682 E96.82857
G1 X173.114 Y82.604 E96.91659
G1 X172.548 Y82.604 E97.00472
G1 X171.982 Y82.604 E97.09268
G1 X171.417 Y82.605 E97.18048
G1 X170.851 Y82.605 E97.26843
G1 X170.286 Y82.605 E97.35623
G1 X169.721 Y82.605 E97.44387
G1 X169.155 Y82.605 E97.53148
G1 X168.590 Y82.606 E97.61894
G1 X168.025 Y82.606 E97.70641
G1 X167.459 Y82.606 E97.79385
G1 X166.893 Y82.606 E97.88113
G1 X166.328 Y82.607 E97.96808
G1 X165.763 Y82.607 E98.05504
G1 X165.197 Y82.607 E98.14215
G1 X164.632 Y82.607 E98.22893
G1 X164.067 Y82.608 E98.31554
G1 X163.501 Y82.608 E98.40231
G1 X162.935 Y82.608 E98.48891
G1 X162.370 Y82.608 E98.57536
G1 X161.804 Y82.608 E98.66195
G1 X161.239 Y82.609 E98.74840
G1 X160.674 Y82.609 E98.83467
G1 X160.108 Y82.609 E98.92093
G1 X159.543 Y82.610 E99.00704
G1 X158.978 Y82.610 E99.09297
G1 X158.412 Y82.610 E99.17889
G1 X157.846 Y82.610 E99.26481
G1 X157.281 Y82.611 E99.35058
G1 X156.716 Y82.611 E99.43635
G1 X156.150 Y82.611 E99.52210
G1 X155.585 Y82.611 E99.60769
G1 X155.019 Y82.612 E99.69310
G1 X154.454 Y82.612 E99.77853
G1 X153.888 Y82.612 E99.86394
G1 X153.323 Y82.612 E99.94903
G1 X152.757 Y82.612 E100.03427
G1 X152.192 Y82.613 E100.11919
G1 X151.627 Y82.613 E100.20411
G1 X151.061 Y82.613 E100.28918
G1 X150.495 Y82.613 E100.37408
G1 X149.930 Y82.614 E100.45883
G1 X149.365 Y82.614 E100.54341
G1 X148.799 Y82.614 E100.62797
G1 X148.234 Y82.614 E100.71238
G1 X147.669 Y82.615 E100.79679
G1 X147.103 Y82.615 E100.88118
G1 X146.538 Y82.615 E100.96525
G1 X145.840 Y82.483 E101.04496
G1 X145.779 Y82.987 E101.09430
G1 X145.261 Y83.035 E101.13847
G1 X145.620 Y83.677 E101.22674
G0 F9000 X146.400 Y83.979
;TYPE:SUPPORT
G1 F1200 X173.219 Y83.979 E104.44502
G0 F9000 X171.957 Y83.644
G1 F1200 X171.957 Y118.064 E108.57542
G0 F9000 X171.957 Y117.304
G0 X172.460 Y115.971
G0 X173.219 Y115.971
G1 F1200 X146.400 Y115.971 E111.79370
G0 F9000 X147.161 Y115.971
G0 X147.963 Y117.304
G0 X147.963 Y118.064
G1 F1200 X147.963 Y83.644 E115.92410
G0 F9000 X147.963 Y84.404
G0 X150.629 Y84.404
G0 X150.629 Y83.644
G1 F1200 X150.629 Y118.064 E120.05450
G0 F9000 X150.741 Y118.637
G1 F1200 X154.978 Y118.637 E120.56294
G0 F9000 X155.961 Y118.064
G1 F1200 X155.961 Y104.178 E122.22926
G0 F9000 X155.776 Y104.914
G0 X155.122 Y104.846
G0 X153.377 Y103.089
G0 X153.461 Y102.826
G0 X154.220 Y102.641
G1 F1200 X146.400 Y102.641 E123.16766
G0 F9000 X147.161 Y102.641
G0 X147.161 Y105.307
G0 X146.400 Y105.307
G1 F1200 X173.219 Y105.307 E126.38594
G0 F9000 X172.460 Y105.307
G0 X172.460 Y107.973
G0 X173.219 Y107.973
G1 F1200 X146.400 Y107.973 E129.60422
G0 F9000 X147.161 Y107.973
G0 X147.161 Y110.639
G0 X146.400 Y110.639
G1 F1200 X173.219 Y110.639 E132.82250
G0 F9000 X172.460 Y110.639
G0 X172.460 Y113.305
G0 X173.219 Y113.305
G1 F1200 X146.400 Y113.305 E136.04078
G0 F9000 X147.161 Y113.305
G0 X151.544 Y117.263
G0 X153.188 Y120.434
G0 X153.295 Y121.188
G1 F1200 X153.295 Y101.017 E138.46130
G0 F9000 X152.683 Y101.478
G0 X153.377 Y103.089
G0 X155.122 Y104.846
G0 X158.617 Y105.908
G0 X158.627 Y105.148
G1 F1200 X158.627 Y118.064 E140.01122
G0 F9000 X158.627 Y117.304
G0 X161.293 Y117.304
G0 X161.293 Y118.064
G1 F1200 X161.293 Y105.185 E141.55670
G0 F9000 X161.283 Y105.944
G0 X162.860 Y105.692
G0 X164.494 Y104.522
G0 X163.959 Y103.984
G1 F1200 X163.959 Y118.064 E143.24630
G0 F9000 X163.959 Y117.304
G0 X166.625 Y117.304
G0 X166.625 Y118.064
G1 F1200 X166.625 Y99.916 E145.42406
G0 F9000 X166.600 Y99.975
G1 F1200 X173.219 Y99.975 E146.21834
G0 F9000 X172.460 Y99.975
G0 X172.460 Y97.309
G0 X173.219 Y97.309
G1 F1200 X166.800 Y97.309 E146.98862
G0 F9000 X166.625 Y96.491
G1 F1200 X166.625 Y83.644 E148.53026
G0 F9000 X166.625 Y84.404
G0 X163.959 Y84.404
G0 X163.959 Y83.644
G1 F1200 X163.959 Y92.423 E149.58374
G0 F9000 X163.267 Y91.977
G1 F1200 X173.219 Y91.977 E150.77798
G0 F9000 X172.460 Y91.977
G0 X172.460 Y94.643
G0 X173.219 Y94.643
G1 F1200 X165.976 Y94.643 E151.64714
G0 F9000 X166.539 Y94.132
G0 X166.245 Y93.319
G0 X164.262 Y91.517
G0 X161.713 Y90.360
G0 X161.283 Y90.463
G0 X161.293 Y91.224
G1 F1200 X161.293 Y83.644 E152.55674
G0 F9000 X161.293 Y84.404
G0 X169.291 Y84.404
G0 X169.291 Y83.644
G1 F1200 X169.291 Y118.064 E156.68714
G0 F9000 X169.291 Y117.304
G0 X166.161 Y102.826
