(.../EAGLE-7.6.0/ulp/pcb-gcode/pcb-gcode.ulp)
(Copyright 2005 - 2012 by John Johnson)
(See readme.txt for licensing terms.)
(This file generated from the board:)
(.../MQ-4-IOT/eagle/mq-4-outline.brd)
(Current profile is .../pcb-gcode/profiles/generic.pp  )
(This file generated 19/10/2016 13:38)
(Settings from pcb-machine.h)
(spindle on time = 3.0000)
(  Tool Size)
(0.1778 )
(spindle speed = 30000.0000)
(tool change at 0.0000 0.0000 25.4000 )
(feed rate xy = F508.00 )
(feed rate z  = F254.00 )
(Z Axis Settings)
(  High     Up        Down     Drill)
(12.7000 	2.5400 	-0.1778 	-0.8128 )
(Settings from pcb-defaults.h)
(isolate min = 0.0254)
(isolate max = 1.5080)
(isolate step = 0.1270)
(Generated bottom outlines, )
(Unit of measure: mm)
(Metric Mode)
G21
(Absolute Coordinates)
G90
S30000
G00 Z12.7000 
G00 X0.0000 Y0.0000 
M03
G04 P3.000000
G00 Z2.5400 
G00 X-0.9651 Y1.0242 
G01 Z-0.1778 F254.00 
G01 X-1.0242 Y0.9651 F508.00 
G01 X-1.0966 Y0.9233 
G01 X-1.1774 Y0.9017 
G01 X-21.3526 Y0.9017 
G01 X-21.4334 Y0.9233 
G01 X-21.5057 Y0.9651 
G01 X-21.5649 Y1.0242 
G01 X-21.6067 Y1.0966 
G01 X-21.6283 Y1.1774 
G01 X-21.6283 Y29.2926 
G01 X-21.6067 Y29.3733 
G01 X-21.5649 Y29.4457 
G01 X-21.5057 Y29.5049 
G01 X-21.4334 Y29.5467 
G01 X-21.3526 Y29.5683 
G01 X-21.2690 Y29.5683 
G01 X-1.1774 Y29.5683 
G01 X-1.0966 Y29.5467 
G01 X-1.0242 Y29.5049 
G01 X-0.9651 Y29.4457 
G01 X-0.9233 Y29.3733 
G01 X-0.9017 Y29.2926 
G01 X-0.9017 Y1.1774 
G01 X-0.9233 Y1.0966 
G01 X-0.9651 Y1.0242 
G00 Z2.5400 
G00 Z12.7000 
M05
M02
